%
O01001
(Using high feed G1 F500. instead of G0.)
(T1 D=0.5 CR=0. - ZMIN=0.235 - flat end mill)
N10 G90 G17
N15 G20
N20 G53 G0 Z0.

(adaptive top)
N25 T1 M6
N30 S5000 M3
N35 G54
N40 G17 G90
N45 M8
N50 G1 X-0.0491 Y-1.8209 F500.
N55 G0 G43 Z1.85 H1
N60 G0 Z0.4125
N65 G1 Z0.3625 F69.
N70 X-0.049 Y-1.8206 Z0.3569
N75 X-0.0487 Y-1.8197 Z0.3514
N80 X-0.0484 Y-1.8182 Z0.346
N85 X-0.0478 Y-1.8161 Z0.3408
N90 X-0.0472 Y-1.8135 Z0.3359
N95 X-0.0463 Y-1.8104 Z0.3313
N100 X-0.0454 Y-1.8067 Z0.3271
N105 X-0.0444 Y-1.8027 Z0.3234
N110 X-0.0432 Y-1.7983 Z0.3201
N115 X-0.042 Y-1.7935 Z0.3174
N120 X-0.0407 Y-1.7885 Z0.3153
N125 X-0.0394 Y-1.7833 Z0.3137
N130 X-0.038 Y-1.7779 Z0.3128
N135 X-0.0366 Y-1.7725 Z0.3125
N140 G3 X0.0025 Y-1.5003 I-1.2366 J0.3167
N145 G1 Y-1.4971
N150 X-0.0441 Y-1.4745
N155 X-0.0857 Y-1.4436
N160 X-0.1213 Y-1.4061
N165 X-0.1506 Y-1.3634
N170 X-0.1737 Y-1.317
N175 X-0.1908 Y-1.2681
N180 X-0.2029 Y-1.2178
N185 X-0.2109 Y-1.1666
N190 G2 X-0.2213 Y-0.9598 I1.9106 J0.1996
N195 X-0.2225 Y-0.7009 I18.7436 J0.212
N200 G1 Y-0.3384
N205 Y-0.0795
N210 X-0.2154 Y-0.0282
N215 X-0.1977 Y0.0205
N220 X-0.171 Y0.0648
N225 X-0.1367 Y0.1036
N230 X-0.0965 Y0.1362
N235 X-0.0518 Y0.1625
N240 X-0.0041 Y0.1826
N245 X0.0456 Y0.1972
N250 X0.0964 Y0.2072
N255 X0.1478 Y0.2137
N260 G2 X0.3547 Y0.2216 I0.1971 J-2.4283
N265 X0.6136 Y0.2225 I0.2111 J-24.7595
N270 G1 X1.3386
N275 X2.1154
N280 X2.9439
N285 X2.9957 Y0.2213
N290 X3.0459 Y0.2088
N295 X3.0927 Y0.1866
N300 X3.1344 Y0.1559
N305 X3.1703 Y0.1186
N310 X3.1998 Y0.076
N315 X3.223 Y0.0297
N320 X3.2404 Y-0.0191
N325 X3.2526 Y-0.0694
N330 X3.2607 Y-0.1205
N335 G2 X3.2713 Y-0.3273 I-1.8814 J-0.1998
N340 X3.2725 Y-0.5862 I-18.4054 J-0.2121
N345 G1 Y-0.7933
N350 Y-1.1558
N355 X3.2686 Y-1.2075
N360 X3.2538 Y-1.2571
N365 X3.2294 Y-1.3028
N370 X3.1971 Y-1.3433
N375 X3.1584 Y-1.3777
N380 X3.1149 Y-1.4057
N385 X3.0679 Y-1.4275
N390 X3.0187 Y-1.4436
N395 X2.9681 Y-1.4548
N400 X2.9169 Y-1.4621
N405 G2 X2.71 Y-1.4715 I-0.1985 J2.1057
N410 X2.4511 Y-1.4725 I-0.2116 J21.0125
N415 G1 X1.985
N420 X1.7779
N425 X0.1726
N430 X0.1208 Y-1.4709
N435 X0.0702 Y-1.46
N440 X0.0222 Y-1.4405
N445 X-0.0218 Y-1.4133
N450 X-0.061 Y-1.3794
N455 X-0.0945 Y-1.34
N460 X-0.1224 Y-1.2963
N465 X-0.1447 Y-1.2496
N470 X-0.1617 Y-1.2007
N475 X-0.1741 Y-1.1504
N480 X-0.1828 Y-1.0993
N485 G2 X-0.1956 Y-0.8927 I1.7607 J0.2128
N490 X-0.1974 Y-0.582 I16.9287 J0.2549
N495 G1 X-0.1975 Y-0.2713
N500 Y-0.1677
N505 X-0.1931 Y-0.1162
N510 X-0.1802 Y-0.066
N515 X-0.1592 Y-0.0187
N520 X-0.1308 Y0.0247
N525 X-0.0962 Y0.0631
N530 X-0.0563 Y0.0962
N535 X-0.0123 Y0.1235
N540 X0.0347 Y0.1453
N545 X0.0837 Y0.1621
N550 X0.134 Y0.1743
N555 X0.1851 Y0.1829
N560 G2 X0.3917 Y0.1956 I0.2135 J-1.7804
N565 G1 X0.4435 Y0.1965
N570 X0.4952 Y0.1969
N575 X0.547 Y0.1972
N580 X0.5988 Y0.1973
N585 X0.7024 Y0.1974
N590 X1.0131 Y0.1975
N595 X2.5666
N600 X2.8773
N605 X2.929 Y0.194
N610 X2.9794 Y0.182
N615 X3.0271 Y0.1618
N620 X3.0709 Y0.1342
N625 X3.1098 Y0.1
N630 X3.1433 Y0.0606
N635 X3.1713 Y0.017
N640 X3.1936 Y-0.0297
N645 X3.2107 Y-0.0786
N650 X3.2234 Y-0.1288
N655 X3.2323 Y-0.1798
N660 G2 X3.2455 Y-0.3864 I-1.724 J-0.2144
N665 X3.2474 Y-0.6971 I-16.1169 J-0.2555
N670 G1 X3.2475 Y-0.956
N675 Y-1.0596
N680 X3.2464 Y-1.1114
N685 X3.2372 Y-1.1624
N690 X3.2197 Y-1.2111
N695 X3.1944 Y-1.2563
N700 X3.1624 Y-1.297
N705 X3.1246 Y-1.3324
N710 X3.0823 Y-1.3622
N715 X3.0365 Y-1.3864
N720 X2.9883 Y-1.4053
N725 X2.9385 Y-1.4194
N730 X2.8877 Y-1.4295
N735 G2 X2.6813 Y-1.4451 I-0.2166 J1.4943
N740 X2.3188 Y-1.4475 I-0.2895 J16.6312
N745 G1 X1.8527
N750 X1.1795
N755 X0.2474
N760 X0.1957 Y-1.4463
N765 X0.1445 Y-1.4384
N770 X0.095 Y-1.4231
N775 X0.0485 Y-1.4003
N780 X0.0059 Y-1.3709
N785 X-0.0321 Y-1.3357
N790 X-0.0649 Y-1.2956
N795 X-0.0813 Y-1.2694
N800 X-0.083 Y-1.2668
N805 X-0.0848 Y-1.2645
N810 X-0.0869 Y-1.2622
N815 X-0.0923 Y-1.2548
N820 X-0.1132 Y-1.2249
N825 G2 X-0.1443 Y-1.1335 I0.229 J0.1291
N830 X-0.1674 Y-0.9278 I1.3996 J0.2613
N835 X-0.1721 Y-0.6172 I7.115 J0.263
N840 G1 X-0.1724 Y-0.5136
N845 X-0.1725 Y-0.3065
N850 Y-0.2547
N855 X-0.1709 Y-0.2029
N860 X-0.1633 Y-0.1517
N865 X-0.1483 Y-0.1022
N870 G3 X-0.13 Y-0.0618 I-0.3223 J0.17
N875 G1 X-0.1278 Y-0.0551
N880 X-0.1208 Y-0.0401
N885 X-0.1132 Y-0.0251
N890 X-0.0923 Y0.0048
N895 X-0.0869 Y0.0122
N900 X-0.0794 Y0.0198
N905 X-0.057 Y0.0421
N910 X-0.0533 Y0.0451
N915 X-0.0465 Y0.0498
N920 X-0.0197 Y0.0681
N925 X-0.0047 Y0.0761
N930 X0.041 Y0.1004
N935 X0.0887 Y0.1207
N940 X0.138 Y0.1365
N945 X0.1884 Y0.1482
N950 X0.2395 Y0.1566
N955 G2 X0.4461 Y0.1701 I0.2239 J-1.8417
N960 X0.8086 Y0.1725 I0.295 J-17.6126
N965 G1 X1.1711
N970 X1.9996
N975 X2.7764
N980 X2.8282 Y0.172
N985 X2.8797 Y0.1669
N990 X2.93 Y0.1547
N995 X2.978 Y0.1351
N1000 X3.0225 Y0.1087
N1005 X3.0627 Y0.0761
N1010 X3.0684 Y0.0704
N1015 X3.0746 Y0.0651
N1020 X3.0811 Y0.0603
N1025 X3.0997 Y0.0477
N1030 X3.1033 Y0.0451
N1035 X3.107 Y0.0421
N1040 X3.1297 Y0.0196
N1045 X3.1369 Y0.0122
N1050 X3.1423 Y0.0048
N1055 X3.1632 Y-0.0251
N1060 G2 X3.1943 Y-0.1165 I-0.229 J-0.1291
N1065 X3.2167 Y-0.3222 I-1.4486 J-0.2617
N1070 X3.2221 Y-0.6847 I-7.5748 J-0.2937
N1075 G1 X3.2224 Y-0.7882
N1080 X3.2225 Y-0.9954
N1085 X3.2211 Y-1.0471
N1090 X3.2134 Y-1.0983
N1095 X3.1985 Y-1.1479
N1100 G3 X3.1794 Y-1.1901 I0.3382 J-0.1785
N1105 G1 X3.1778 Y-1.1949
N1110 X3.1708 Y-1.2099
N1115 X3.1632 Y-1.2249
N1120 X3.1423 Y-1.2548
N1125 X3.1369 Y-1.2622
N1130 X3.1294 Y-1.2698
N1135 X3.107 Y-1.2921
N1140 X3.1033 Y-1.2951
N1145 X3.0965 Y-1.2998
N1150 X3.0697 Y-1.3181
N1155 X3.0547 Y-1.3261
N1160 X3.009 Y-1.3504
N1165 X2.9613 Y-1.3707
N1170 X2.912 Y-1.3865
N1175 X2.8616 Y-1.3982
N1180 X2.8105 Y-1.4066
N1185 G2 X2.6039 Y-1.4201 I-0.2229 J1.8277
N1190 X2.2414 Y-1.4225 I-0.2951 J17.6556
N1195 G1 X1.8789
N1200 X1.0504
N1205 X0.3254
N1210 X0.2736 Y-1.4221
N1215 X0.222 Y-1.4177
N1220 X0.1714 Y-1.4069
N1225 X0.1227 Y-1.3892
N1230 X0.077 Y-1.3649
N1235 G3 X0.0315 Y-1.34 I-0.0947 J-0.1191
N1240 G1 X0.031
N1245 G2 X-0.0351 Y-1.3201 Z0.3196 I0.0234 J0.1974
N1250 G1 X-0.0389 Y-1.318 Z0.32
N1255 X-0.0424 Y-1.3156 Z0.3205
N1260 G2 X-0.0507 Y-1.3078 I0.0298 J0.0401
N1265 G1 X-0.1256 Y-1.2197
N1270 G2 X-0.1319 Y-1.2104 I0.0381 J0.0324
N1275 G1 X-0.1337 Y-1.2064 Z0.32
N1280 X-0.1352 Y-1.2023 Z0.3196
N1285 G2 X-0.1442 Y-1.1339 Z0.3125 I0.1896 J0.0598
N1290 G1 Y-1.1335
N1295 X-0.1458 Y-1.1199
N1300 X-0.1467 Y-1.1049
N1305 X-0.1473 Y-1.0899
N1310 Y-0.1601
N1315 X-0.1467 Y-0.1451
N1320 X-0.1464 Y-0.1406
N1325 X-0.1465 Y-0.1401
N1330 G2 X-0.1439 Y-0.0718 Z0.3195 I0.1948 J0.0268
N1335 G1 X-0.1427 Y-0.0673 Z0.32
N1340 X-0.141 Y-0.0629 Z0.3205
N1345 X-0.1391 Y-0.0589
N1350 X-0.1368 Y-0.055
N1355 X-0.0792 Y0.0331
N1360 X-0.0766 Y0.0367
N1365 X-0.0737 Y0.04
N1370 X-0.0703 Y0.0433 Z0.32
N1375 X-0.0665 Y0.0463 Z0.3195
N1380 G2 X-0.005 Y0.076 Z0.3125 I0.1149 J-0.1596
N1385 G1 X-0.0047 Y0.0761
N1390 G2 X0.0703 Y0.0992 I0.112 J-0.2302
N1395 G1 X0.1213 Y0.1082
N1400 G2 X0.3778 Y0.1409 I0.3246 J-1.5245
N1405 X0.7402 Y0.147 I0.2999 J-7.0897
N1410 G1 X0.8438 Y0.1474
N1415 X1.0509 Y0.1475
N1420 X2.0866
N1425 X2.708
N1430 X2.7598 Y0.1473
N1435 X2.8115 Y0.1439
N1440 X2.8625 Y0.1348
N1445 X2.9118 Y0.1191
N1450 X2.9295 Y0.1112
N1455 X2.9413 Y0.1065
N1460 X2.9536 Y0.1031
N1465 X2.9662 Y0.1009
N1470 X2.9736 Y0.0999
N1475 X2.9748 Y0.1 Z0.3126
N1480 X2.9759 Y0.1006 Z0.3127
N1485 G2 X3.0438 Y0.1332 Z0.3205 I0.0986 J-0.1186
N1490 X3.2262 Y-0.0457 I0.0307 J-0.1511
N1495 X3.1949 Y-0.1143 Z0.3127 I-0.1517 J0.0278
N1500 G1 X3.1944 Y-0.1153 Z0.3126
N1505 X3.1942 Y-0.1165 Z0.3125
N1510 X3.1958 Y-0.1301
N1515 X3.1967 Y-0.1451
N1520 X3.1973 Y-0.1601
N1525 Y-1.0899
N1530 X3.1967 Y-1.1049
N1535 X3.1964 Y-1.1094
N1540 X3.1965 Y-1.1099
N1545 G2 X3.1939 Y-1.1782 Z0.3195 I-0.1948 J-0.0268
N1550 G1 X3.1927 Y-1.1827 Z0.32
N1555 X3.191 Y-1.1871 Z0.3205
N1560 X3.1891 Y-1.1911
N1565 X3.1868 Y-1.195
N1570 X3.1292 Y-1.2831
N1575 X3.1266 Y-1.2867
N1580 X3.1237 Y-1.29
N1585 X3.1203 Y-1.2933 Z0.32
N1590 X3.1165 Y-1.2963 Z0.3195
N1595 G2 X3.055 Y-1.326 Z0.3125 I-0.1149 J0.1596
N1600 G1 X3.0547 Y-1.3261
N1605 G2 X2.9797 Y-1.3492 I-0.112 J0.2302
N1610 G1 X2.9287 Y-1.3582
N1615 G2 X2.6722 Y-1.391 I-0.3244 J1.5222
N1620 X2.3098 Y-1.397 I-0.3 J7.1102
N1625 G1 X2.2062 Y-1.3974
N1630 X1.9991 Y-1.3975
N1635 X0.9634
N1640 X0.3938
N1645 X0.342 Y-1.3974
N1650 X0.2903 Y-1.3946
N1655 X0.2391 Y-1.3869
N1660 X0.1891 Y-1.3734
N1665 X0.1518 Y-1.3599
N1670 X0.1393 Y-1.3561
N1675 X0.1265 Y-1.3536
N1680 X0.1135 Y-1.3524
N1685 X0.0958 Y-1.3516
N1690 G3 X0.0666 Y-1.3604 I-0.0007 J-0.05
N1695 G1 X0.062 Y-1.3636 Z0.3128
N1700 X0.0575 Y-1.3668 Z0.3137
N1705 X0.0531 Y-1.3698 Z0.3153
N1710 X0.0488 Y-1.3728 Z0.3174
N1715 X0.0448 Y-1.3756 Z0.3201
N1720 X0.041 Y-1.3782 Z0.3234
N1725 X0.0376 Y-1.3805 Z0.3271
N1730 X0.0345 Y-1.3827 Z0.3313
N1735 X0.0318 Y-1.3845 Z0.3359
N1740 X0.0296 Y-1.3861 Z0.3408
N1745 X0.0278 Y-1.3873 Z0.346
N1750 X0.0266 Y-1.3882 Z0.3514
N1755 X0.0258 Y-1.3887 Z0.3569
N1760 X0.0255 Y-1.3889 Z0.3625
N1765 G0 Z1.45
N1770 G1 X-0.0061 Y0.124 F500.
N1775 G0 Z0.4125
N1780 G1 Z0.3625 F69.
N1785 X-0.0058 Y0.1238 Z0.3569
N1790 X-0.0049 Y0.1235 Z0.3514
N1795 X-0.0035 Y0.1228 Z0.346
N1800 X-0.0016 Y0.122 Z0.3408
N1805 X0.0009 Y0.1209 Z0.3359
N1810 X0.0039 Y0.1196 Z0.3313
N1815 X0.0073 Y0.1181 Z0.3271
N1820 X0.0112 Y0.1165 Z0.3234
N1825 X0.0154 Y0.1146 Z0.3201
N1830 X0.0199 Y0.1127 Z0.3174
N1835 X0.0246 Y0.1106 Z0.3153
N1840 X0.0296 Y0.1085 Z0.3137
N1845 X0.0346 Y0.1063 Z0.3128
N1850 X0.0398 Y0.104 Z0.3125
N1855 G3 X0.0703 Y0.0991 I0.0248 J0.0571
N1860 G2 X0.1453 Y0.1024 I0.058 J-0.469
N1865 G1 X0.2487 Y0.1076
N1870 G2 X0.7144 Y0.1217 I0.4189 J-6.1584
N1875 G1 X0.7662 Y0.1222
N1880 X0.818 Y0.1223
N1885 X0.9216 Y0.1224
N1890 X1.1805 Y0.1225
N1895 X2.1644
N1900 X2.6305
N1905 X2.6823 Y0.1224
N1910 X2.734 Y0.1211
N1915 X2.7855 Y0.1158
N1920 X2.8364 Y0.1059
N1925 X2.8458 Y0.104
N1930 X2.8553 Y0.1028
N1935 X2.8649 Y0.1024
N1940 X2.9347
N1945 X2.956 Y0.1015
N1950 X2.9647 Y0.101
N1955 X2.9662 Y0.1009
N1960 G3 X2.9959 Y0.1074 I0.0046 J0.0498
N1965 G1 X3.0007 Y0.1102 Z0.3128
N1970 X3.0055 Y0.113 Z0.3137
N1975 X3.0102 Y0.1157 Z0.3153
N1980 X3.0146 Y0.1183 Z0.3174
N1985 X3.0189 Y0.1208 Z0.3201
N1990 X3.0228 Y0.1231 Z0.3234
N1995 X3.0264 Y0.1252 Z0.3271
N2000 X3.0297 Y0.1271 Z0.3313
N2005 X3.0325 Y0.1287 Z0.3359
N2010 X3.0348 Y0.1301 Z0.3408
N2015 X3.0367 Y0.1312 Z0.346
N2020 X3.038 Y0.1319 Z0.3514
N2025 X3.0388 Y0.1324 Z0.3569
N2030 X3.0391 Y0.1326 Z0.3625
N2035 G0 Z1.45
N2040 G1 X3.0561 Y-1.374 F500.
N2045 G0 Z0.4125
N2050 G1 Z0.3625 F69.
N2055 X3.0558 Y-1.3738 Z0.3569
N2060 X3.0549 Y-1.3735 Z0.3514
N2065 X3.0535 Y-1.3728 Z0.346
N2070 X3.0516 Y-1.372 Z0.3408
N2075 X3.0491 Y-1.3709 Z0.3359
N2080 X3.0461 Y-1.3696 Z0.3313
N2085 X3.0427 Y-1.3681 Z0.3271
N2090 X3.0388 Y-1.3665 Z0.3234
N2095 X3.0346 Y-1.3646 Z0.3201
N2100 X3.0301 Y-1.3627 Z0.3174
N2105 X3.0254 Y-1.3606 Z0.3153
N2110 X3.0204 Y-1.3585 Z0.3137
N2115 X3.0154 Y-1.3563 Z0.3128
N2120 X3.0102 Y-1.354 Z0.3125
N2125 G3 X2.9797 Y-1.3491 I-0.0248 J-0.0571
N2130 G2 X2.9047 Y-1.3524 I-0.058 J0.469
N2135 G1 X2.8013 Y-1.3576
N2140 G2 X2.3356 Y-1.3717 I-0.4187 J6.1566
N2145 G1 X2.2838 Y-1.3722
N2150 X2.232 Y-1.3723
N2155 X2.1284 Y-1.3724
N2160 X1.8695 Y-1.3725
N2165 X0.8856
N2170 X0.4713
N2175 X0.4195
N2180 X0.3678 Y-1.3715
N2185 X0.3161 Y-1.3673
N2190 X0.265 Y-1.359
N2195 G3 X0.2215 Y-1.3524 I-0.0486 J-0.174
N2200 G1 X0.1153
N2205 X0.1135
N2210 G3 X0.0844 Y-1.3613 I-0.0005 J-0.05
N2215 G1 X0.0798 Y-1.3645 Z0.3128
N2220 X0.0753 Y-1.3677 Z0.3137
N2225 X0.0709 Y-1.3708 Z0.3153
N2230 X0.0666 Y-1.3737 Z0.3174
N2235 X0.0626 Y-1.3765 Z0.3201
N2240 X0.0588 Y-1.3792 Z0.3234
N2245 X0.0554 Y-1.3816 Z0.3271
N2250 X0.0523 Y-1.3837 Z0.3313
N2255 X0.0497 Y-1.3855 Z0.3359
N2260 X0.0474 Y-1.3871 Z0.3408
N2265 X0.0457 Y-1.3883 Z0.346
N2270 X0.0444 Y-1.3892 Z0.3514
N2275 X0.0436 Y-1.3897 Z0.3569
N2280 X0.0434 Y-1.3899 Z0.3625
N2285 G0 Z1.45
N2290 G1 X0.0726 Y0.1367 F500.
N2295 G0 Z0.4125
N2300 G1 Z0.3625 F69.
N2305 X0.0729 Y0.1365 Z0.3569
N2310 X0.0737 Y0.1361 Z0.3514
N2315 X0.075 Y0.1353 Z0.346
N2320 X0.0769 Y0.1342 Z0.3408
N2325 X0.0792 Y0.1328 Z0.3359
N2330 X0.082 Y0.1311 Z0.3313
N2335 X0.0852 Y0.1292 Z0.3271
N2340 X0.0888 Y0.1271 Z0.3234
N2345 X0.0927 Y0.1247 Z0.3201
N2350 X0.097 Y0.1222 Z0.3174
N2355 X0.1014 Y0.1196 Z0.3153
N2360 X0.106 Y0.1168 Z0.3137
N2365 X0.1108 Y0.114 Z0.3128
N2370 X0.1156 Y0.1112 Z0.3125
N2375 G3 X0.1453 Y0.1024 I0.0318 J0.0536
N2380 G1 X2.8649
N2385 G3 X2.8936 Y0.1127 I-0.0017 J0.05
N2390 G1 X2.898 Y0.1161 Z0.3128
N2395 X2.9024 Y0.1195 Z0.3137
N2400 X2.9067 Y0.1227 Z0.3153
N2405 X2.9108 Y0.1259 Z0.3174
N2410 X2.9147 Y0.1289 Z0.3201
N2415 X2.9183 Y0.1317 Z0.3234
N2420 X2.9216 Y0.1342 Z0.3271
N2425 X2.9246 Y0.1365 Z0.3313
N2430 X2.9272 Y0.1384 Z0.3359
N2435 X2.9293 Y0.1401 Z0.3408
N2440 X2.931 Y0.1414 Z0.346
N2445 X2.9323 Y0.1423 Z0.3514
N2450 X2.933 Y0.1429 Z0.3569
N2455 X2.9333 Y0.1431 Z0.3625
N2460 G0 Z1.45
N2465 G1 X2.9774 Y-1.3867 F500.
N2470 G0 Z0.4125
N2475 G1 Z0.3625 F69.
N2480 X2.9771 Y-1.3865 Z0.3569
N2485 X2.9763 Y-1.3861 Z0.3514
N2490 X2.975 Y-1.3853 Z0.346
N2495 X2.9731 Y-1.3842 Z0.3408
N2500 X2.9708 Y-1.3828 Z0.3359
N2505 X2.968 Y-1.3811 Z0.3313
N2510 X2.9648 Y-1.3792 Z0.3271
N2515 X2.9612 Y-1.3771 Z0.3234
N2520 X2.9573 Y-1.3747 Z0.3201
N2525 X2.953 Y-1.3722 Z0.3174
N2530 X2.9486 Y-1.3696 Z0.3153
N2535 X2.944 Y-1.3668 Z0.3137
N2540 X2.9392 Y-1.364 Z0.3128
N2545 X2.9344 Y-1.3612 Z0.3125
N2550 G3 X2.9047 Y-1.3524 I-0.0318 J-0.0536
N2555 G1 X0.2215
N2560 X0.2173 Y-1.3531 Z0.3128
N2565 X0.2131 Y-1.3538 Z0.3137
N2570 X0.2092 Y-1.3544 Z0.3151
N2575 X0.2059 Y-1.3559 Z0.317
N2580 X0.2028 Y-1.3572 Z0.3194
N2585 X0.2001 Y-1.3584 Z0.3221
N2590 X0.1977 Y-1.3594 Z0.3253
N2595 X0.196 Y-1.3606 Z0.3285
N2600 X0.1946 Y-1.3615 Z0.332
N2605 X0.1936 Y-1.3622 Z0.3357
N2610 X0.193 Y-1.3626 Z0.3395
N2615 X0.1928 Y-1.3627 Z0.3434
N2620 G0 Z1.45
N2625 G1 X-0.2067 Y-0.7493 F500.
N2630 G0 Z0.5125
N2635 G1 Z0.4625 F69.
N2640 X-0.2066 Y-0.749 Z0.4569
N2645 X-0.2063 Y-0.7481 Z0.4514
N2650 X-0.2059 Y-0.7466 Z0.446
N2655 X-0.2053 Y-0.7446 Z0.4408
N2660 X-0.2046 Y-0.742 Z0.4359
N2665 X-0.2037 Y-0.7388 Z0.4313
N2670 X-0.2027 Y-0.7352 Z0.4271
N2675 X-0.2016 Y-0.7312 Z0.4234
N2680 X-0.2003 Y-0.7268 Z0.4201
N2685 X-0.199 Y-0.7221 Z0.4174
N2690 X-0.1976 Y-0.7171 Z0.4153
N2695 X-0.1961 Y-0.7119 Z0.4137
N2700 X-0.1946 Y-0.7066 Z0.4128
N2705 X-0.1931 Y-0.7012 Z0.4125
N2710 G3 X-0.1473 Y-0.43 I-1.2285 J0.3468
N2715 G2 X-0.1397 Y-0.3544 I0.3022 J0.0077
N2720 G3 X-0.1295 Y-0.2792 I-0.5199 J0.1085
N2725 G1 X-0.1258 Y-0.2276
N2730 X-0.1192 Y-0.1762
N2735 X-0.1022 Y-0.1273
N2740 X-0.0759 Y-0.0827
N2745 X-0.042 Y-0.0436
N2750 X-0.0021 Y-0.0106
N2755 X0.0423 Y0.0161
N2760 X0.0899 Y0.0365
N2765 X0.1395 Y0.0514
N2770 X0.1903 Y0.0617
N2775 X0.2416 Y0.0683
N2780 G2 X0.4485 Y0.0765 I0.1974 J-2.3567
N2785 X0.7074 Y0.0774 I0.2112 J-23.9289
N2790 G1 X1.3288
N2795 X1.5878
N2800 X2.8306
N2805 X2.8824 Y0.0772
N2810 X2.9332 Y0.0675
N2815 X2.981 Y0.0476
N2820 X3.0242 Y0.019
N2825 X3.0616 Y-0.0168
N2830 X3.0927 Y-0.0582
N2835 X3.1175 Y-0.1037
N2840 X3.1363 Y-0.1519
N2845 X3.1497 Y-0.202
N2850 X3.1588 Y-0.2529
N2855 G2 X3.1709 Y-0.4596 I-1.6675 J-0.2014
N2860 G1 X3.1717 Y-0.5114
N2865 X3.1722 Y-0.684
N2870 X3.1724 Y-0.8566
N2875 X3.1722 Y-1.0292
N2880 X3.1643 Y-1.0804
N2885 X3.1459 Y-1.1288
N2890 X3.1186 Y-1.1728
N2895 X3.0838 Y-1.2111
N2900 X3.0432 Y-1.2433
N2905 X2.9983 Y-1.2691
N2910 X2.9504 Y-1.2888
N2915 X2.9006 Y-1.303
N2920 X2.8498 Y-1.3127
N2925 X2.7984 Y-1.3189
N2930 G2 X2.5914 Y-1.3266 I-0.1968 J2.5205
N2935 X2.3325 Y-1.3274 I-0.2109 J25.83
N2940 G1 X1.8147
N2945 X0.2094
N2950 X0.1576 Y-1.3264
N2955 X0.1072 Y-1.3147
N2960 X0.0602 Y-1.2929
N2965 X0.0181 Y-1.2628
N2970 X-0.0181 Y-1.2257
N2975 X-0.048 Y-1.1835
N2980 X-0.0716 Y-1.1373
N2985 X-0.0893 Y-1.0887
N2990 X-0.1018 Y-1.0384
N2995 X-0.1102 Y-0.9873
N3000 X-0.1122 Y-0.974
N3005 X-0.1156 Y-0.9611
N3010 X-0.1204 Y-0.9485
N3015 G2 X-0.1471 Y-0.8267 I0.2358 J0.1154
N3020 G1 X-0.1474 Y-0.8255 Z0.4126
N3025 X-0.1482 Y-0.8246 Z0.4127
N3030 G2 X-0.1983 Y-0.7676 Z0.4205 I0.2052 J0.2311
N3035 X-0.2266 Y-0.7162 I0.2554 J0.1741
N3040 X-0.2307 Y-0.6955 I0.0459 J0.0199
N3045 G1 X-0.2273 Y-0.4822
N3050 G2 X-0.2225 Y-0.4616 I0.05 J-0.0008
N3055 X-0.193 Y-0.4117 I0.2796 J-0.1318
N3060 X-0.1406 Y-0.3558 Z0.4127 I0.25 J-0.1817
N3065 G1 X-0.14 Y-0.3552 Z0.4126
N3070 X-0.1397 Y-0.3544 Z0.4125
N3075 X-0.1356 Y-0.3401
N3080 X-0.1308 Y-0.3251
N3085 X-0.1302 Y-0.3238
N3090 G3 X-0.1191 Y-0.2878 I-0.2515 J0.0975
N3095 G1 X-0.1069 Y-0.2375
N3100 X-0.0884 Y-0.1891
N3105 X-0.0629 Y-0.144
N3110 X-0.031 Y-0.1033
N3115 X0.0065 Y-0.0675
N3120 X0.0484 Y-0.0372
N3125 X0.0939 Y-0.0124
N3130 X0.1418 Y0.0072
N3135 X0.1914 Y0.022
N3140 X0.2421 Y0.0327
N3145 X0.2934 Y0.0401
N3150 G2 X0.5001 Y0.0509 I0.2126 J-2.0909
N3155 X0.8108 Y0.0524 I0.2551 J-20.1135
N3160 G1 X1.1733
N3165 X1.6912
N3170 X2.7786
N3175 X2.8303 Y0.0486
N3180 X2.8806 Y0.0363
N3185 X2.9282 Y0.0159
N3190 X2.9718 Y-0.0119
N3195 X3.0106 Y-0.0462
N3200 X3.044 Y-0.0858
N3205 X3.0717 Y-0.1296
N3210 X3.094 Y-0.1764
N3215 X3.111 Y-0.2253
N3220 X3.1235 Y-0.2755
N3225 X3.1323 Y-0.3265
N3230 G2 X3.1454 Y-0.5331 I-1.7342 J-0.2137
N3235 G1 X3.1463 Y-0.5849
N3240 X3.1467 Y-0.6367
N3245 X3.147 Y-0.6885
N3250 X3.1471 Y-0.7403
N3255 X3.1473 Y-0.8438
N3260 Y-0.9474
N3265 X3.1412 Y-0.9988
N3270 X3.1267 Y-1.0485
N3275 X3.1041 Y-1.0952
N3280 X3.0744 Y-1.1376
N3285 X3.0386 Y-1.175
N3290 X2.9979 Y-1.2069
N3295 X2.9532 Y-1.2332
N3300 X2.9058 Y-1.254
N3305 X2.8565 Y-1.2698
N3310 X2.806 Y-1.2812
N3315 X2.7548 Y-1.2891
N3320 G2 X2.5481 Y-1.3007 I-0.2124 J1.9344
N3325 X2.2374 Y-1.3024 I-0.2547 J18.7589
N3330 G1 X1.8749
N3335 X1.5642
N3340 X0.2696
N3345 X0.218 Y-1.2983
N3350 X0.1677 Y-1.2859
N3355 X0.1202 Y-1.2652
N3360 X0.0767 Y-1.2371
N3365 X0.0381 Y-1.2026
N3370 X0.0049 Y-1.1628
N3375 X-0.0227 Y-1.119
N3380 X-0.0452 Y-1.0724
N3385 X-0.0548 Y-1.0483
N3390 X-0.0615 Y-1.034
N3395 X-0.0698 Y-1.0206
N3400 X-0.0797 Y-1.0082
N3405 X-0.0804 Y-1.0076 Z0.4126
N3410 G2 X-0.1449 Y-0.9648 Z0.4205 I0.1911 J0.3574
N3415 X-0.2336 Y-0.8642 I0.2556 J0.3146
N3420 X-0.241 Y-0.8415 I0.0425 J0.0264
N3425 G1 X-0.2654 Y-0.513
N3430 G2 X-0.2614 Y-0.4894 I0.0499 J0.0037
N3435 X-0.1882 Y-0.3765 I0.3721 J-0.1608
N3440 X-0.1312 Y-0.3249 Z0.4126 I0.2989 J-0.2737
N3445 G1 X-0.1306 Y-0.3244
N3450 X-0.1302 Y-0.3238 Z0.4125
N3455 X-0.1242 Y-0.3101
N3460 X-0.1176 Y-0.2951
N3465 X-0.1169 Y-0.2939
N3470 X-0.0915 Y-0.2488
N3475 X-0.0653 Y-0.2041
N3480 X-0.0345 Y-0.1625
N3485 X0.001 Y-0.1248
N3490 X0.0408 Y-0.0916
N3495 X0.0841 Y-0.0632
N3500 X0.1302 Y-0.0397
N3505 X0.1784 Y-0.0208
N3510 X0.2281 Y-0.0062
N3515 X0.2787 Y0.0046
N3520 G2 X0.4848 Y0.0237 I0.234 J-1.4086
N3525 X0.7955 Y0.0271 I0.2575 J-9.1623
N3530 G1 X0.8991 Y0.0274
N3535 X1.2615
N3540 X1.7794
N3545 X2.7115
N3550 X2.7632 Y0.0242
N3555 X2.814 Y0.0143
N3560 X2.8628 Y-0.0029
N3565 X2.9086 Y-0.0272
N3570 X2.9503 Y-0.0579
N3575 X2.9872 Y-0.0942
N3580 X3.019 Y-0.1351
N3585 X3.0455 Y-0.1796
N3590 X3.067 Y-0.2267
N3595 X3.0837 Y-0.2757
N3600 X3.0962 Y-0.326
N3605 X3.1052 Y-0.377
N3610 G2 X3.1197 Y-0.5835 I-1.7166 J-0.2248
N3615 X3.1221 Y-0.8424 I-10.5481 J-0.2257
N3620 G1 X3.1214 Y-0.8941
N3625 X3.1147 Y-0.9455
N3630 X3.1009 Y-0.9954
N3635 X3.0798 Y-1.0427
N3640 X3.0519 Y-1.0864
N3645 X3.0181 Y-1.1256
N3650 X2.9793 Y-1.1599
N3655 X2.9364 Y-1.1889
N3660 X2.8904 Y-1.2127
N3665 X2.8422 Y-1.2315
N3670 X2.7924 Y-1.2459
N3675 X2.7418 Y-1.2565
N3680 G2 X2.5355 Y-1.2741 I-0.2283 J1.4522
N3685 X2.1731 Y-1.2774 I-0.2963 J12.9242
N3690 G1 X1.9659
N3695 X1.3445
N3700 X0.3606
N3705 X0.3089 Y-1.2764
N3710 X0.2575 Y-1.2695
N3715 X0.2077 Y-1.2554
N3720 X0.1605 Y-1.234
N3725 X0.117 Y-1.206
N3730 X0.0777 Y-1.1723
N3735 X0.0428 Y-1.134
N3740 X0.0115 Y-1.0927
N3745 G3 X-0.0298 Y-1.0498 I-0.122 J-0.076
N3750 X-0.0594 Y-1.0427 I-0.026 J-0.0428
N3755 G1 X-0.065 Y-1.0431 Z0.4128
N3760 X-0.0705 Y-1.0435 Z0.4137
N3765 X-0.0759 Y-1.0439 Z0.4153
N3770 X-0.081 Y-1.0442 Z0.4174
N3775 X-0.0859 Y-1.0446 Z0.4201
N3780 X-0.0905 Y-1.0449 Z0.4234
N3785 X-0.0947 Y-1.0452 Z0.4271
N3790 X-0.0984 Y-1.0455 Z0.4313
N3795 X-0.1016 Y-1.0457 Z0.4359
N3800 X-0.1043 Y-1.0459 Z0.4408
N3805 X-0.1065 Y-1.0461 Z0.446
N3810 X-0.108 Y-1.0462 Z0.4514
N3815 X-0.1089 Y-1.0463 Z0.4569
N3820 X-0.1093 Z0.4625
N3825 G0 Z1.45
N3830 G1 X-0.1846 Y-0.3372 F500.
N3835 G0 Z0.5125
N3840 G1 Z0.4625 F69.
N3845 X-0.1843 Y-0.337 Z0.4569
N3850 X-0.1834 Y-0.3366 Z0.4514
N3855 X-0.1821 Y-0.3359 Z0.446
N3860 X-0.1802 Y-0.3349 Z0.4408
N3865 X-0.1777 Y-0.3337 Z0.4359
N3870 X-0.1748 Y-0.3322 Z0.4313
N3875 X-0.1715 Y-0.3305 Z0.4271
N3880 X-0.1678 Y-0.3286 Z0.4234
N3885 X-0.1637 Y-0.3265 Z0.4201
N3890 X-0.1594 Y-0.3243 Z0.4174
N3895 X-0.1547 Y-0.3219 Z0.4153
N3900 X-0.1499 Y-0.3195 Z0.4137
N3905 X-0.145 Y-0.3169 Z0.4128
N3910 X-0.14 Y-0.3144 Z0.4125
N3915 G3 X-0.1169 Y-0.2939 I-0.0284 J0.0555
N3920 G1 X-0.0987 Y-0.2651
N3925 G2 X-0.0647 Y-0.2268 I0.1985 J-0.1422
N3930 G1 X-0.0275 Y-0.1907
N3935 X0.0107 Y-0.1557
N3940 X0.0517 Y-0.1241
N3945 X0.0955 Y-0.0965
N3950 X0.1416 Y-0.073
N3955 X0.1897 Y-0.0536
N3960 X0.2391 Y-0.0381
N3965 X0.2894 Y-0.0262
N3970 G2 X0.4951 Y-0.0032 I0.2512 J-1.3179
N3975 X0.8575 Y0.002 I0.2946 J-7.8697
N3980 G1 X0.9611 Y0.0024
N3985 X1.22
N3990 X1.8932
N3995 X2.6182
N4000 X2.67 Y0.0018
N4005 X2.7216 Y-0.0026
N4010 X2.7723 Y-0.0131
N4015 X2.8211 Y-0.0302
N4020 X2.8671 Y-0.054
N4025 X2.9094 Y-0.084
N4030 X2.9472 Y-0.1193
N4035 X2.9803 Y-0.1591
N4040 X3.0084 Y-0.2026
N4045 X3.0314 Y-0.249
N4050 X3.0498 Y-0.2974
N4055 X3.0641 Y-0.3472
N4060 X3.0747 Y-0.3979
N4065 G2 X3.0934 Y-0.604 I-1.461 J-0.2362
N4070 X3.0966 Y-0.8111 I-5.5437 J-0.1895
N4075 G1 X3.0937 Y-0.8628
N4080 X3.085 Y-0.9139
N4085 X3.0697 Y-0.9633
N4090 X3.0476 Y-1.0102
N4095 X3.0192 Y-1.0535
N4100 X2.9853 Y-1.0926
N4105 X2.9465 Y-1.127
N4110 X2.9039 Y-1.1564
N4115 X2.8583 Y-1.1808
N4120 X2.8104 Y-1.2005
N4125 X2.7609 Y-1.2158
N4130 X2.7104 Y-1.2273
N4135 G2 X2.5045 Y-1.248 I-0.2388 J1.3415
N4140 X2.1938 Y-1.2521 I-0.2625 J8.086
N4145 G1 X2.0903 Y-1.2524
N4150 X1.8831
N4155 X1.1064
N4160 X0.4332
N4165 X0.3814 Y-1.252
N4170 X0.3298 Y-1.2477
N4175 X0.279 Y-1.2375
N4180 X0.23 Y-1.2206
N4185 X0.1837 Y-1.1976
N4190 X0.1405 Y-1.169
N4195 X0.1005 Y-1.1361
N4200 X0.0637 Y-1.1016
N4205 X0.0504 Y-1.0907
N4210 X0.0359 Y-1.0817
N4215 X0.0203 Y-1.0746
N4220 G0 Z1.45
N4225 G1 X-0.1419 Y-0.249 F500.
N4230 G0 Z0.5125
N4235 G1 Z0.4625 F69.
N4240 X-0.1416 Y-0.2489 Z0.4569
N4245 X-0.1406 Y-0.2487 Z0.4514
N4250 X-0.1391 Y-0.2485 Z0.446
N4255 X-0.137 Y-0.2481 Z0.4408
N4260 X-0.1343 Y-0.2476 Z0.4359
N4265 X-0.1311 Y-0.247 Z0.4313
N4270 X-0.1275 Y-0.2463 Z0.4271
N4275 X-0.1234 Y-0.2455 Z0.4234
N4280 X-0.1189 Y-0.2447 Z0.4201
N4285 X-0.114 Y-0.2438 Z0.4174
N4290 X-0.109 Y-0.2428 Z0.4153
N4295 X-0.1037 Y-0.2418 Z0.4137
N4300 X-0.0982 Y-0.2408 Z0.4128
N4305 X-0.0927 Y-0.2398 Z0.4125
N4310 G3 X-0.0647 Y-0.2268 I-0.0114 J0.0613
N4315 G2 X-0.0185 Y-0.1929 I0.1892 J-0.2098
N4320 G1 X-0.0132 Y-0.1901
N4325 X0.0764 Y-0.1382
N4330 X0.1224 Y-0.1145
N4335 X0.17 Y-0.094
N4340 X0.2188 Y-0.0767
N4345 X0.2686 Y-0.0626
N4350 G2 X0.4733 Y-0.0321 I0.2775 J-1.1604
N4355 X0.732 Y-0.0237 I0.2569 J-3.9332
N4360 X0.9909 Y-0.0227 I0.2291 J-23.6031
N4365 G1 X1.198 Y-0.0226
N4370 X1.923
N4375 X2.5444
N4380 X2.5962 Y-0.0228
N4385 X2.648 Y-0.0251
N4390 X2.6993 Y-0.0319
N4395 X2.7495 Y-0.0447
N4400 X2.7976 Y-0.0639
N4405 X2.8427 Y-0.0893
N4410 X2.8841 Y-0.1203
N4415 X2.9212 Y-0.1565
N4420 X2.9537 Y-0.1968
N4425 X2.9813 Y-0.2406
N4430 X3.0042 Y-0.2871
N4435 X3.0226 Y-0.3355
N4440 X3.0369 Y-0.3853
N4445 X3.0477 Y-0.4359
N4450 G2 X3.0676 Y-0.6419 I-1.4542 J-0.2446
N4455 G1 X3.0694 Y-0.6937
N4460 X3.0704 Y-0.7454
N4465 X3.069 Y-0.7972
N4470 X3.063 Y-0.8486
N4475 X3.0511 Y-0.899
N4480 X3.0327 Y-0.9474
N4485 X3.008 Y-0.993
N4490 X2.9776 Y-1.0349
N4495 X2.942 Y-1.0725
N4500 X2.9021 Y-1.1055
N4505 X2.8586 Y-1.1336
N4510 X2.8124 Y-1.157
N4515 X2.7642 Y-1.1759
N4520 X2.7146 Y-1.1907
N4525 X2.664 Y-1.2018
N4530 G2 X2.4581 Y-1.2225 I-0.2456 J1.4107
N4535 X2.0956 Y-1.2271 I-0.2943 J9.0188
N4540 G1 X1.9921 Y-1.2274
N4545 X1.6814
N4550 X0.9564
N4555 X0.4903
N4560 X0.4385 Y-1.2269
N4565 X0.3869 Y-1.2236
N4570 X0.3357 Y-1.2153
N4575 X0.2859 Y-1.2013
N4580 X0.2379 Y-1.1817
N4585 X0.1923 Y-1.1573
N4590 X0.1489 Y-1.1291
N4595 X0.1207 Y-1.1094
N4600 G3 X0.0658 Y-1.0868 I-0.0766 J-0.1077
N4605 X0.0359 Y-1.0923 I-0.0063 J-0.0496
N4610 G1 X0.0309 Y-1.0949 Z0.4128
N4615 X0.0261 Y-1.0975 Z0.4137
N4620 X0.0213 Y-1.1001 Z0.4153
N4625 X0.0168 Y-1.1025 Z0.4174
N4630 X0.0124 Y-1.1048 Z0.4201
N4635 X0.0084 Y-1.107 Z0.4234
N4640 X0.0047 Y-1.109 Z0.4271
N4645 X0.0014 Y-1.1107 Z0.4313
N4650 X-0.0014 Y-1.1123 Z0.4359
N4655 X-0.0038 Y-1.1135 Z0.4408
N4660 X-0.0057 Y-1.1146 Z0.446
N4665 X-0.0071 Y-1.1153 Z0.4514
N4670 X-0.0079 Y-1.1157 Z0.4569
N4675 X-0.0082 Y-1.1159 Z0.4625
N4680 G0 Z1.45
N4685 G1 X-0.0988 Y-0.1936 F500.
N4690 G0 Z0.5125
N4695 G1 Z0.4625 F69.
N4700 X-0.0985 Z0.4569
N4705 X-0.0976 Y-0.1937 Z0.4514
N4710 X-0.096 Y-0.1939 Z0.446
N4715 X-0.0939 Y-0.194 Z0.4408
N4720 X-0.0912 Y-0.1943 Z0.4359
N4725 X-0.088 Y-0.1946 Z0.4313
N4730 X-0.0842 Y-0.1949 Z0.4271
N4735 X-0.0801 Y-0.1953 Z0.4234
N4740 X-0.0755 Y-0.1957 Z0.4201
N4745 X-0.0706 Y-0.1961 Z0.4174
N4750 X-0.0655 Y-0.1965 Z0.4153
N4755 X-0.0601 Y-0.197 Z0.4137
N4760 X-0.0546 Y-0.1975 Z0.4128
N4765 X-0.049 Y-0.198 Z0.4125
N4770 G3 X-0.0185 Y-0.193 I0.0055 J0.0621
N4775 G1 X0.0103 Y-0.1791
N4780 X0.021 Y-0.1751
N4785 X0.0403 Y-0.1689
N4790 X0.046 Y-0.1671
N4795 X0.0662 Y-0.1601
N4800 X0.1147 Y-0.1421
N4805 G2 X0.415 Y-0.0658 I0.4336 J-1.0778
N4810 X0.6734 Y-0.0503 I0.2819 J-2.5354
N4815 X1.1912 Y-0.0476 I0.3965 J-26.0046
N4820 G1 X2.0197
N4825 X2.4858
N4830 X2.5376 Y-0.0477
N4835 X2.5893 Y-0.0494
N4840 X2.6409 Y-0.0546
N4845 X2.6916 Y-0.0651
N4850 X2.7407 Y-0.0815
N4855 X2.7873 Y-0.104
N4860 X2.8307 Y-0.1322
N4865 X2.8703 Y-0.1657
N4870 X2.9054 Y-0.2037
N4875 X2.936 Y-0.2455
N4880 X2.9619 Y-0.2904
N4885 X2.9832 Y-0.3375
N4890 X3.0004 Y-0.3864
N4895 X3.0137 Y-0.4364
N4900 X3.0238 Y-0.4872
N4905 G2 X3.0422 Y-0.7452 I-1.4505 J-0.2329
N4910 G1 X3.0375 Y-0.7967
N4915 X3.0275 Y-0.8475
N4920 X3.0112 Y-0.8967
N4925 X2.9888 Y-0.9434
N4930 X2.9606 Y-0.9868
N4935 X2.9271 Y-1.0263
N4940 X2.889 Y-1.0614
N4945 X2.8471 Y-1.0919
N4950 X2.8022 Y-1.1176
N4955 X2.755 Y-1.1389
N4960 X2.7061 Y-1.156
N4965 X2.656 Y-1.1692
N4970 X2.6052 Y-1.1792
N4975 G2 X2.3991 Y-1.1978 I-0.2481 J1.6021
N4980 X2.0366 Y-1.2021 I-0.298 J9.8411
N4985 G1 X1.9331 Y-1.2024
N4990 X1.6223
N4995 X0.742
N5000 X0.5867
N5005 X0.5349
N5010 X0.4831 Y-1.2016
N5015 X0.4314 Y-1.1984
N5020 X0.3802 Y-1.1909
N5025 X0.3299 Y-1.1785
N5030 X0.281 Y-1.1614
N5035 X0.2338 Y-1.1402
N5040 X0.1879 Y-1.1161
N5045 G3 X0.1299 Y-1.0924 I-0.1066 J-0.1777
N5050 G1 X0.1121 Y-1.0905
N5055 G2 X0.0658 Y-1.0868 I0.0042 J0.3485
N5060 G3 X0.0359 Y-1.0923 I-0.0063 J-0.0495
N5065 G1 X0.0309 Y-1.0949 Z0.4128
N5070 X0.0261 Y-1.0975 Z0.4137
N5075 X0.0213 Y-1.1001 Z0.4153
N5080 X0.0168 Y-1.1025 Z0.4174
N5085 X0.0124 Y-1.1048 Z0.4201
N5090 X0.0084 Y-1.107 Z0.4234
N5095 X0.0047 Y-1.109 Z0.4271
N5100 X0.0014 Y-1.1107 Z0.4313
N5105 X-0.0014 Y-1.1123 Z0.4359
N5110 X-0.0038 Y-1.1135 Z0.4408
N5115 X-0.0057 Y-1.1146 Z0.446
N5120 X-0.0071 Y-1.1153 Z0.4514
N5125 X-0.0079 Y-1.1157 Z0.4569
N5130 X-0.0082 Y-1.1159 Z0.4625
N5135 G0 Z1.45
N5140 G1 X-0.0387 Y-0.1545 F500.
N5145 G0 Z0.5125
N5150 G1 Z0.4625 F69.
N5155 X-0.0384 Z0.4569
N5160 X-0.0375 Y-0.1548 Z0.4514
N5165 X-0.036 Y-0.1552 Z0.446
N5170 X-0.0339 Y-0.1558 Z0.4408
N5175 X-0.0313 Y-0.1565 Z0.4359
N5180 X-0.0282 Y-0.1574 Z0.4313
N5185 X-0.0246 Y-0.1585 Z0.4271
N5190 X-0.0206 Y-0.1596 Z0.4234
N5195 X-0.0162 Y-0.1608 Z0.4201
N5200 X-0.0115 Y-0.1622 Z0.4174
N5205 X-0.0065 Y-0.1636 Z0.4153
N5210 X-0.0013 Y-0.1651 Z0.4137
N5215 X0.004 Y-0.1666 Z0.4128
N5220 X0.0094 Y-0.1681 Z0.4125
N5225 G3 X0.0403 Y-0.1689 I0.017 J0.0599
N5230 G1 X0.0553 Y-0.1649
N5235 X0.0703 Y-0.1625
N5240 X0.0785 Y-0.1615
N5245 G3 X0.1852 Y-0.1391 I-0.172 J1.0805
N5250 G2 X0.5425 Y-0.0818 I0.4552 J-1.6976
N5255 X0.9048 Y-0.0734 I0.3237 J-6.1047
N5260 G1 X0.9566 Y-0.0729
N5265 X1.0084 Y-0.0728
N5270 X1.112 Y-0.0726
N5275 X1.3191
N5280 X2.0441
N5285 X2.4066
N5290 X2.4584
N5295 X2.5102 Y-0.0732
N5300 X2.5619 Y-0.0756
N5305 X2.6133 Y-0.082
N5310 X2.6638 Y-0.0935
N5315 X2.7126 Y-0.1107
N5320 X2.759 Y-0.1338
N5325 X2.8022 Y-0.1623
N5330 X2.8415 Y-0.196
N5335 X2.8767 Y-0.234
N5340 X2.9072 Y-0.2758
N5345 X2.9332 Y-0.3206
N5350 X2.9548 Y-0.3677
N5355 X2.9723 Y-0.4164
N5360 X2.986 Y-0.4663
N5365 G2 X3.0128 Y-0.6714 I-1.0291 J-0.2389
N5370 G1 X3.0122 Y-0.7232
N5375 X3.0066 Y-0.7747
N5380 X2.9953 Y-0.8252
N5385 X2.9779 Y-0.874
N5390 X2.9545 Y-0.9202
N5395 X2.9254 Y-0.963
N5400 X2.8912 Y-1.0019
N5405 X2.8527 Y-1.0365
N5410 X2.8105 Y-1.0666
N5415 X2.7654 Y-1.092
N5420 X2.7181 Y-1.113
N5425 X2.6691 Y-1.1299
N5430 X2.619 Y-1.1431
N5435 G2 X2.4138 Y-1.1697 I-0.2632 J1.2248
N5440 X2.1033 Y-1.1767 I-0.2794 J5.4963
N5445 G1 X2.0515 Y-1.1771
N5450 X1.9997 Y-1.1772
N5455 X1.8961 Y-1.1774
N5460 X1.689
N5465 X0.6533
N5470 X0.6015
N5475 X0.5497 Y-1.1771
N5480 X0.498 Y-1.1752
N5485 X0.4464 Y-1.1704
N5490 X0.3954 Y-1.1616
N5495 X0.3452 Y-1.1487
N5500 G2 X0.2173 Y-1.0993 I0.4191 J1.2784
N5505 G1 X0.2017 Y-1.0946
N5510 X0.1858 Y-1.0916
N5515 X0.1697 Y-1.0906
N5520 X0.1153
N5525 X0.1121 Y-1.0905
N5530 G3 X0.083 Y-1.0995 I-0.0005 J-0.05
N5535 G1 X0.0785 Y-1.1027 Z0.4128
N5540 X0.0739 Y-1.1058 Z0.4137
N5545 X0.0695 Y-1.1089 Z0.4153
N5550 X0.0652 Y-1.1119 Z0.4174
N5555 X0.0612 Y-1.1147 Z0.4201
N5560 X0.0575 Y-1.1173 Z0.4234
N5565 X0.054 Y-1.1197 Z0.4271
N5570 X0.051 Y-1.1218 Z0.4313
N5575 X0.0483 Y-1.1237 Z0.4359
N5580 X0.0461 Y-1.1252 Z0.4408
N5585 X0.0443 Y-1.1264 Z0.446
N5590 X0.0431 Y-1.1273 Z0.4514
N5595 X0.0423 Y-1.1279 Z0.4569
N5600 X0.042 Y-1.1281 Z0.4625
N5605 G0 Z1.45
N5610 G1 X0.0025 Y-0.1358 F500.
N5615 G0 Z0.5125
N5620 G1 Z0.4625 F69.
N5625 X0.0027 Y-0.1359 Z0.4569
N5630 X0.0036 Y-0.1363 Z0.4514
N5635 X0.005 Y-0.137 Z0.446
N5640 X0.007 Y-0.1378 Z0.4408
N5645 X0.0094 Y-0.1389 Z0.4359
N5650 X0.0124 Y-0.1403 Z0.4313
N5655 X0.0158 Y-0.1418 Z0.4271
N5660 X0.0196 Y-0.1435 Z0.4234
N5665 X0.0238 Y-0.1454 Z0.4201
N5670 X0.0283 Y-0.1474 Z0.4174
N5675 X0.033 Y-0.1495 Z0.4153
N5680 X0.0379 Y-0.1517 Z0.4137
N5685 X0.043 Y-0.154 Z0.4128
N5690 X0.0481 Y-0.1563 Z0.4125
N5695 G3 X0.0785 Y-0.1615 I0.0255 J0.0568
N5700 G2 X0.1303 Y-0.1594 I0.0455 J-0.4669
N5705 G3 X0.2239 Y-0.1494 I-0.0333 J0.7591
N5710 G1 X0.2751 Y-0.1412
N5715 G2 X0.687 Y-0.1019 I0.4526 J-2.5664
N5720 X1.0495 Y-0.098 I0.3089 J-11.8293
N5725 G1 X1.1531 Y-0.0977
N5730 X1.3602 Y-0.0976
N5735 X2.137
N5740 X2.3959
N5745 X2.4477 Y-0.0978
N5750 X2.4994 Y-0.0994
N5755 X2.551 Y-0.1038
N5760 X2.6021 Y-0.1126
N5765 X2.6519 Y-0.1266
N5770 X2.6998 Y-0.1462
N5775 X2.745 Y-0.1715
N5780 X2.7869 Y-0.202
N5785 X2.8248 Y-0.2373
N5790 X2.8584 Y-0.2766
N5795 X2.8877 Y-0.3194
N5800 X2.9124 Y-0.3649
N5805 X2.9329 Y-0.4124
N5810 X2.9494 Y-0.4615
N5815 X2.9624 Y-0.5116
N5820 X2.9721 Y-0.5625
N5825 X2.9786 Y-0.6139
N5830 X2.9812 Y-0.6656
N5835 X2.9789 Y-0.7173
N5840 X2.971 Y-0.7685
N5845 X2.957 Y-0.8183
N5850 X2.9368 Y-0.866
N5855 X2.9108 Y-0.9108
N5860 X2.8794 Y-0.952
N5865 X2.8433 Y-0.9891
N5870 X2.8032 Y-1.0218
N5875 X2.7597 Y-1.05
N5880 X2.7137 Y-1.0737
N5885 X2.6657 Y-1.0932
N5890 X2.6163 Y-1.1088
N5895 X2.5659 Y-1.1209
N5900 X2.515 Y-1.13
N5905 X2.4636 Y-1.1368
N5910 X2.4121 Y-1.1418
N5915 G2 X2.1016 Y-1.1514 I-0.2893 J4.3332
N5920 X1.8427 Y-1.1524 I-0.2209 J23.8963
N5925 G1 X1.6356
N5930 X0.7034
N5935 X0.6517
N5940 X0.5999 Y-1.1521
N5945 X0.5481 Y-1.1506
N5950 X0.4965 Y-1.1468
N5955 X0.4451 Y-1.14
N5960 X0.3944 Y-1.1295
N5965 X0.3445 Y-1.1157
N5970 X0.2875 Y-1.097
N5975 X0.2744 Y-1.0935
N5980 X0.2609 Y-1.0913
N5985 X0.2473 Y-1.0906
N5990 X0.1697
N5995 G3 X0.141 Y-1.1009 I0.0017 J-0.05
N6000 G1 X0.1366 Y-1.1043 Z0.4128
N6005 X0.1322 Y-1.1077 Z0.4137
N6010 X0.1279 Y-1.1109 Z0.4153
N6015 X0.1238 Y-1.1141 Z0.4174
N6020 X0.1199 Y-1.1171 Z0.4201
N6025 X0.1163 Y-1.1198 Z0.4234
N6030 X0.113 Y-1.1224 Z0.4271
N6035 X0.11 Y-1.1247 Z0.4313
N6040 X0.1074 Y-1.1266 Z0.4359
N6045 X0.1053 Y-1.1283 Z0.4408
N6050 X0.1036 Y-1.1296 Z0.446
N6055 X0.1023 Y-1.1305 Z0.4514
N6060 X0.1016 Y-1.1311 Z0.4569
N6065 X0.1013 Y-1.1313 Z0.4625
N6070 G0 Z1.45
N6075 G1 X0.0576 Y-0.1251 F500.
N6080 G0 Z0.5125
N6085 G1 Z0.4625 F69.
N6090 X0.0579 Y-0.1253 Z0.4569
N6095 X0.0587 Y-0.1257 Z0.4514
N6100 X0.06 Y-0.1265 Z0.446
N6105 X0.0619 Y-0.1276 Z0.4408
N6110 X0.0642 Y-0.129 Z0.4359
N6115 X0.067 Y-0.1307 Z0.4313
N6120 X0.0702 Y-0.1326 Z0.4271
N6125 X0.0738 Y-0.1347 Z0.4234
N6130 X0.0777 Y-0.1371 Z0.4201
N6135 X0.082 Y-0.1396 Z0.4174
N6140 X0.0864 Y-0.1422 Z0.4153
N6145 X0.0911 Y-0.145 Z0.4137
N6150 X0.0958 Y-0.1478 Z0.4128
N6155 X0.1006 Y-0.1507 Z0.4125
N6160 G3 X0.1303 Y-0.1594 I0.0318 J0.0536
N6165 G1 X0.2353
N6170 G3 X0.4217 Y-0.1442 I-0.116 J2.5708
N6175 G2 X0.8354 Y-0.1245 I0.4207 J-4.4999
N6180 X1.3015 Y-0.1226 I0.366 J-32.045
N6185 G1 X1.8711
N6190 X2.2336
N6195 X2.3371
N6200 X2.3889 Y-0.1227
N6205 X2.4407 Y-0.1237
N6210 X2.4924 Y-0.1268
N6215 X2.5438 Y-0.1335
N6220 X2.5943 Y-0.1449
N6225 X2.6433 Y-0.1617
N6230 X2.69 Y-0.1839
N6235 X2.7338 Y-0.2116
N6240 X2.774 Y-0.2442
N6245 X2.8103 Y-0.2812
N6250 X2.8423 Y-0.3219
N6255 X2.8699 Y-0.3657
N6260 X2.8931 Y-0.412
N6265 X2.9122 Y-0.4601
N6270 X2.9272 Y-0.5097
N6275 X2.9383 Y-0.5602
N6280 X2.9449 Y-0.6116
N6285 X2.9464 Y-0.6634
N6290 X2.9421 Y-0.715
N6295 X2.9315 Y-0.7657
N6300 X2.9146 Y-0.8146
N6305 X2.8916 Y-0.861
N6310 X2.8629 Y-0.9041
N6315 X2.8291 Y-0.9434
N6320 X2.791 Y-0.9784
N6325 X2.7492 Y-1.009
N6330 X2.7045 Y-1.0351
N6335 X2.6575 Y-1.0569
N6340 X2.6088 Y-1.0746
N6345 X2.559 Y-1.0886
N6350 X2.5083 Y-1.0994
N6355 G2 X2.3024 Y-1.1209 I-0.2634 J1.5251
N6360 G1 X2.2507 Y-1.1231
N6365 X2.1989 Y-1.1246
N6370 G2 X1.7847 Y-1.1274 I-0.3509 J21.3481
N6375 G1 X1.5776
N6380 X0.749
N6385 G2 X0.542 Y-1.1229 I-0.0413 J2.869
N6390 X0.3794 Y-1.0947 I0.078 J0.9322
N6395 G1 X0.3687 Y-1.0925
N6400 X0.3579 Y-1.0911
N6405 X0.3469 Y-1.0906
N6410 X0.2473
N6415 G3 X0.2187 Y-1.1009 I0.0017 J-0.05
N6420 G1 X0.2142 Y-1.1043 Z0.4128
N6425 X0.2098 Y-1.1077 Z0.4137
N6430 X0.2055 Y-1.1109 Z0.4153
N6435 X0.2014 Y-1.1141 Z0.4174
N6440 X0.1975 Y-1.1171 Z0.4201
N6445 X0.1939 Y-1.1198 Z0.4234
N6450 X0.1906 Y-1.1224 Z0.4271
N6455 X0.1876 Y-1.1247 Z0.4313
N6460 X0.185 Y-1.1266 Z0.4359
N6465 X0.1829 Y-1.1283 Z0.4408
N6470 X0.1812 Y-1.1296 Z0.446
N6475 X0.1799 Y-1.1305 Z0.4514
N6480 X0.1792 Y-1.1311 Z0.4569
N6485 X0.1789 Y-1.1313 Z0.4625
N6490 G0 Z1.45
N6495 G1 X0.1626 Y-0.1251 F500.
N6500 G0 Z0.5125
N6505 G1 Z0.4625 F69.
N6510 X0.1629 Y-0.1253 Z0.4569
N6515 X0.1637 Y-0.1257 Z0.4514
N6520 X0.165 Y-0.1265 Z0.446
N6525 X0.1669 Y-0.1276 Z0.4408
N6530 X0.1692 Y-0.129 Z0.4359
N6535 X0.172 Y-0.1307 Z0.4313
N6540 X0.1752 Y-0.1326 Z0.4271
N6545 X0.1788 Y-0.1347 Z0.4234
N6550 X0.1827 Y-0.1371 Z0.4201
N6555 X0.1869 Y-0.1396 Z0.4174
N6560 X0.1914 Y-0.1422 Z0.4153
N6565 X0.196 Y-0.145 Z0.4137
N6570 X0.2008 Y-0.1478 Z0.4128
N6575 X0.2056 Y-0.1507 Z0.4125
N6580 G3 X0.2353 Y-0.1594 I0.0318 J0.0536
N6585 G1 X0.4452
N6590 X0.4969 Y-0.1568
N6595 G3 X0.704 Y-0.152 I-0.1028 J8.9877
N6600 G2 X1.2218 Y-0.1477 I0.4502 J-22.7717
N6605 G1 X1.429 Y-0.1476
N6610 X2.2575
N6615 X2.3093
N6620 X2.3611 Y-0.1479
N6625 X2.4128 Y-0.1492
N6630 X2.4645 Y-0.1528
N6635 X2.5158 Y-0.1601
N6640 X2.5662 Y-0.1719
N6645 X2.615 Y-0.1891
N6650 X2.6616 Y-0.2117
N6655 X2.7053 Y-0.2395
N6660 X2.7456 Y-0.2721
N6665 X2.7818 Y-0.3091
N6670 X2.8139 Y-0.3497
N6675 X2.8415 Y-0.3935
N6680 X2.8648 Y-0.4398
N6685 X2.8835 Y-0.4881
N6690 X2.8974 Y-0.538
N6695 X2.9059 Y-0.589
N6700 X2.9085 Y-0.6408
N6705 X2.9047 Y-0.6924
N6710 X2.8942 Y-0.7431
N6715 X2.8772 Y-0.792
N6720 X2.854 Y-0.8383
N6725 X2.825 Y-0.8812
N6730 X2.791 Y-0.9203
N6735 X2.7526 Y-0.955
N6740 X2.7106 Y-0.9853
N6745 X2.6657 Y-1.0111
N6750 X2.6185 Y-1.0324
N6755 X2.5697 Y-1.0498
N6760 X2.5198 Y-1.0636
N6765 G2 X2.315 Y-1.0926 I-0.2753 J1.2058
N6770 X2.0562 Y-1.101 I-0.2646 J4.1748
N6775 X1.8491 Y-1.1022 I-0.2054 J17.9112
N6780 G1 X1.7455 Y-1.1023
N6785 X1.5384 Y-1.1024
N6790 X0.8134
N6795 G2 X0.6063 Y-1.0999 I-0.0446 J4.8805
N6800 G1 X0.5546 Y-1.0961
N6805 X0.5159 Y-1.0915
N6810 X0.5108 Y-1.091
N6815 X0.5058 Y-1.0907
N6820 X0.5007 Y-1.0906
N6825 X0.3469
N6830 G3 X0.3183 Y-1.1009 I0.0017 J-0.05
N6835 G1 X0.3138 Y-1.1043 Z0.4128
N6840 X0.3095 Y-1.1077 Z0.4137
N6845 X0.3052 Y-1.1109 Z0.4153
N6850 X0.3011 Y-1.1141 Z0.4174
N6855 X0.2972 Y-1.1171 Z0.4201
N6860 X0.2935 Y-1.1198 Z0.4234
N6865 X0.2902 Y-1.1224 Z0.4271
N6870 X0.2873 Y-1.1247 Z0.4313
N6875 X0.2847 Y-1.1266 Z0.4359
N6880 X0.2825 Y-1.1283 Z0.4408
N6885 X0.2808 Y-1.1296 Z0.446
N6890 X0.2796 Y-1.1305 Z0.4514
N6895 X0.2788 Y-1.1311 Z0.4569
N6900 X0.2786 Y-1.1313 Z0.4625
N6905 G0 Z1.45
N6910 G1 X0.3726 Y-0.1251 F500.
N6915 G0 Z0.5125
N6920 G1 Z0.4625 F69.
N6925 X0.3728 Y-0.1253 Z0.4569
N6930 X0.3737 Y-0.1257 Z0.4514
N6935 X0.375 Y-0.1265 Z0.446
N6940 X0.3768 Y-0.1276 Z0.4408
N6945 X0.3792 Y-0.129 Z0.4359
N6950 X0.3819 Y-0.1307 Z0.4313
N6955 X0.3852 Y-0.1326 Z0.4271
N6960 X0.3888 Y-0.1347 Z0.4234
N6965 X0.3927 Y-0.1371 Z0.4201
N6970 X0.3969 Y-0.1396 Z0.4174
N6975 X0.4014 Y-0.1422 Z0.4153
N6980 X0.406 Y-0.145 Z0.4137
N6985 X0.4107 Y-0.1478 Z0.4128
N6990 X0.4156 Y-0.1507 Z0.4125
N6995 G3 X0.4452 Y-0.1594 I0.0318 J0.0536
N7000 G1 X1.8399
N7005 G2 X1.9149 Y-0.1638 I0.0113 J-0.4506
N7010 G3 X2.143 Y-0.1719 I0.2056 J2.5658
N7015 G2 X2.3502 Y-0.1733 I-0.1097 J-30.5189
N7020 G1 X2.4019 Y-0.1758
N7025 X2.4534 Y-0.1809
N7030 X2.5044 Y-0.1899
N7035 X2.5543 Y-0.2039
N7040 X2.6024 Y-0.2231
N7045 X2.648 Y-0.2475
N7050 X2.6906 Y-0.277
N7055 X2.7296 Y-0.3111
N7060 X2.7645 Y-0.3494
N7065 X2.7949 Y-0.3912
N7070 X2.8207 Y-0.4362
N7075 X2.8412 Y-0.4837
N7080 X2.8561 Y-0.5333
N7085 X2.8646 Y-0.5844
N7090 X2.8664 Y-0.6361
N7095 X2.861 Y-0.6876
N7100 X2.8487 Y-0.7379
N7105 X2.8296 Y-0.7861
N7110 X2.8043 Y-0.8313
N7115 X2.7734 Y-0.8728
N7120 X2.7375 Y-0.9101
N7125 X2.6975 Y-0.943
N7130 X2.6542 Y-0.9714
N7135 X2.6082 Y-0.9953
N7140 X2.5604 Y-1.015
N7145 X2.511 Y-1.0308
N7150 X2.4608 Y-1.0432
N7155 X2.4099 Y-1.0527
N7160 X2.3586 Y-1.0599
N7165 X2.3071 Y-1.0651
N7170 G2 X1.9817 Y-1.0763 I-0.3119 J4.346
N7175 G1 X1.974 Y-1.0774
N7180 X1.9664 Y-1.0785
N7185 G2 X1.8399 Y-1.0906 I-0.1224 J0.6138
N7190 G1 X0.5007
N7195 G3 X0.472 Y-1.1009 I0.0017 J-0.05
N7200 G1 X0.4676 Y-1.1043 Z0.4128
N7205 X0.4632 Y-1.1077 Z0.4137
N7210 X0.4589 Y-1.1109 Z0.4153
N7215 X0.4548 Y-1.1141 Z0.4174
N7220 X0.4509 Y-1.1171 Z0.4201
N7225 X0.4473 Y-1.1198 Z0.4234
N7230 X0.4439 Y-1.1224 Z0.4271
N7235 X0.441 Y-1.1247 Z0.4313
N7240 X0.4384 Y-1.1266 Z0.4359
N7245 X0.4362 Y-1.1283 Z0.4408
N7250 X0.4345 Y-1.1296 Z0.446
N7255 X0.4333 Y-1.1305 Z0.4514
N7260 X0.4326 Y-1.1311 Z0.4569
N7265 X0.4323 Y-1.1313 Z0.4625
N7270 G0 Z1.45
N7275 G1 X1.8474 Y-0.1202 F500.
N7280 G0 Z0.5125
N7285 G1 Z0.4625 F69.
N7290 X1.8476 Y-0.1204 Z0.4569
N7295 X1.8484 Y-0.121 Z0.4514
N7300 X1.8496 Y-0.122 Z0.446
N7305 X1.8513 Y-0.1233 Z0.4408
N7310 X1.8534 Y-0.125 Z0.4359
N7315 X1.8559 Y-0.127 Z0.4313
N7320 X1.8589 Y-0.1293 Z0.4271
N7325 X1.8622 Y-0.1319 Z0.4234
N7330 X1.8657 Y-0.1347 Z0.4201
N7335 X1.8696 Y-0.1377 Z0.4174
N7340 X1.8737 Y-0.1409 Z0.4153
N7345 X1.8779 Y-0.1443 Z0.4137
N7350 X1.8822 Y-0.1477 Z0.4128
N7355 X1.8866 Y-0.1512 Z0.4125
N7360 G3 X1.9149 Y-0.1637 I0.0386 J0.0489
N7365 G2 X1.9863 Y-0.1755 I-0.0685 J-0.6324
N7370 G3 X2.0846 Y-0.1901 I0.125 J0.506
N7375 X2.2728 Y-0.197 I0.1899 J2.5933
N7380 G1 X2.3246 Y-0.1984
N7385 X2.3763 Y-0.2013
N7390 X2.4277 Y-0.207
N7395 X2.4786 Y-0.2167
N7400 X2.5283 Y-0.2312
N7405 X2.5762 Y-0.2509
N7410 X2.6217 Y-0.2757
N7415 X2.664 Y-0.3055
N7420 X2.7026 Y-0.34
N7425 X2.7369 Y-0.3788
N7430 X2.7662 Y-0.4215
N7435 X2.7899 Y-0.4676
N7440 X2.8071 Y-0.5164
N7445 X2.8173 Y-0.5672
N7450 X2.8199 Y-0.6189
N7455 X2.8151 Y-0.6704
N7460 X2.8028 Y-0.7207
N7465 X2.7835 Y-0.7688
N7470 X2.7577 Y-0.8137
N7475 X2.7261 Y-0.8548
N7480 X2.6897 Y-0.8915
N7485 X2.6491 Y-0.9238
N7490 X2.6053 Y-0.9514
N7495 X2.559 Y-0.9746
N7500 X2.5108 Y-0.9935
N7505 X2.4613 Y-1.0085
N7510 X2.4108 Y-1.0203
N7515 G2 X2.2053 Y-1.0444 I-0.2707 J1.4222
N7520 G1 X2.1536 Y-1.047
N7525 X2.1018 Y-1.0487
N7530 X2.0571 Y-1.0498
N7535 X2.0534 Y-1.0501
N7540 X2.0498 Y-1.0509
N7545 X2.0463 Y-1.0522
N7550 X2.0199 Y-1.0631
N7555 G3 X1.9974 Y-1.0835 I0.0207 J-0.0455
N7560 G1 X1.9946 Y-1.0884 Z0.4128
N7565 X1.9918 Y-1.0932 Z0.4137
N7570 X1.9891 Y-1.0978 Z0.4153
N7575 X1.9865 Y-1.1023 Z0.4174
N7580 X1.984 Y-1.1066 Z0.4201
N7585 X1.9817 Y-1.1105 Z0.4234
N7590 X1.9796 Y-1.1141 Z0.4271
N7595 X1.9778 Y-1.1174 Z0.4313
N7600 X1.9761 Y-1.1202 Z0.4359
N7605 X1.9748 Y-1.1225 Z0.4408
N7610 X1.9737 Y-1.1244 Z0.446
N7615 X1.9729 Y-1.1257 Z0.4514
N7620 X1.9725 Y-1.1265 Z0.4569
N7625 X1.9723 Y-1.1268 Z0.4625
N7630 G0 Z1.45
N7635 G1 X1.928 Y-0.1203 F500.
N7640 G0 Z0.5125
N7645 G1 Z0.4625 F69.
N7650 X1.9282 Y-0.1206 Z0.4569
N7655 X1.9289 Y-0.1213 Z0.4514
N7660 X1.9299 Y-0.1225 Z0.446
N7665 X1.9313 Y-0.1241 Z0.4408
N7670 X1.9331 Y-0.1261 Z0.4359
N7675 X1.9352 Y-0.1286 Z0.4313
N7680 X1.9376 Y-0.1314 Z0.4271
N7685 X1.9404 Y-0.1345 Z0.4234
N7690 X1.9434 Y-0.138 Z0.4201
N7695 X1.9466 Y-0.1417 Z0.4174
N7700 X1.95 Y-0.1456 Z0.4153
N7705 X1.9536 Y-0.1497 Z0.4137
N7710 X1.9572 Y-0.1538 Z0.4128
N7715 X1.9609 Y-0.1581 Z0.4125
N7720 G3 X1.9863 Y-0.1756 I0.047 J0.0409
N7725 G1 X2.0049 Y-0.1818
N7730 X2.0199 Y-0.1869
N7735 X2.0222 Y-0.1879
N7740 G3 X2.1418 Y-0.212 I0.1471 J0.4215
N7745 G1 X2.1699 Y-0.2149
N7750 X2.2216 Y-0.2185
N7755 X2.2733 Y-0.221
N7760 X2.325 Y-0.2241
N7765 X2.3766 Y-0.2291
N7770 X2.4277 Y-0.2373
N7775 X2.4779 Y-0.25
N7780 X2.5266 Y-0.2676
N7785 X2.5731 Y-0.2903
N7790 X2.6167 Y-0.3182
N7795 X2.6566 Y-0.3513
N7800 X2.6918 Y-0.3893
N7805 X2.7213 Y-0.4318
N7810 X2.7442 Y-0.4783
N7815 X2.7597 Y-0.5277
N7820 X2.7672 Y-0.5789
N7825 X2.7666 Y-0.6307
N7830 X2.758 Y-0.6818
N7835 X2.7418 Y-0.731
N7840 X2.7186 Y-0.7772
N7845 X2.6891 Y-0.8198
N7850 X2.6543 Y-0.8581
N7855 X2.615 Y-0.8918
N7860 X2.572 Y-0.9208
N7865 X2.5263 Y-0.945
N7870 X2.4784 Y-0.9649
N7875 X2.4292 Y-0.9808
N7880 X2.3789 Y-0.9932
N7885 G2 X2.1735 Y-1.0188 I-0.2701 J1.3333
N7890 G1 X2.1373 Y-1.0208
N7895 X2.1194 Y-1.0229
N7900 X2.102 Y-1.0276
N7905 X2.0854 Y-1.0345
N7910 G2 X2.0463 Y-1.0522 I-0.294 J0.6001
N7915 G3 X2.0238 Y-1.0726 I0.0207 J-0.0455
N7920 G1 X2.021 Y-1.0774 Z0.4128
N7925 X2.0182 Y-1.0822 Z0.4137
N7930 X2.0155 Y-1.0869 Z0.4153
N7935 X2.0129 Y-1.0914 Z0.4174
N7940 X2.0105 Y-1.0956 Z0.4201
N7945 X2.0082 Y-1.0996 Z0.4234
N7950 X2.0061 Y-1.1032 Z0.4271
N7955 X2.0042 Y-1.1064 Z0.4313
N7960 X2.0026 Y-1.1092 Z0.4359
N7965 X2.0012 Y-1.1116 Z0.4408
N7970 X2.0001 Y-1.1134 Z0.446
N7975 X1.9994 Y-1.1148 Z0.4514
N7980 X1.9989 Y-1.1156 Z0.4569
N7985 X1.9987 Y-1.1159 Z0.4625
N7990 G0 Z1.45
N7995 G1 X1.9682 Y-0.1284 F500.
N8000 G0 Z0.5125
N8005 G1 Z0.4625 F69.
N8010 X1.9684 Y-0.1287 Z0.4569
N8015 X1.969 Y-0.1294 Z0.4514
N8020 X1.9699 Y-0.1307 Z0.446
N8025 X1.9712 Y-0.1324 Z0.4408
N8030 X1.9728 Y-0.1346 Z0.4359
N8035 X1.9748 Y-0.1372 Z0.4313
N8040 X1.977 Y-0.1401 Z0.4271
N8045 X1.9795 Y-0.1435 Z0.4234
N8050 X1.9822 Y-0.1472 Z0.4201
N8055 X1.9852 Y-0.1511 Z0.4174
N8060 X1.9883 Y-0.1552 Z0.4153
N8065 X1.9915 Y-0.1596 Z0.4137
N8070 X1.9948 Y-0.164 Z0.4128
N8075 X1.9982 Y-0.1685 Z0.4125
N8080 G3 X2.0222 Y-0.1879 I0.0499 J0.0373
N8085 G1 X2.0499 Y-0.1993
N8090 X2.0649 Y-0.2059
N8095 G3 X2.1799 Y-0.2335 I0.1559 J0.3961
N8100 G1 X2.2118 Y-0.2379
N8105 X2.2633 Y-0.2432
N8110 X2.3149 Y-0.2483
N8115 X2.3661 Y-0.2554
N8120 X2.4169 Y-0.2658
N8125 X2.4665 Y-0.2807
N8130 X2.5143 Y-0.3005
N8135 X2.5594 Y-0.3259
N8140 X2.6008 Y-0.357
N8145 X2.6371 Y-0.394
N8150 X2.667 Y-0.4363
N8155 X2.6894 Y-0.483
N8160 X2.7036 Y-0.5328
N8165 X2.7092 Y-0.5843
N8170 X2.7061 Y-0.636
N8175 X2.6948 Y-0.6865
N8180 X2.6756 Y-0.7346
N8185 X2.6495 Y-0.7793
N8190 X2.6172 Y-0.8198
N8195 X2.5799 Y-0.8557
N8200 X2.5384 Y-0.8867
N8205 X2.4937 Y-0.9129
N8210 X2.4466 Y-0.9344
N8215 X2.3978 Y-0.9517
N8220 X2.3478 Y-0.9652
N8225 X2.2971 Y-0.9756
N8230 X2.2459 Y-0.9834
N8235 X2.1959 Y-0.989
N8240 G3 X2.1318 Y-1.0065 I0.0117 J-0.1686
N8245 G1 X2.1192 Y-1.0147
N8250 X2.1189 Y-1.0149
N8255 X2.0946 Y-1.0299
N8260 X2.0854 Y-1.0345
N8265 G3 X2.0645 Y-1.0566 I0.0241 J-0.0438
N8270 G1 X2.062 Y-1.0617 Z0.4128
N8275 X2.0596 Y-1.0666 Z0.4137
N8280 X2.0573 Y-1.0715 Z0.4153
N8285 X2.055 Y-1.0762 Z0.4174
N8290 X2.0529 Y-1.0806 Z0.4201
N8295 X2.0509 Y-1.0847 Z0.4234
N8300 X2.0491 Y-1.0885 Z0.4271
N8305 X2.0475 Y-1.0918 Z0.4313
N8310 X2.0461 Y-1.0948 Z0.4359
N8315 X2.0449 Y-1.0972 Z0.4408
N8320 X2.0439 Y-1.0991 Z0.446
N8325 X2.0433 Y-1.1005 Z0.4514
N8330 X2.0429 Y-1.1014 Z0.4569
N8335 X2.0427 Y-1.1017 Z0.4625
N8340 G0 Z1.45
N8345 G1 X2.0128 Y-0.1448 F500.
N8350 G0 Z0.5125
N8355 G1 Z0.4625 F69.
N8360 X2.0129 Y-0.1451 Z0.4569
N8365 X2.0135 Y-0.1458 Z0.4514
N8370 X2.0144 Y-0.1471 Z0.446
N8375 X2.0156 Y-0.1489 Z0.4408
N8380 X2.0172 Y-0.1511 Z0.4359
N8385 X2.019 Y-0.1537 Z0.4313
N8390 X2.0212 Y-0.1568 Z0.4271
N8395 X2.0236 Y-0.1602 Z0.4234
N8400 X2.0262 Y-0.164 Z0.4201
N8405 X2.029 Y-0.168 Z0.4174
N8410 X2.032 Y-0.1722 Z0.4153
N8415 X2.0351 Y-0.1766 Z0.4137
N8420 X2.0382 Y-0.1812 Z0.4128
N8425 X2.0414 Y-0.1858 Z0.4125
N8430 G3 X2.0649 Y-0.2059 I0.051 J0.0357
N8435 G1 X2.0799 Y-0.2127
N8440 X2.0946 Y-0.2201
N8445 X2.0949 Y-0.2203
N8450 G3 X2.1739 Y-0.2479 I0.1285 J0.2413
N8455 X2.3127 Y-0.2727 I0.3721 J1.6819
N8460 G1 X2.3635 Y-0.2828
N8465 X2.4135 Y-0.2964
N8470 X2.4619 Y-0.3148
N8475 X2.5075 Y-0.3393
N8480 X2.5487 Y-0.3707
N8485 X2.5838 Y-0.4088
N8490 X2.6114 Y-0.4525
N8495 X2.6307 Y-0.5006
N8500 X2.6408 Y-0.5514
N8505 X2.6418 Y-0.6032
N8510 X2.6338 Y-0.6543
N8515 X2.6174 Y-0.7035
N8520 X2.5934 Y-0.7493
N8525 X2.5628 Y-0.7911
N8530 X2.5266 Y-0.8282
N8535 X2.4859 Y-0.8602
N8540 X2.4417 Y-0.8871
N8545 X2.3949 Y-0.9093
N8550 X2.3462 Y-0.927
N8555 X2.2963 Y-0.9407
N8560 G3 X2.2066 Y-0.9607 I0.6445 J-3.1122
N8565 G1 X2.1897 Y-0.9664
N8570 X2.1738 Y-0.9743
N8575 X2.1591 Y-0.9844
N8580 X2.1249 Y-1.0106
N8585 X2.1192 Y-1.0147
N8590 G3 X2.1018 Y-1.0397 I0.0305 J-0.0396
N8595 G1 X2.1002 Y-1.045 Z0.4128
N8600 X2.0986 Y-1.0503 Z0.4137
N8605 X2.097 Y-1.0555 Z0.4153
N8610 X2.0955 Y-1.0604 Z0.4174
N8615 X2.0941 Y-1.0651 Z0.4201
N8620 X2.0927 Y-1.0695 Z0.4234
N8625 X2.0915 Y-1.0735 Z0.4271
N8630 X2.0904 Y-1.0771 Z0.4313
N8635 X2.0894 Y-1.0802 Z0.4359
N8640 X2.0887 Y-1.0828 Z0.4408
N8645 X2.088 Y-1.0848 Z0.446
N8650 X2.0876 Y-1.0863 Z0.4514
N8655 X2.0873 Y-1.0872 Z0.4569
N8660 X2.0872 Y-1.0875 Z0.4625
N8665 G0 Z1.45
N8670 G1 X2.0511 Y-0.1529 F500.
N8675 G0 Z0.5125
N8680 G1 Z0.4625 F69.
N8685 X2.0512 Y-0.1532 Z0.4569
N8690 X2.0517 Y-0.1541 Z0.4514
N8695 X2.0524 Y-0.1554 Z0.446
N8700 X2.0534 Y-0.1573 Z0.4408
N8705 X2.0546 Y-0.1597 Z0.4359
N8710 X2.0561 Y-0.1626 Z0.4313
N8715 X2.0579 Y-0.1659 Z0.4271
N8720 X2.0598 Y-0.1696 Z0.4234
N8725 X2.0619 Y-0.1737 Z0.4201
N8730 X2.0642 Y-0.178 Z0.4174
N8735 X2.0666 Y-0.1826 Z0.4153
N8740 X2.0691 Y-0.1874 Z0.4137
N8745 X2.0716 Y-0.1923 Z0.4128
N8750 X2.0742 Y-0.1973 Z0.4125
N8755 G3 X2.0949 Y-0.2203 I0.0552 J0.0288
N8760 G1 X2.1189 Y-0.2351
N8765 X2.1199 Y-0.2358
N8770 G3 X2.1973 Y-0.2681 I0.1391 J0.2249
N8775 G1 X2.2129 Y-0.2728
N8780 X2.2457 Y-0.2813
N8785 X2.2961 Y-0.2931
N8790 X2.3463 Y-0.3059
N8795 X2.3953 Y-0.3226
N8800 X2.4414 Y-0.3462
N8805 X2.4825 Y-0.3778
N8810 X2.5166 Y-0.4167
N8815 X2.5424 Y-0.4616
N8820 X2.559 Y-0.5107
N8825 X2.5659 Y-0.562
N8830 X2.5632 Y-0.6137
N8835 X2.5514 Y-0.6641
N8840 X2.5312 Y-0.7118
N8845 X2.5036 Y-0.7556
N8850 X2.4697 Y-0.7948
N8855 X2.4307 Y-0.8288
N8860 X2.3877 Y-0.8577
N8865 X2.3418 Y-0.8816
N8870 X2.294 Y-0.9016
N8875 X2.2521 Y-0.9171
N8880 G3 X2.1998 Y-0.9489 I0.0443 J-0.1316
N8885 G1 X2.1938 Y-0.9549
N8890 X2.1699 Y-0.9759
N8895 X2.1591 Y-0.9844
N8900 G3 X2.143 Y-1.0101 I0.0323 J-0.0382
N8905 G1 X2.1416 Y-1.0156 Z0.4128
N8910 X2.1402 Y-1.0209 Z0.4137
N8915 X2.1389 Y-1.0261 Z0.4153
N8920 X2.1376 Y-1.0312 Z0.4174
N8925 X2.1364 Y-1.0359 Z0.4201
N8930 X2.1352 Y-1.0403 Z0.4234
N8935 X2.1342 Y-1.0444 Z0.4271
N8940 X2.1333 Y-1.048 Z0.4313
N8945 X2.1325 Y-1.0512 Z0.4359
N8950 X2.1318 Y-1.0538 Z0.4408
N8955 X2.1313 Y-1.0559 Z0.446
N8960 X2.1309 Y-1.0574 Z0.4514
N8965 X2.1306 Y-1.0583 Z0.4569
N8970 Y-1.0586 Z0.4625
N8975 G0 Z1.45
N8980 G1 X2.0807 Y-0.1657 F500.
N8985 G0 Z0.5125
N8990 G1 Z0.4625 F69.
N8995 X2.0808 Y-0.166 Z0.4569
N9000 X2.0812 Y-0.1668 Z0.4514
N9005 X2.0818 Y-0.1683 Z0.446
N9010 X2.0827 Y-0.1702 Z0.4408
N9015 X2.0838 Y-0.1727 Z0.4359
N9020 X2.0851 Y-0.1757 Z0.4313
N9025 X2.0866 Y-0.1791 Z0.4271
N9030 X2.0883 Y-0.1829 Z0.4234
N9035 X2.0901 Y-0.1871 Z0.4201
N9040 X2.0921 Y-0.1916 Z0.4174
N9045 X2.0941 Y-0.1964 Z0.4153
N9050 X2.0963 Y-0.2013 Z0.4137
N9055 X2.0985 Y-0.2063 Z0.4128
N9060 X2.1008 Y-0.2115 Z0.4125
N9065 G3 X2.1199 Y-0.2358 I0.057 J0.0251
N9070 G1 X2.1249 Y-0.2394
N9075 X2.1424 Y-0.2528
N9080 G3 X2.2114 Y-0.2871 I0.154 J0.2228
N9085 G1 X2.2307 Y-0.2944
N9090 X2.2798 Y-0.3109
N9095 X2.3287 Y-0.328
N9100 X2.374 Y-0.3532
N9105 X2.4132 Y-0.387
N9110 X2.4444 Y-0.4283
N9115 X2.4664 Y-0.4752
N9120 X2.4784 Y-0.5256
N9125 X2.4805 Y-0.5773
N9130 X2.4728 Y-0.6285
N9135 X2.4562 Y-0.6776
N9140 X2.4317 Y-0.7232
N9145 X2.4006 Y-0.7646
N9150 X2.364 Y-0.8013
N9155 X2.3236 Y-0.8336
N9160 X2.2808 Y-0.8628
N9165 G3 X2.2395 Y-0.8993 I0.0738 J-0.1253
N9170 G2 X2.1999 Y-0.9489 I-0.6318 J0.4632
N9175 G3 X2.1888 Y-0.9772 I0.0388 J-0.0315
N9180 G1 X2.1885 Y-0.9828 Z0.4128
N9185 X2.1881 Y-0.9884 Z0.4137
N9190 X2.1878 Y-0.9937 Z0.4153
N9195 X2.1875 Y-0.9989 Z0.4174
N9200 X2.1872 Y-1.0038 Z0.4201
N9205 X2.1869 Y-1.0084 Z0.4234
N9210 X2.1866 Y-1.0125 Z0.4271
N9215 X2.1864 Y-1.0163 Z0.4313
N9220 X2.1862 Y-1.0195 Z0.4359
N9225 X2.186 Y-1.0222 Z0.4408
N9230 X2.1859 Y-1.0244 Z0.446
N9235 X2.1858 Y-1.0259 Z0.4514
N9240 X2.1857 Y-1.0268 Z0.4569
N9245 Y-1.0272 Z0.4625
N9250 G0 Z1.45
N9255 G1 X2.1055 Y-0.1814 F500.
N9260 G0 Z0.5125
N9265 G1 Z0.4625 F69.
N9270 X2.1057 Y-0.1817 Z0.4569
N9275 X2.106 Y-0.1826 Z0.4514
N9280 X2.1066 Y-0.184 Z0.446
N9285 X2.1074 Y-0.186 Z0.4408
N9290 X2.1084 Y-0.1885 Z0.4359
N9295 X2.1096 Y-0.1915 Z0.4313
N9300 X2.111 Y-0.195 Z0.4271
N9305 X2.1125 Y-0.1989 Z0.4234
N9310 X2.1142 Y-0.2031 Z0.4201
N9315 X2.1161 Y-0.2077 Z0.4174
N9320 X2.118 Y-0.2125 Z0.4153
N9325 X2.12 Y-0.2175 Z0.4137
N9330 X2.122 Y-0.2226 Z0.4128
N9335 X2.1241 Y-0.2278 Z0.4125
N9340 G3 X2.1424 Y-0.2528 I0.0578 J0.0232
N9345 G1 X2.1584 Y-0.2651
N9350 X2.1699 Y-0.2741
N9355 X2.171 Y-0.2751
N9360 G3 X2.2138 Y-0.3014 I0.1436 J0.1854
N9365 G1 X2.26 Y-0.3247
N9370 X2.3033 Y-0.3531
N9375 X2.3397 Y-0.3899
N9380 X2.3676 Y-0.4336
N9385 X2.386 Y-0.4819
N9390 X2.3946 Y-0.533
N9395 X2.3936 Y-0.5848
N9400 X2.3835 Y-0.6356
N9405 X2.3656 Y-0.6842
N9410 X2.341 Y-0.7297
N9415 X2.3114 Y-0.7722
N9420 X2.3053 Y-0.7806
N9425 X2.3 Y-0.7895
N9430 X2.2956 Y-0.7988
N9435 G2 X2.2645 Y-0.8649 I-0.4086 J0.1519
N9440 G1 X2.2599 Y-0.872
N9445 X2.2395 Y-0.8993
N9450 G0 Z1.45
N9455 G1 X2.139 Y-0.2014 F500.
N9460 G0 Z0.5125
N9465 G1 Z0.4625 F69.
N9470 X2.1391 Y-0.2017 Z0.4569
N9475 X2.1394 Y-0.2026 Z0.4514
N9480 X2.1399 Y-0.2041 Z0.446
N9485 X2.1406 Y-0.2061 Z0.4408
N9490 X2.1414 Y-0.2087 Z0.4359
N9495 X2.1424 Y-0.2118 Z0.4313
N9500 X2.1436 Y-0.2153 Z0.4271
N9505 X2.1448 Y-0.2193 Z0.4234
N9510 X2.1463 Y-0.2237 Z0.4201
N9515 X2.1478 Y-0.2283 Z0.4174
N9520 X2.1494 Y-0.2333 Z0.4153
N9525 X2.151 Y-0.2384 Z0.4137
N9530 X2.1527 Y-0.2436 Z0.4128
N9535 X2.1545 Y-0.249 Z0.4125
N9540 G3 X2.171 Y-0.2751 I0.0593 J0.0192
N9545 G1 X2.1938 Y-0.2951
N9550 X2.1948 Y-0.2961
N9555 X2.2009 Y-0.3016
N9560 X2.2403 Y-0.3352
N9565 X2.2744 Y-0.3742
N9570 X2.3008 Y-0.4188
N9575 X2.3187 Y-0.4673
N9580 X2.3279 Y-0.5183
N9585 X2.3288 Y-0.5701
N9590 X2.3282 Y-0.5769
N9595 Y-0.5839
N9600 X2.3287 Y-0.5907
N9605 G3 X2.3421 Y-0.6181 I0.0495 J0.0073
N9610 G1 X2.3459 Y-0.6221 Z0.4128
N9615 X2.3498 Y-0.6261 Z0.4137
N9620 X2.3535 Y-0.63 Z0.4153
N9625 X2.3571 Y-0.6337 Z0.4174
N9630 X2.3605 Y-0.6372 Z0.4201
N9635 X2.3637 Y-0.6405 Z0.4234
N9640 X2.3666 Y-0.6436 Z0.4271
N9645 X2.3692 Y-0.6462 Z0.4313
N9650 X2.3714 Y-0.6486 Z0.4359
N9655 X2.3733 Y-0.6505 Z0.4408
N9660 X2.3748 Y-0.6521 Z0.446
N9665 X2.3758 Y-0.6532 Z0.4514
N9670 X2.3765 Y-0.6539 Z0.4569
N9675 X2.3767 Y-0.6541 Z0.4625
N9680 G0 Z1.45
N9685 G1 X2.1672 Y-0.2207 F500.
N9690 G0 Z0.5125
N9695 G1 Z0.4625 F69.
N9700 Y-0.221 Z0.4569
N9705 X2.1675 Y-0.2219 Z0.4514
N9710 X2.1679 Y-0.2234 Z0.446
N9715 X2.1684 Y-0.2255 Z0.4408
N9720 X2.1691 Y-0.2281 Z0.4359
N9725 X2.1699 Y-0.2312 Z0.4313
N9730 X2.1709 Y-0.2348 Z0.4271
N9735 X2.1719 Y-0.2389 Z0.4234
N9740 X2.1731 Y-0.2433 Z0.4201
N9745 X2.1743 Y-0.248 Z0.4174
N9750 X2.1756 Y-0.2531 Z0.4153
N9755 X2.177 Y-0.2583 Z0.4137
N9760 X2.1784 Y-0.2636 Z0.4128
N9765 X2.1798 Y-0.269 Z0.4125
N9770 G3 X2.1948 Y-0.2961 I0.0603 J0.0157
N9775 G1 X2.1999 Y-0.3011
N9780 G2 X2.2645 Y-0.385 I-0.7828 J-0.6702
N9785 X2.293 Y-0.445 I-0.3612 J-0.2084
N9790 X2.3254 Y-0.565 I-0.326 J-0.1522
N9795 G1 X2.3275 Y-0.58
N9800 G2 X2.3253 Y-0.6849 I-0.3206 J-0.0458
N9805 X2.3106 Y-0.76 I-0.3449 J0.0286
N9810 G1 X2.3053 Y-0.775
N9815 X2.2993 Y-0.79
N9820 X2.2956 Y-0.7988
N9825 X2.2946 Y-0.803 Z0.4128
N9830 X2.2936 Y-0.807 Z0.4137
N9835 X2.2927 Y-0.811 Z0.4151
N9840 X2.2925 Y-0.8138 Z0.4165
N9845 X2.2924 Y-0.8164 Z0.4182
N9850 X2.2928 Y-0.8195 Z0.4208
N9855 X2.2931 Y-0.8222 Z0.4238
N9860 X2.2934 Y-0.8246 Z0.4271
N9865 X2.2937 Y-0.8265 Z0.4306
N9870 X2.2938 Y-0.8279 Z0.4344
N9875 X2.2939 Y-0.8288 Z0.4383
N9880 X2.294 Y-0.8291 Z0.4409
N9885 X2.2941 Y-0.8292 Z0.4434
N9890 G0 Z1.45
N9895 G1 X2.3399 Y-1.0078 F500.
N9900 G0 Z0.6093
N9905 G1 Z0.5593 F69.
N9910 X2.3396 Z0.5537
N9915 X2.3387 Y-1.0079 Z0.5482
N9920 X2.3371 Y-1.008 Z0.5428
N9925 X2.335 Y-1.0082 Z0.5376
N9930 X2.3323 Y-1.0084 Z0.5327
N9935 X2.329 Y-1.0087 Z0.5282
N9940 X2.3253 Y-1.009 Z0.524
N9945 X2.3211 Y-1.0093 Z0.5202
N9950 X2.3166 Y-1.0097 Z0.517
N9955 X2.3117 Y-1.0101 Z0.5143
N9960 X2.3065 Y-1.0105 Z0.5121
N9965 X2.3012 Y-1.0109 Z0.5106
N9970 X2.2957 Y-1.0114 Z0.5096
N9975 X2.2901 Y-1.0118 Z0.5093
N9980 G3 X2.0199 Y-1.0631 I0.1017 J-1.2724
N9985 G1 X2.0049 Y-1.0682
N9990 X2.0004 Y-1.0697
N9995 X1.9966 Y-1.0717 Z0.5096
N10000 X1.9929 Y-1.0736 Z0.5105
N10005 X1.9893 Y-1.0755 Z0.512
N10010 X1.9866 Y-1.0779 Z0.5139
N10015 X1.9841 Y-1.0801 Z0.5162
N10020 X1.9819 Y-1.0821 Z0.519
N10025 X1.98 Y-1.0838 Z0.5221
N10030 X1.9787 Y-1.0855 Z0.5254
N10035 X1.9777 Y-1.0868 Z0.5289
N10040 X1.977 Y-1.0877 Z0.5326
N10045 X1.9765 Y-1.0883 Z0.5364
N10050 X1.9764 Y-1.0885 Z0.5402
N10055 G0 Z1.45
N10060 G1 X-0.0491 Y-1.3901 F500.
N10065 G0 Z0.7093
N10070 G1 Z0.6593 F69.
N10075 X-0.049 Y-1.3898 Z0.6537
N10080 X-0.0487 Y-1.3889 Z0.6482
N10085 X-0.0484 Y-1.3874 Z0.6428
N10090 X-0.0478 Y-1.3853 Z0.6376
N10095 X-0.0472 Y-1.3827 Z0.6327
N10100 X-0.0463 Y-1.3795 Z0.6282
N10105 X-0.0454 Y-1.3759 Z0.624
N10110 X-0.0444 Y-1.3719 Z0.6202
N10115 X-0.0432 Y-1.3674 Z0.617
N10120 X-0.042 Y-1.3627 Z0.6143
N10125 X-0.0407 Y-1.3577 Z0.6121
N10130 X-0.0394 Y-1.3525 Z0.6106
N10135 X-0.038 Y-1.3471 Z0.6096
N10140 X-0.0366 Y-1.3417 Z0.6093
N10145 G3 X0.0025 Y-1.0695 I-1.2366 J0.3167
N10150 G1 Y-1.0662
N10155 X-0.0309 Y-1.0267
N10160 X-0.0583 Y-0.9827
N10165 X-0.0794 Y-0.9354
N10170 X-0.0949 Y-0.886
N10175 X-0.1056 Y-0.8354
N10180 X-0.1126 Y-0.784
N10185 G2 X-0.1213 Y-0.5772 I2.2266 J0.1979
N10190 G1 X-0.1219 Y-0.5254
N10195 Y-0.4736
N10200 X-0.112 Y-0.4228
N10205 X-0.092 Y-0.375
N10210 X-0.0632 Y-0.332
N10215 X-0.0273 Y-0.2946
N10220 X0.0141 Y-0.2636
N10225 X0.0596 Y-0.2389
N10230 X0.1079 Y-0.2202
N10235 X0.1579 Y-0.2068
N10240 X0.2089 Y-0.1978
N10245 G2 X0.4156 Y-0.1858 I0.2013 J-1.6784
N10250 X0.7781 Y-0.1844 I0.2741 J-24.4034
N10255 G1 X1.0888
N10260 X1.762
N10265 X1.8138 Y-0.1848
N10270 X1.8655 Y-0.1876
N10275 X1.9168 Y-0.1947
N10280 X1.9672 Y-0.2063
N10285 X2.016 Y-0.2236
N10290 X2.0628 Y-0.2458
N10295 X2.1066 Y-0.2735
N10300 X2.1471 Y-0.3057
N10305 X2.1833 Y-0.3428
N10310 X2.2151 Y-0.3837
N10315 X2.2414 Y-0.4282
N10320 X2.2625 Y-0.4755
N10325 X2.2775 Y-0.5251
N10330 X2.2865 Y-0.5761
N10335 X2.2891 Y-0.6278
N10340 X2.2855 Y-0.6795
N10345 X2.2756 Y-0.7303
N10350 X2.2596 Y-0.7796
N10355 X2.2378 Y-0.8265
N10360 X2.2104 Y-0.8704
N10365 X2.1779 Y-0.9108
N10370 X2.1406 Y-0.9467
N10375 X2.0993 Y-0.978
N10380 X2.0544 Y-1.0038
N10385 X2.0068 Y-1.0242
N10390 X1.9573 Y-1.0393
N10395 X1.9066 Y-1.0496
N10400 X1.8552 Y-1.0563
N10405 G2 X1.6483 Y-1.0647 I-0.1975 J2.3235
N10410 X1.3894 Y-1.0656 I-0.2112 J23.542
N10415 G1 X0.768
N10420 X0.2501
N10425 X0.1984 Y-1.0633
N10430 X0.1481 Y-1.0509
N10435 X0.101 Y-1.0294
N10440 X0.0585 Y-0.9999
N10445 X0.0213 Y-0.9639
N10450 X-0.01 Y-0.9226
N10455 X-0.0354 Y-0.8774
N10460 X-0.055 Y-0.8295
N10465 X-0.0696 Y-0.7798
N10470 X-0.0798 Y-0.7291
N10475 X-0.0867 Y-0.6777
N10480 X-0.0911 Y-0.6261
N10485 X-0.0937 Y-0.5744
N10490 X-0.0898 Y-0.5228
N10495 X-0.0773 Y-0.4726
N10500 X-0.0564 Y-0.4251
N10505 X-0.0282 Y-0.3817
N10510 X0.0064 Y-0.3432
N10515 X0.0464 Y-0.3102
N10520 X0.0903 Y-0.2829
N10525 X0.1373 Y-0.2611
N10530 X0.1863 Y-0.2445
N10535 X0.2367 Y-0.2323
N10540 X0.2878 Y-0.2238
N10545 G2 X0.4944 Y-0.2112 I0.2127 J-1.7909
N10550 X0.8051 Y-0.2094 I0.2551 J-17.1789
N10555 G1 X1.1158
N10560 X1.3747
N10565 X1.6854
N10570 X1.7372 Y-0.2095
N10575 X1.789 Y-0.2106
N10580 X1.8406 Y-0.2144
N10585 X1.8918 Y-0.2221
N10590 X1.9421 Y-0.2344
N10595 X1.9909 Y-0.2519
N10600 X2.0373 Y-0.2748
N10605 X2.0808 Y-0.3029
N10610 X2.1205 Y-0.3362
N10615 X2.1557 Y-0.3741
N10620 X2.1858 Y-0.4163
N10625 X2.2101 Y-0.462
N10630 X2.2282 Y-0.5105
N10635 X2.2398 Y-0.561
N10640 X2.2445 Y-0.6126
N10645 X2.2422 Y-0.6643
N10650 X2.233 Y-0.7153
N10655 X2.2169 Y-0.7645
N10660 X2.1944 Y-0.8111
N10665 X2.1657 Y-0.8543
N10670 X2.1315 Y-0.8931
N10675 X2.0924 Y-0.9271
N10680 X2.0494 Y-0.9559
N10685 X2.0032 Y-0.9794
N10690 X1.9549 Y-0.9979
N10695 X1.905 Y-1.0119
N10700 X1.8542 Y-1.022
N10705 G2 X1.6478 Y-1.038 I-0.2208 J1.505
N10710 G1 X1.5961 Y-1.0392
N10715 X1.5443 Y-1.0398
N10720 G2 X1.2854 Y-1.0406 I-0.228 J33.6612
N10725 G1 X0.8711
N10730 X0.3533
N10735 X0.3015 Y-1.0404
N10740 X0.25 Y-1.035
N10745 X0.1999 Y-1.0216
N10750 X0.1526 Y-1.0005
N10755 X0.1092 Y-0.9724
N10760 X0.0704 Y-0.938
N10765 X0.0369 Y-0.8986
N10770 X0.0087 Y-0.8551
N10775 X-0.014 Y-0.8086
N10780 X-0.0318 Y-0.7599
N10785 X-0.045 Y-0.7099
N10790 X-0.054 Y-0.6589
N10795 X-0.056 Y-0.6071
N10800 X-0.0502 Y-0.5557
N10805 X-0.0362 Y-0.5058
N10810 X-0.0145 Y-0.4588
N10815 X0.0142 Y-0.4157
N10820 X0.0489 Y-0.3772
N10825 X0.0886 Y-0.344
N10830 X0.1322 Y-0.3161
N10835 X0.1788 Y-0.2935
N10840 X0.2274 Y-0.2757
N10845 X0.2775 Y-0.2624
N10850 X0.3284 Y-0.2528
N10855 G2 X0.5348 Y-0.2372 I0.2249 J-1.5942
N10860 X0.8972 Y-0.2344 I0.2949 J-15.1258
N10865 G1 X1.1562
N10870 X1.6222
N10875 X1.674
N10880 X1.7258 Y-0.235
N10885 X1.7775 Y-0.2374
N10890 X1.829 Y-0.2427
N10895 X1.88 Y-0.252
N10900 X1.9297 Y-0.2663
N10905 X1.9777 Y-0.2859
N10910 X2.023 Y-0.311
N10915 X2.0647 Y-0.3417
N10920 X2.102 Y-0.3776
N10925 X2.134 Y-0.4183
N10930 X2.1599 Y-0.4632
N10935 X2.179 Y-0.5113
N10940 X2.1909 Y-0.5617
N10945 X2.1952 Y-0.6133
N10950 X2.1915 Y-0.665
N10955 X2.18 Y-0.7155
N10960 X2.1611 Y-0.7636
N10965 X2.1352 Y-0.8085
N10970 X2.1031 Y-0.8491
N10975 X2.0658 Y-0.885
N10980 X2.0241 Y-0.9159
N10985 X1.9792 Y-0.9415
N10990 X1.9316 Y-0.9621
N10995 X1.8824 Y-0.9781
N11000 X1.832 Y-0.9902
N11005 X1.781 Y-0.9989
N11010 G2 X1.5745 Y-1.013 I-0.2258 J1.781
N11015 X1.212 Y-1.0156 I-0.2964 J16.3734
N11020 G1 X0.9531
N11025 X0.8495
N11030 X0.4352
N11035 X0.3834
N11040 X0.3317 Y-1.0131
N11045 X0.2806 Y-1.0045
N11050 X0.2313 Y-0.9889
N11055 X0.1847 Y-0.9663
N11060 X0.1418 Y-0.9373
N11065 X0.1033 Y-0.9026
N11070 X0.0697 Y-0.8632
N11075 X0.0413 Y-0.8199
N11080 X0.0184 Y-0.7735
N11085 X0.002 Y-0.7244
N11090 X-0.0067 Y-0.6733
N11095 X-0.0069 Y-0.6215
N11100 X0.0013 Y-0.5704
N11105 X0.0176 Y-0.5212
N11110 X0.0415 Y-0.4753
N11115 X0.072 Y-0.4335
N11120 X0.1082 Y-0.3964
N11125 X0.149 Y-0.3645
N11130 X0.1934 Y-0.3379
N11135 X0.2406 Y-0.3164
N11140 X0.2895 Y-0.2996
N11145 X0.3397 Y-0.2869
N11150 X0.3907 Y-0.2777
N11155 G2 X0.5971 Y-0.2624 I0.2296 J-1.693
N11160 G1 X0.6489 Y-0.2611
N11165 X0.7007 Y-0.2604
N11170 X0.7525 Y-0.26
N11175 X0.8043 Y-0.2597
N11180 X0.856 Y-0.2596
N11185 X0.9596 Y-0.2594
N11190 X1.1668
N11195 X1.581
N11200 X1.6328 Y-0.2595
N11205 X1.6846 Y-0.2601
N11210 X1.7363 Y-0.2623
N11215 X1.7879 Y-0.2669
N11220 X1.839 Y-0.2756
N11225 X1.889 Y-0.2889
N11230 X1.9372 Y-0.3078
N11235 X1.9827 Y-0.3326
N11240 X2.0243 Y-0.3634
N11245 X2.0611 Y-0.3999
N11250 X2.0917 Y-0.4416
N11255 X2.1152 Y-0.4878
N11260 X2.1306 Y-0.5372
N11265 X2.1375 Y-0.5885
N11270 X2.1356 Y-0.6403
N11275 X2.1252 Y-0.691
N11280 X2.1067 Y-0.7394
N11285 X2.0809 Y-0.7843
N11290 X2.0487 Y-0.8249
N11295 X2.0113 Y-0.8606
N11300 X1.9694 Y-0.8911
N11305 X1.9242 Y-0.9164
N11310 X1.8766 Y-0.9368
N11315 X1.8274 Y-0.9527
N11320 X1.777 Y-0.9646
N11325 X1.7259 Y-0.9732
N11330 G2 X1.5194 Y-0.9877 I-0.2311 J1.8178
N11335 X1.1569 Y-0.9906 I-0.3007 J15.2143
N11340 G1 X0.9498
N11345 X0.4837
N11350 X0.4319 Y-0.9903
N11355 X0.3802 Y-0.9875
N11360 X0.3291 Y-0.9793
N11365 X0.2794 Y-0.9646
N11370 X0.2321 Y-0.9435
N11375 X0.1882 Y-0.9162
N11380 X0.1484 Y-0.883
N11385 X0.1138 Y-0.8444
N11390 X0.0859 Y-0.8008
N11395 X0.066 Y-0.753
N11400 X0.0547 Y-0.7025
N11405 X0.0524 Y-0.6507
N11410 X0.0591 Y-0.5994
N11415 X0.0744 Y-0.5499
N11420 X0.0976 Y-0.5036
N11425 X0.1276 Y-0.4614
N11430 X0.1634 Y-0.424
N11435 X0.2039 Y-0.3918
N11440 X0.2482 Y-0.3649
N11445 X0.2952 Y-0.3432
N11450 X0.3441 Y-0.3261
N11455 X0.3942 Y-0.3132
N11460 X0.4452 Y-0.3038
N11465 G2 X0.6515 Y-0.2877 I0.2333 J-1.6667
N11470 X1.0658 Y-0.2844 I0.335 J-16.0012
N11475 G1 X1.3765
N11480 X1.5318
N11485 G2 X1.7388 Y-0.2903 I0.038 J-2.3084
N11490 G1 X1.7901 Y-0.2977
N11495 X1.8405 Y-0.3097
N11500 X1.8891 Y-0.3274
N11505 X1.9349 Y-0.3516
N11510 X1.9762 Y-0.3828
N11515 X2.0115 Y-0.4208
N11520 X2.0391 Y-0.4646
N11525 X2.0581 Y-0.5127
N11530 X2.0678 Y-0.5636
N11535 X2.068 Y-0.6154
N11540 X2.0591 Y-0.6664
N11545 X2.0417 Y-0.7152
N11550 X2.0165 Y-0.7604
N11555 X1.9846 Y-0.8012
N11560 X1.9472 Y-0.837
N11565 X1.9054 Y-0.8676
N11570 X1.8601 Y-0.8928
N11575 X1.8124 Y-0.9129
N11580 X1.7631 Y-0.9285
N11585 X1.7126 Y-0.9402
N11590 G2 X1.5067 Y-0.9609 I-0.239 J1.3388
N11595 X1.1961 Y-0.9652 I-0.2651 J7.9578
N11600 G1 X1.0925 Y-0.9655
N11605 X0.8853 Y-0.9656
N11610 X0.5746
N11615 X0.5229
N11620 X0.4711 Y-0.9649
N11625 X0.4194 Y-0.9613
N11630 X0.3683 Y-0.9529
N11635 X0.3186 Y-0.9383
N11640 X0.2713 Y-0.9172
N11645 X0.228 Y-0.8889
N11650 X0.1906 Y-0.8531
N11655 X0.1608 Y-0.8107
N11660 X0.1397 Y-0.7634
N11665 X0.1282 Y-0.7129
N11670 X0.1264 Y-0.6612
N11675 X0.134 Y-0.61
N11680 X0.1505 Y-0.5609
N11685 X0.175 Y-0.5153
N11690 X0.2063 Y-0.474
N11695 X0.2434 Y-0.4379
N11700 X0.2851 Y-0.4072
N11705 X0.3303 Y-0.3818
N11710 X0.378 Y-0.3616
N11715 X0.4273 Y-0.346
N11720 X0.4778 Y-0.3344
N11725 G2 X0.6837 Y-0.3139 I0.2374 J-1.3389
N11730 X0.9944 Y-0.3098 I0.265 J-8.1985
N11735 G1 X1.098 Y-0.3095
N11740 X1.3051 Y-0.3094
N11745 X1.3569
N11750 G2 X1.6158 Y-0.3103 I0.0714 J-16.0117
N11755 G1 X1.6675 Y-0.3125
N11760 X1.7191 Y-0.3172
N11765 X1.7702 Y-0.3259
N11770 X1.8198 Y-0.3405
N11775 X1.8663 Y-0.3634
N11780 X1.9072 Y-0.3952
N11785 X1.9407 Y-0.4347
N11790 X1.9652 Y-0.4802
N11795 X1.9801 Y-0.5299
N11800 X1.9848 Y-0.5814
N11805 X1.9797 Y-0.633
N11810 X1.9653 Y-0.6827
N11815 X1.9425 Y-0.7292
N11820 X1.9124 Y-0.7714
N11825 X1.8763 Y-0.8084
N11830 X1.8353 Y-0.84
N11835 X1.7906 Y-0.8662
N11840 X1.7431 Y-0.887
N11845 X1.6939 Y-0.903
N11850 X1.6435 Y-0.915
N11855 X1.5924 Y-0.9236
N11860 G2 X1.3859 Y-0.9377 I-0.2296 J1.8411
N11865 X0.9199 Y-0.9404 I-0.3458 J19.3256
N11870 G1 X0.6092 Y-0.9406
N11875 X0.5574 Y-0.9404
N11880 X0.5056 Y-0.9393
N11885 X0.454 Y-0.9351
N11890 X0.403 Y-0.9258
N11895 X0.3543 Y-0.9082
N11900 X0.3104 Y-0.8807
N11905 X0.2736 Y-0.8443
N11910 X0.2455 Y-0.8008
N11915 X0.2274 Y-0.7523
N11920 X0.2196 Y-0.7011
N11925 X0.222 Y-0.6494
N11930 X0.2341 Y-0.599
N11935 X0.255 Y-0.5517
N11940 X0.2836 Y-0.5085
N11945 X0.3187 Y-0.4704
N11950 X0.359 Y-0.4378
N11955 X0.4032 Y-0.4109
N11960 X0.4503 Y-0.3893
N11965 X0.4993 Y-0.3727
N11970 X0.5496 Y-0.3604
N11975 X0.6006 Y-0.3516
N11980 G2 X0.8072 Y-0.3373 I0.2272 J-1.7813
N11985 X1.2214 Y-0.3346 I0.3174 J-16.9737
N11990 G1 X1.4286 Y-0.3344
N11995 G2 X1.6356 Y-0.3376 I0.0394 J-4.0863
N12000 G1 X1.6872 Y-0.3428
N12005 G2 X1.87 Y-0.591 I-0.0496 J-0.228
N12010 G1 X1.8627 Y-0.6423
N12015 X1.8445 Y-0.6908
N12020 X1.818 Y-0.7353
N12025 X1.7845 Y-0.7748
N12030 X1.7454 Y-0.8087
N12035 X1.7019 Y-0.8368
N12040 X1.6553 Y-0.8593
N12045 X1.6065 Y-0.8766
N12050 X1.5563 Y-0.8894
N12055 X1.5053 Y-0.8984
N12060 G2 X1.2988 Y-0.9129 I-0.2238 J1.7165
N12065 X0.8327 Y-0.9155 I-0.3611 J22.3719
N12070 G1 X0.6774 Y-0.9156
N12075 X0.6256
N12080 X0.5738 Y-0.9151
N12085 G2 X0.4732 Y-0.8938 I-0.0018 J0.2405
N12090 X0.3677 Y-0.5651 I0.0968 J0.2124
N12095 G1 X0.396 Y-0.5217
N12100 X0.432 Y-0.4845
N12105 X0.4731 Y-0.453
N12110 X0.518 Y-0.4273
N12115 X0.5657 Y-0.4071
N12120 X0.6152 Y-0.3919
N12125 X0.6658 Y-0.3809
N12130 X0.717 Y-0.3732
N12135 G2 X0.9237 Y-0.3615 I0.22 J-2.0576
N12140 X1.5451 Y-0.3604 I0.3611 J-27.8936
N12145 X1.66 Y-0.4168 I-0.0428 J-0.2323
N12150 X1.6798 Y-0.7435 I-0.1562 J-0.1734
N12155 G1 X1.6436 Y-0.7806
N12160 X1.6003 Y-0.8089
N12165 X1.5537 Y-0.8315
N12170 X1.5049 Y-0.8489
N12175 X1.4548 Y-0.8618
N12180 X1.4038 Y-0.871
N12185 G2 X1.1973 Y-0.8856 I-0.2238 J1.6972
N12190 X0.7054 Y-0.8882 I-0.3562 J21.3013
N12195 X0.5254 Y-0.5245 I0.0129 J0.2327
N12200 X0.6003 Y-0.4542 I0.1924 J-0.1298
N12205 G1 X0.6464 Y-0.4305
N12210 X0.6963 Y-0.4169
N12215 X0.7472 Y-0.407
N12220 G2 X0.9535 Y-0.3901 I0.2318 J-1.5664
N12225 X1.3192 Y-0.3869 I0.2921 J-12.4154
N12230 G1 X1.3234 Y-0.3862 Z0.6096
N12235 X1.3275 Y-0.3855 Z0.6105
N12240 X1.3315 Y-0.3848 Z0.612
N12245 X1.3348 Y-0.3833 Z0.6139
N12250 X1.3378 Y-0.382 Z0.6162
N12255 X1.3406 Y-0.3808 Z0.619
N12260 X1.343 Y-0.3798 Z0.6221
N12265 X1.3447 Y-0.3786 Z0.6254
N12270 X1.346 Y-0.3777 Z0.6289
N12275 X1.347 Y-0.377 Z0.6326
N12280 X1.3476 Y-0.3766 Z0.6364
N12285 X1.3478 Y-0.3765 Z0.6402
N12290 G0 Z1.45
N12295 G1 X-0.0491 Y-1.8209 F500.
N12300 G0 Z0.335
N12305 G1 Z0.285 F69.
N12310 X-0.049 Y-1.8206 Z0.2794
N12315 X-0.0487 Y-1.8197 Z0.2739
N12320 X-0.0484 Y-1.8182 Z0.2685
N12325 X-0.0478 Y-1.8161 Z0.2633
N12330 X-0.0472 Y-1.8135 Z0.2584
N12335 X-0.0463 Y-1.8104 Z0.2538
N12340 X-0.0454 Y-1.8067 Z0.2496
N12345 X-0.0444 Y-1.8027 Z0.2459
N12350 X-0.0432 Y-1.7983 Z0.2427
N12355 X-0.042 Y-1.7935 Z0.24
N12360 X-0.0407 Y-1.7885 Z0.2378
N12365 X-0.0394 Y-1.7833 Z0.2363
N12370 X-0.038 Y-1.7779 Z0.2353
N12375 X-0.0366 Y-1.7725 Z0.235
N12380 G3 X0.0025 Y-1.5003 I-1.2366 J0.3167
N12385 G1 Y-1.4971
N12390 X-0.0441 Y-1.4745
N12395 X-0.0857 Y-1.4436
N12400 X-0.1213 Y-1.4061
N12405 X-0.1506 Y-1.3634
N12410 X-0.1737 Y-1.317
N12415 X-0.1908 Y-1.2681
N12420 X-0.2029 Y-1.2178
N12425 X-0.2109 Y-1.1666
N12430 G2 X-0.2213 Y-0.9598 I1.9106 J0.1996
N12435 X-0.2225 Y-0.7009 I18.7436 J0.212
N12440 G1 Y-0.3384
N12445 Y-0.0795
N12450 X-0.2154 Y-0.0282
N12455 X-0.1977 Y0.0205
N12460 X-0.171 Y0.0648
N12465 X-0.1367 Y0.1036
N12470 X-0.0965 Y0.1362
N12475 X-0.0518 Y0.1625
N12480 X-0.0041 Y0.1826
N12485 X0.0456 Y0.1972
N12490 X0.0964 Y0.2072
N12495 X0.1478 Y0.2137
N12500 G2 X0.3547 Y0.2216 I0.1971 J-2.4283
N12505 X0.6136 Y0.2225 I0.2111 J-24.7595
N12510 G1 X1.3386
N12515 X2.1154
N12520 X2.9439
N12525 X2.9957 Y0.2213
N12530 X3.0459 Y0.2088
N12535 X3.0927 Y0.1866
N12540 X3.1344 Y0.1559
N12545 X3.1703 Y0.1186
N12550 X3.1998 Y0.076
N12555 X3.223 Y0.0297
N12560 X3.2404 Y-0.0191
N12565 X3.2526 Y-0.0694
N12570 X3.2607 Y-0.1205
N12575 G2 X3.2713 Y-0.3273 I-1.8814 J-0.1998
N12580 X3.2725 Y-0.5862 I-18.4054 J-0.2121
N12585 G1 Y-0.7933
N12590 Y-1.1558
N12595 X3.2686 Y-1.2075
N12600 X3.2538 Y-1.2571
N12605 X3.2294 Y-1.3028
N12610 X3.1971 Y-1.3433
N12615 X3.1584 Y-1.3777
N12620 X3.1149 Y-1.4057
N12625 X3.0679 Y-1.4275
N12630 X3.0187 Y-1.4436
N12635 X2.9681 Y-1.4548
N12640 X2.9169 Y-1.4621
N12645 G2 X2.71 Y-1.4715 I-0.1985 J2.1057
N12650 X2.4511 Y-1.4725 I-0.2116 J21.0125
N12655 G1 X1.985
N12660 X1.7779
N12665 X0.1726
N12670 X0.1208 Y-1.4709
N12675 X0.0702 Y-1.46
N12680 X0.0222 Y-1.4405
N12685 X-0.0218 Y-1.4133
N12690 X-0.061 Y-1.3794
N12695 X-0.0945 Y-1.34
N12700 X-0.1224 Y-1.2963
N12705 X-0.1447 Y-1.2496
N12710 X-0.1617 Y-1.2007
N12715 X-0.1741 Y-1.1504
N12720 X-0.1828 Y-1.0993
N12725 G2 X-0.1956 Y-0.8927 I1.7607 J0.2128
N12730 X-0.1974 Y-0.582 I16.9287 J0.2549
N12735 G1 X-0.1975 Y-0.2713
N12740 Y-0.1677
N12745 X-0.1931 Y-0.1162
N12750 X-0.1802 Y-0.066
N12755 X-0.1592 Y-0.0187
N12760 X-0.1308 Y0.0247
N12765 X-0.0962 Y0.0631
N12770 X-0.0563 Y0.0962
N12775 X-0.0123 Y0.1235
N12780 X0.0347 Y0.1453
N12785 X0.0837 Y0.1621
N12790 X0.134 Y0.1743
N12795 X0.1851 Y0.1829
N12800 G2 X0.3917 Y0.1956 I0.2135 J-1.7804
N12805 G1 X0.4435 Y0.1965
N12810 X0.4952 Y0.1969
N12815 X0.547 Y0.1972
N12820 X0.5988 Y0.1973
N12825 X0.7024 Y0.1974
N12830 X1.0131 Y0.1975
N12835 X2.5666
N12840 X2.8773
N12845 X2.929 Y0.194
N12850 X2.9794 Y0.182
N12855 X3.0271 Y0.1618
N12860 X3.0709 Y0.1342
N12865 X3.1098 Y0.1
N12870 X3.1433 Y0.0606
N12875 X3.1713 Y0.017
N12880 X3.1936 Y-0.0297
N12885 X3.2107 Y-0.0786
N12890 X3.2234 Y-0.1288
N12895 X3.2323 Y-0.1798
N12900 G2 X3.2455 Y-0.3864 I-1.724 J-0.2144
N12905 X3.2474 Y-0.6971 I-16.1169 J-0.2555
N12910 G1 X3.2475 Y-0.956
N12915 Y-1.0596
N12920 X3.2464 Y-1.1114
N12925 X3.2372 Y-1.1624
N12930 X3.2197 Y-1.2111
N12935 X3.1944 Y-1.2563
N12940 X3.1624 Y-1.297
N12945 X3.1246 Y-1.3324
N12950 X3.0823 Y-1.3622
N12955 X3.0365 Y-1.3864
N12960 X2.9883 Y-1.4053
N12965 X2.9385 Y-1.4194
N12970 X2.8877 Y-1.4295
N12975 G2 X2.6813 Y-1.4451 I-0.2166 J1.4943
N12980 X2.3188 Y-1.4475 I-0.2895 J16.6312
N12985 G1 X1.8527
N12990 X1.1795
N12995 X0.2474
N13000 X0.1957 Y-1.4463
N13005 X0.1445 Y-1.4384
N13010 X0.095 Y-1.4231
N13015 X0.0485 Y-1.4003
N13020 X0.0059 Y-1.3709
N13025 X-0.0321 Y-1.3357
N13030 X-0.0649 Y-1.2956
N13035 X-0.0813 Y-1.2694
N13040 X-0.083 Y-1.2668
N13045 X-0.0848 Y-1.2645
N13050 X-0.0869 Y-1.2622
N13055 X-0.0923 Y-1.2548
N13060 X-0.1132 Y-1.2249
N13065 G2 X-0.1443 Y-1.1335 I0.229 J0.1291
N13070 X-0.1674 Y-0.9278 I1.3996 J0.2613
N13075 X-0.1721 Y-0.6172 I7.115 J0.263
N13080 G1 X-0.1724 Y-0.5136
N13085 X-0.1725 Y-0.3065
N13090 Y-0.2547
N13095 X-0.1709 Y-0.2029
N13100 X-0.1633 Y-0.1517
N13105 X-0.1483 Y-0.1022
N13110 G3 X-0.13 Y-0.0618 I-0.3223 J0.17
N13115 G1 X-0.1278 Y-0.0551
N13120 X-0.1208 Y-0.0401
N13125 X-0.1132 Y-0.0251
N13130 X-0.0923 Y0.0048
N13135 X-0.0869 Y0.0122
N13140 X-0.0794 Y0.0198
N13145 X-0.057 Y0.0421
N13150 X-0.0533 Y0.0451
N13155 X-0.0465 Y0.0498
N13160 X-0.0197 Y0.0681
N13165 X-0.0047 Y0.0761
N13170 X0.041 Y0.1004
N13175 X0.0887 Y0.1207
N13180 X0.138 Y0.1365
N13185 X0.1884 Y0.1482
N13190 X0.2395 Y0.1566
N13195 G2 X0.4461 Y0.1701 I0.2239 J-1.8417
N13200 X0.8086 Y0.1725 I0.295 J-17.6126
N13205 G1 X1.1711
N13210 X1.9996
N13215 X2.7764
N13220 X2.8282 Y0.172
N13225 X2.8797 Y0.1669
N13230 X2.93 Y0.1547
N13235 X2.978 Y0.1351
N13240 X3.0225 Y0.1087
N13245 X3.0627 Y0.0761
N13250 X3.0684 Y0.0704
N13255 X3.0746 Y0.0651
N13260 X3.0811 Y0.0603
N13265 X3.0997 Y0.0477
N13270 X3.1033 Y0.0451
N13275 X3.107 Y0.0421
N13280 X3.1297 Y0.0196
N13285 X3.1369 Y0.0122
N13290 X3.1423 Y0.0048
N13295 X3.1632 Y-0.0251
N13300 G2 X3.1943 Y-0.1165 I-0.229 J-0.1291
N13305 X3.2167 Y-0.3222 I-1.4486 J-0.2617
N13310 X3.2221 Y-0.6847 I-7.5748 J-0.2937
N13315 G1 X3.2224 Y-0.7882
N13320 X3.2225 Y-0.9954
N13325 X3.2211 Y-1.0471
N13330 X3.2134 Y-1.0983
N13335 X3.1985 Y-1.1479
N13340 G3 X3.1794 Y-1.1901 I0.3382 J-0.1785
N13345 G1 X3.1778 Y-1.1949
N13350 X3.1708 Y-1.2099
N13355 X3.1632 Y-1.2249
N13360 X3.1423 Y-1.2548
N13365 X3.1369 Y-1.2622
N13370 X3.1294 Y-1.2698
N13375 X3.107 Y-1.2921
N13380 X3.1033 Y-1.2951
N13385 X3.0965 Y-1.2998
N13390 X3.0697 Y-1.3181
N13395 X3.0547 Y-1.3261
N13400 X3.009 Y-1.3504
N13405 X2.9613 Y-1.3707
N13410 X2.912 Y-1.3865
N13415 X2.8616 Y-1.3982
N13420 X2.8105 Y-1.4066
N13425 G2 X2.6039 Y-1.4201 I-0.2229 J1.8277
N13430 X2.2414 Y-1.4225 I-0.2951 J17.6556
N13435 G1 X1.8789
N13440 X1.0504
N13445 X0.3254
N13450 X0.2736 Y-1.4221
N13455 X0.222 Y-1.4177
N13460 X0.1714 Y-1.4069
N13465 X0.1227 Y-1.3892
N13470 X0.077 Y-1.3649
N13475 G3 X0.0315 Y-1.34 I-0.0947 J-0.1191
N13480 G1 X0.031
N13485 G2 X-0.0351 Y-1.3201 Z0.2421 I0.0234 J0.1974
N13490 G1 X-0.0389 Y-1.318 Z0.2426
N13495 X-0.0424 Y-1.3156 Z0.243
N13500 G2 X-0.0507 Y-1.3078 I0.0298 J0.0401
N13505 G1 X-0.1256 Y-1.2197
N13510 G2 X-0.1319 Y-1.2104 I0.0381 J0.0324
N13515 G1 X-0.1337 Y-1.2064 Z0.2426
N13520 X-0.1352 Y-1.2023 Z0.2421
N13525 G2 X-0.1442 Y-1.1339 Z0.235 I0.1896 J0.0598
N13530 G1 Y-1.1335
N13535 X-0.1458 Y-1.1199
N13540 X-0.1467 Y-1.1049
N13545 X-0.1473 Y-1.0899
N13550 Y-0.1601
N13555 X-0.1467 Y-0.1451
N13560 X-0.1464 Y-0.1406
N13565 X-0.1465 Y-0.1401
N13570 G2 X-0.1439 Y-0.0718 Z0.242 I0.1948 J0.0268
N13575 G1 X-0.1427 Y-0.0673 Z0.2425
N13580 X-0.141 Y-0.0629 Z0.243
N13585 X-0.1391 Y-0.0589
N13590 X-0.1368 Y-0.055
N13595 X-0.0792 Y0.0331
N13600 X-0.0766 Y0.0367
N13605 X-0.0737 Y0.04
N13610 X-0.0703 Y0.0433 Z0.2425
N13615 X-0.0665 Y0.0463 Z0.242
N13620 G2 X-0.005 Y0.076 Z0.235 I0.1149 J-0.1596
N13625 G1 X-0.0047 Y0.0761
N13630 G2 X0.0703 Y0.0992 I0.112 J-0.2302
N13635 G1 X0.1213 Y0.1082
N13640 G2 X0.3778 Y0.1409 I0.3246 J-1.5245
N13645 X0.7402 Y0.147 I0.2999 J-7.0897
N13650 G1 X0.8438 Y0.1474
N13655 X1.0509 Y0.1475
N13660 X2.0866
N13665 X2.708
N13670 X2.7598 Y0.1473
N13675 X2.8115 Y0.1439
N13680 X2.8625 Y0.1348
N13685 X2.9118 Y0.1191
N13690 X2.9295 Y0.1112
N13695 X2.9413 Y0.1065
N13700 X2.9536 Y0.1031
N13705 X2.9662 Y0.1009
N13710 X2.9736 Y0.0999
N13715 X2.9748 Y0.1 Z0.2351
N13720 X2.9759 Y0.1006 Z0.2352
N13725 G2 X3.0438 Y0.1332 Z0.243 I0.0986 J-0.1186
N13730 X3.2262 Y-0.0457 I0.0307 J-0.1511
N13735 X3.1949 Y-0.1143 Z0.2352 I-0.1517 J0.0278
N13740 G1 X3.1944 Y-0.1153 Z0.2351
N13745 X3.1942 Y-0.1165 Z0.235
N13750 X3.1958 Y-0.1301
N13755 X3.1967 Y-0.1451
N13760 X3.1973 Y-0.1601
N13765 Y-1.0899
N13770 X3.1967 Y-1.1049
N13775 X3.1964 Y-1.1094
N13780 X3.1965 Y-1.1099
N13785 G2 X3.1939 Y-1.1782 Z0.242 I-0.1948 J-0.0268
N13790 G1 X3.1927 Y-1.1827 Z0.2425
N13795 X3.191 Y-1.1871 Z0.243
N13800 X3.1891 Y-1.1911
N13805 X3.1868 Y-1.195
N13810 X3.1292 Y-1.2831
N13815 X3.1266 Y-1.2867
N13820 X3.1237 Y-1.29
N13825 X3.1203 Y-1.2933 Z0.2425
N13830 X3.1165 Y-1.2963 Z0.242
N13835 G2 X3.055 Y-1.326 Z0.235 I-0.1149 J0.1596
N13840 G1 X3.0547 Y-1.3261
N13845 G2 X2.9797 Y-1.3492 I-0.112 J0.2302
N13850 G1 X2.9287 Y-1.3582
N13855 G2 X2.6722 Y-1.391 I-0.3244 J1.5222
N13860 X2.3098 Y-1.397 I-0.3 J7.1102
N13865 G1 X2.2062 Y-1.3974
N13870 X1.9991 Y-1.3975
N13875 X0.9634
N13880 X0.3938
N13885 X0.342 Y-1.3974
N13890 X0.2903 Y-1.3946
N13895 X0.2391 Y-1.3869
N13900 X0.1891 Y-1.3734
N13905 X0.1518 Y-1.3599
N13910 X0.1393 Y-1.3561
N13915 X0.1265 Y-1.3536
N13920 X0.1135 Y-1.3524
N13925 X0.0958 Y-1.3516
N13930 G3 X0.0666 Y-1.3604 I-0.0007 J-0.05
N13935 G1 X0.062 Y-1.3636 Z0.2353
N13940 X0.0575 Y-1.3668 Z0.2363
N13945 X0.0531 Y-1.3698 Z0.2378
N13950 X0.0488 Y-1.3728 Z0.24
N13955 X0.0448 Y-1.3756 Z0.2427
N13960 X0.041 Y-1.3782 Z0.2459
N13965 X0.0376 Y-1.3805 Z0.2496
N13970 X0.0345 Y-1.3827 Z0.2538
N13975 X0.0318 Y-1.3845 Z0.2584
N13980 X0.0296 Y-1.3861 Z0.2633
N13985 X0.0278 Y-1.3873 Z0.2685
N13990 X0.0266 Y-1.3882 Z0.2739
N13995 X0.0258 Y-1.3887 Z0.2794
N14000 X0.0255 Y-1.3889 Z0.285
N14005 G0 Z1.45
N14010 G1 X-0.0061 Y0.124 F500.
N14015 G0 Z0.335
N14020 G1 Z0.285 F69.
N14025 X-0.0058 Y0.1238 Z0.2794
N14030 X-0.0049 Y0.1235 Z0.2739
N14035 X-0.0035 Y0.1228 Z0.2685
N14040 X-0.0016 Y0.122 Z0.2633
N14045 X0.0009 Y0.1209 Z0.2584
N14050 X0.0039 Y0.1196 Z0.2538
N14055 X0.0073 Y0.1181 Z0.2496
N14060 X0.0112 Y0.1165 Z0.2459
N14065 X0.0154 Y0.1146 Z0.2427
N14070 X0.0199 Y0.1127 Z0.24
N14075 X0.0246 Y0.1106 Z0.2378
N14080 X0.0296 Y0.1085 Z0.2363
N14085 X0.0346 Y0.1063 Z0.2353
N14090 X0.0398 Y0.104 Z0.235
N14095 G3 X0.0703 Y0.0991 I0.0248 J0.0571
N14100 G2 X0.1453 Y0.1024 I0.058 J-0.469
N14105 G1 X0.2487 Y0.1076
N14110 G2 X0.7144 Y0.1217 I0.4189 J-6.1584
N14115 G1 X0.7662 Y0.1222
N14120 X0.818 Y0.1223
N14125 X0.9216 Y0.1224
N14130 X1.1805 Y0.1225
N14135 X2.1644
N14140 X2.6305
N14145 X2.6823 Y0.1224
N14150 X2.734 Y0.1211
N14155 X2.7855 Y0.1158
N14160 X2.8364 Y0.1059
N14165 X2.8458 Y0.104
N14170 X2.8553 Y0.1028
N14175 X2.8649 Y0.1024
N14180 X2.9347
N14185 X2.956 Y0.1015
N14190 X2.9647 Y0.101
N14195 X2.9662 Y0.1009
N14200 G3 X2.9959 Y0.1074 I0.0046 J0.0498
N14205 G1 X3.0007 Y0.1102 Z0.2353
N14210 X3.0055 Y0.113 Z0.2363
N14215 X3.0102 Y0.1157 Z0.2378
N14220 X3.0146 Y0.1183 Z0.24
N14225 X3.0189 Y0.1208 Z0.2427
N14230 X3.0228 Y0.1231 Z0.2459
N14235 X3.0264 Y0.1252 Z0.2496
N14240 X3.0297 Y0.1271 Z0.2538
N14245 X3.0325 Y0.1287 Z0.2584
N14250 X3.0348 Y0.1301 Z0.2633
N14255 X3.0367 Y0.1312 Z0.2685
N14260 X3.038 Y0.1319 Z0.2739
N14265 X3.0388 Y0.1324 Z0.2794
N14270 X3.0391 Y0.1326 Z0.285
N14275 G0 Z1.45
N14280 G1 X3.0561 Y-1.374 F500.
N14285 G0 Z0.335
N14290 G1 Z0.285 F69.
N14295 X3.0558 Y-1.3738 Z0.2794
N14300 X3.0549 Y-1.3735 Z0.2739
N14305 X3.0535 Y-1.3728 Z0.2685
N14310 X3.0516 Y-1.372 Z0.2633
N14315 X3.0491 Y-1.3709 Z0.2584
N14320 X3.0461 Y-1.3696 Z0.2538
N14325 X3.0427 Y-1.3681 Z0.2496
N14330 X3.0388 Y-1.3665 Z0.2459
N14335 X3.0346 Y-1.3646 Z0.2427
N14340 X3.0301 Y-1.3627 Z0.24
N14345 X3.0254 Y-1.3606 Z0.2378
N14350 X3.0204 Y-1.3585 Z0.2363
N14355 X3.0154 Y-1.3563 Z0.2353
N14360 X3.0102 Y-1.354 Z0.235
N14365 G3 X2.9797 Y-1.3491 I-0.0248 J-0.0571
N14370 G2 X2.9047 Y-1.3524 I-0.058 J0.469
N14375 G1 X2.8013 Y-1.3576
N14380 G2 X2.3356 Y-1.3717 I-0.4187 J6.1566
N14385 G1 X2.2838 Y-1.3722
N14390 X2.232 Y-1.3723
N14395 X2.1284 Y-1.3724
N14400 X1.8695 Y-1.3725
N14405 X0.8856
N14410 X0.4713
N14415 X0.4195
N14420 X0.3678 Y-1.3715
N14425 X0.3161 Y-1.3673
N14430 X0.265 Y-1.359
N14435 G3 X0.2215 Y-1.3524 I-0.0486 J-0.174
N14440 G1 X0.1153
N14445 X0.1135
N14450 G3 X0.0844 Y-1.3613 I-0.0005 J-0.05
N14455 G1 X0.0798 Y-1.3645 Z0.2353
N14460 X0.0753 Y-1.3677 Z0.2363
N14465 X0.0709 Y-1.3708 Z0.2378
N14470 X0.0666 Y-1.3737 Z0.24
N14475 X0.0626 Y-1.3765 Z0.2427
N14480 X0.0588 Y-1.3792 Z0.2459
N14485 X0.0554 Y-1.3816 Z0.2496
N14490 X0.0523 Y-1.3837 Z0.2538
N14495 X0.0497 Y-1.3855 Z0.2584
N14500 X0.0474 Y-1.3871 Z0.2633
N14505 X0.0457 Y-1.3883 Z0.2685
N14510 X0.0444 Y-1.3892 Z0.2739
N14515 X0.0436 Y-1.3897 Z0.2794
N14520 X0.0434 Y-1.3899 Z0.285
N14525 G0 Z1.45
N14530 G1 X0.0726 Y0.1367 F500.
N14535 G0 Z0.335
N14540 G1 Z0.285 F69.
N14545 X0.0729 Y0.1365 Z0.2794
N14550 X0.0737 Y0.1361 Z0.2739
N14555 X0.075 Y0.1353 Z0.2685
N14560 X0.0769 Y0.1342 Z0.2633
N14565 X0.0792 Y0.1328 Z0.2584
N14570 X0.082 Y0.1311 Z0.2538
N14575 X0.0852 Y0.1292 Z0.2496
N14580 X0.0888 Y0.1271 Z0.2459
N14585 X0.0927 Y0.1247 Z0.2427
N14590 X0.097 Y0.1222 Z0.24
N14595 X0.1014 Y0.1196 Z0.2378
N14600 X0.106 Y0.1168 Z0.2363
N14605 X0.1108 Y0.114 Z0.2353
N14610 X0.1156 Y0.1112 Z0.235
N14615 G3 X0.1453 Y0.1024 I0.0318 J0.0536
N14620 G1 X2.8649
N14625 G3 X2.8936 Y0.1127 I-0.0017 J0.05
N14630 G1 X2.898 Y0.1161 Z0.2353
N14635 X2.9024 Y0.1195 Z0.2363
N14640 X2.9067 Y0.1227 Z0.2378
N14645 X2.9108 Y0.1259 Z0.24
N14650 X2.9147 Y0.1289 Z0.2427
N14655 X2.9183 Y0.1317 Z0.2459
N14660 X2.9216 Y0.1342 Z0.2496
N14665 X2.9246 Y0.1365 Z0.2538
N14670 X2.9272 Y0.1384 Z0.2584
N14675 X2.9293 Y0.1401 Z0.2633
N14680 X2.931 Y0.1414 Z0.2685
N14685 X2.9323 Y0.1423 Z0.2739
N14690 X2.933 Y0.1429 Z0.2794
N14695 X2.9333 Y0.1431 Z0.285
N14700 G0 Z1.45
N14705 G1 X2.9774 Y-1.3867 F500.
N14710 G0 Z0.335
N14715 G1 Z0.285 F69.
N14720 X2.9771 Y-1.3865 Z0.2794
N14725 X2.9763 Y-1.3861 Z0.2739
N14730 X2.975 Y-1.3853 Z0.2685
N14735 X2.9731 Y-1.3842 Z0.2633
N14740 X2.9708 Y-1.3828 Z0.2584
N14745 X2.968 Y-1.3811 Z0.2538
N14750 X2.9648 Y-1.3792 Z0.2496
N14755 X2.9612 Y-1.3771 Z0.2459
N14760 X2.9573 Y-1.3747 Z0.2427
N14765 X2.953 Y-1.3722 Z0.24
N14770 X2.9486 Y-1.3696 Z0.2378
N14775 X2.944 Y-1.3668 Z0.2363
N14780 X2.9392 Y-1.364 Z0.2353
N14785 X2.9344 Y-1.3612 Z0.235
N14790 G3 X2.9047 Y-1.3524 I-0.0318 J-0.0536
N14795 G1 X0.2215
N14800 G3 X0.1928 Y-1.3627 I0.0017 J-0.05
N14805 G1 X0.1884 Y-1.3661 Z0.2353
N14810 X0.184 Y-1.3695 Z0.2363
N14815 X0.1797 Y-1.3727 Z0.2378
N14820 X0.1756 Y-1.3759 Z0.24
N14825 X0.1717 Y-1.3789 Z0.2427
N14830 X0.1681 Y-1.3817 Z0.2459
N14835 X0.1648 Y-1.3842 Z0.2496
N14840 X0.1618 Y-1.3865 Z0.2538
N14845 X0.1592 Y-1.3884 Z0.2584
N14850 X0.1571 Y-1.3901 Z0.2633
N14855 X0.1554 Y-1.3914 Z0.2685
N14860 X0.1541 Y-1.3923 Z0.2739
N14865 X0.1534 Y-1.3929 Z0.2794
N14870 X0.1531 Y-1.3931 Z0.285
N14875 G0 Z1.85

(face top)
N14880 S8000 M3
N14885 G1 X-0.0673 Y-0.4356 F500.
N14890 G0 Z1.85
N14895 Z1.45
N14900 G1 Z1.2894 F11.5
N14905 Z0.6543
N14910 G19 G2 Y-0.4856 Z0.6043 J-0.05 K0. F30.
N14915 G1 Y-0.5356
N14920 G17 G3 X-0.0173 Y-0.5856 I0.05 J0.
N14925 G1 X2.2406
N14930 G3 X2.2906 Y-0.5356 I0. J0.05
N14935 G1 Y-0.4856
N14940 G19 G3 Y-0.4356 Z0.6543 J0. K0.05
N14945 G0 Z1.85

(2D Contour1 2)
N14950 G17
N14955 G1 X1.8156 Y0.7356 F500.
N14960 G0 Z1.85
N14965 Z1.45
N14970 G1 Z0.4575 F11.5
N14975 G19 G2 Y0.6856 Z0.4075 J-0.05 K0. F30.
N14980 G1 Y0.6356
N14985 G17 G3 X1.8656 Y0.5856 I0.05 J0.
N14990 G2 Y-1.8356 I0. J-1.2106
N14995 G3 X1.8156 Y-1.8856 I0. J-0.05
N15000 G1 Y-1.9356
N15005 G19 G2 Y-1.9856 Z0.4575 J0. K0.05
N15010 G0 Z1.45
N15015 Y0.3606
N15020 G1 Z0.4575 F11.5
N15025 G2 Y0.3106 Z0.4075 J-0.05 K0. F30.
N15030 G1 Y0.2606
N15035 G17 G3 X1.8656 Y0.2106 I0.05 J0.
N15040 G2 Y-1.4606 I0. J-0.8356
N15045 G3 X1.8156 Y-1.5106 I0. J-0.05
N15050 G1 Y-1.5606
N15055 G19 G2 Y-1.6106 Z0.4575 J0. K0.05
N15060 G0 Z1.85

(2D Contour1 3)
N15065 G17
N15070 G1 X-0.0673 Y-0.0144 F500.
N15075 G0 Z1.85
N15080 Z1.45
N15085 G1 Z0.4575 F10.
N15090 G19 G2 Y-0.0644 Z0.4075 J-0.05 K0. F30.
N15095 G1 Y-0.1144
N15100 G17 G3 X-0.0173 Y-0.1644 I0.05 J0.
N15105 G1 X1.8656
N15110 G2 Y-1.0856 I0. J-0.4606
N15115 G1 X-0.0173
N15120 G3 X-0.0673 Y-1.1356 I0. J-0.05
N15125 G1 Y-1.1856
N15130 G19 G2 Y-1.2356 Z0.4575 J0. K0.05
N15135 G0 Z1.85

(2D Contour1 4)
N15140 G17
N15145 G1 X0.0577 Y0.2474 F500.
N15150 G0 Z1.85
N15155 Z1.45
N15160 G1 Z0.3 F10.
N15165 G19 G2 Y0.1974 Z0.25 J-0.05 K0. F30.
N15170 G1 Y0.1474
N15175 G17 G3 X0.1077 Y0.0974 I0.05 J0.
N15180 G1 X2.9423
N15185 G2 X3.1923 Y-0.1526 I0. J-0.25
N15190 G1 Y-1.0974
N15195 G2 X2.9423 Y-1.3474 I-0.25 J0.
N15200 G1 X0.1077
N15205 G2 X-0.1423 Y-1.0974 I0. J0.25
N15210 G1 Y-0.1526
N15215 G2 X0.1077 Y0.0974 I0.25 J0.
N15220 G3 X0.1577 Y0.1474 I0. J0.05
N15225 G1 Y0.1974
N15230 G19 G3 Y0.2474 Z0.3 J0. K0.05
N15235 G0 Z1.85

N15240 M5
N15245 M9
N15250 G53 G0 Z0.
N15255 X1.525
N15260 G53 G0 Y0.
N15265 M30

%
