%
O01002
(Using high feed G1 F500. instead of G0.)
(T1 D=0.5 CR=0. - ZMIN=0.1575 - flat end mill)
N10 G90 G17
N15 G20
N20 G53 G0 Z0.

(Adaptive1 2)
N25 T1 M6
N30 S5000 M3
N35 G54
N40 G17 G90
N45 M8
N50 G1 X-0.1567 Y-1.4056 F500.
N55 G0 G43 Z1.0075 H1
N60 G0 Z0.2625
N65 G1 Z0.2125 F69.
N70 Y-1.4053 Z0.2069
N75 X-0.1564 Y-1.4044 Z0.2014
N80 X-0.156 Y-1.4029 Z0.196
N85 X-0.1555 Y-1.4008 Z0.1908
N90 X-0.1548 Y-1.3982 Z0.1859
N95 X-0.154 Y-1.395 Z0.1813
N100 X-0.1531 Y-1.3914 Z0.1771
N105 X-0.1521 Y-1.3874 Z0.1734
N110 X-0.1509 Y-1.3829 Z0.1701
N115 X-0.1497 Y-1.3782 Z0.1674
N120 X-0.1484 Y-1.3732 Z0.1653
N125 X-0.1471 Y-1.3679 Z0.1637
N130 X-0.1457 Y-1.3626 Z0.1628
N135 X-0.1443 Y-1.3572 Z0.1625
N140 G3 X-0.1052 Y-1.085 I-1.2366 J0.3167
N145 G1 Y-1.0817
N150 X-0.1518 Y-1.0592
N155 X-0.1934 Y-1.0283
N160 X-0.229 Y-0.9907
N165 X-0.2583 Y-0.948
N170 X-0.2813 Y-0.9016
N175 X-0.2985 Y-0.8528
N180 X-0.3106 Y-0.8024
N185 X-0.3186 Y-0.7513
N190 G2 X-0.329 Y-0.5445 I1.9106 J0.1996
N195 X-0.3301 Y-0.2856 I18.7442 J0.212
N200 G1 X-0.3302 Y0.0769
N205 Y0.3358
N210 X-0.3229 Y0.3871
N215 X-0.305 Y0.4357
N220 X-0.2781 Y0.4799
N225 X-0.2437 Y0.5186
N230 X-0.2034 Y0.5511
N235 X-0.1587 Y0.5773
N240 X-0.1109 Y0.5973
N245 X-0.0612 Y0.6118
N250 X-0.0104 Y0.6217
N255 X0.041 Y0.6281
N260 G2 X0.2479 Y0.636 I0.197 J-2.4513
N265 X0.5069 Y0.6368 I0.211 J-25.0279
N270 G1 X1.2318 Y0.6369
N275 X2.0086
N280 X2.8372
N285 X2.8889 Y0.6354
N290 X2.9391 Y0.6228
N295 X2.9858 Y0.6004
N300 X3.0275 Y0.5696
N305 X3.0632 Y0.5321
N310 X3.0926 Y0.4895
N315 X3.1157 Y0.4432
N320 X3.1329 Y0.3943
N325 X3.1451 Y0.344
N330 X3.1532 Y0.2928
N335 G2 X3.1636 Y0.0861 I-1.8977 J-0.1997
N340 X3.1648 Y-0.1728 I-18.5885 J-0.212
N345 G1 Y-0.38
N350 Y-0.7425
N355 X3.1607 Y-0.7941
N360 X3.1457 Y-0.8437
N365 X3.1212 Y-0.8893
N370 X3.0887 Y-0.9296
N375 X3.0499 Y-0.9639
N380 X3.0063 Y-0.9918
N385 X2.9592 Y-1.0135
N390 X2.91 Y-1.0295
N395 X2.8594 Y-1.0406
N400 X2.8081 Y-1.0479
N405 G2 X2.6013 Y-1.0571 I-0.1984 J2.1262
N410 X2.3424 Y-1.0581 I-0.2116 J21.2485
N415 G1 X1.8763
N420 X1.6692
N425 X0.0639
N430 X0.0121 Y-1.0562
N435 X-0.0385 Y-1.0451
N440 X-0.0864 Y-1.0254
N445 X-0.1303 Y-0.998
N450 X-0.1693 Y-0.9639
N455 X-0.2028 Y-0.9244
N460 X-0.2305 Y-0.8807
N465 X-0.2527 Y-0.8339
N470 X-0.2696 Y-0.785
N475 X-0.282 Y-0.7347
N480 X-0.2906 Y-0.6836
N485 G2 X-0.3033 Y-0.477 I1.7727 J0.2127
N490 X-0.3051 Y-0.1663 I17.0559 J0.2549
N495 G1 X-0.3052 Y0.1444
N500 Y0.248
N505 X-0.3005 Y0.2996
N510 X-0.2874 Y0.3497
N515 X-0.2662 Y0.3969
N520 X-0.2377 Y0.4401
N525 X-0.2029 Y0.4784
N530 X-0.1629 Y0.5113
N535 X-0.1188 Y0.5385
N540 X-0.0718 Y0.5602
N545 X-0.0227 Y0.5768
N550 X0.0276 Y0.589
N555 X0.0787 Y0.5974
N560 G2 X0.2853 Y0.61 I0.2134 J-1.7997
N565 G1 X0.3371 Y0.6109
N570 X0.3889 Y0.6113
N575 X0.4407 Y0.6116
N580 X0.4925 Y0.6117
N585 X0.596 Y0.6118
N590 X0.9067 Y0.6119
N595 X2.4603
N600 X2.771
N605 X2.8226 Y0.6081
N610 X2.873 Y0.5959
N615 X2.9206 Y0.5756
N620 X2.9642 Y0.5477
N625 X3.003 Y0.5134
N630 X3.0364 Y0.4738
N635 X3.0642 Y0.4301
N640 X3.0864 Y0.3834
N645 X3.1034 Y0.3345
N650 X3.116 Y0.2842
N655 X3.1248 Y0.2332
N660 G2 X3.1379 Y0.0266 I-1.7417 J-0.2142
N665 X3.1398 Y-0.2841 I-16.3302 J-0.2555
N670 G1 Y-0.543
N675 Y-0.6466
N680 X3.1385 Y-0.6984
N685 X3.1291 Y-0.7493
N690 X3.1114 Y-0.7979
N695 X3.0859 Y-0.843
N700 X3.0537 Y-0.8836
N705 X3.0158 Y-0.9189
N710 X2.9734 Y-0.9485
N715 X2.9275 Y-0.9726
N720 X2.8793 Y-0.9914
N725 X2.8294 Y-1.0054
N730 X2.7786 Y-1.0154
N735 G2 X2.5722 Y-1.0308 I-0.2164 J1.5096
N740 X2.2097 Y-1.0331 I-0.2894 J16.8637
N745 G1 X1.6919
N750 X1.0705
N755 X0.1383
N760 X0.0866 Y-1.0317
N765 X0.0354 Y-1.0236
N770 X-0.0139 Y-1.008
N775 X-0.0604 Y-0.985
N780 X-0.1029 Y-0.9555
N785 X-0.1407 Y-0.9201
N790 X-0.1733 Y-0.8799
N795 X-0.2006 Y-0.8359
N800 X-0.2227 Y-0.789
N805 X-0.2401 Y-0.7402
N810 X-0.253 Y-0.6901
N815 X-0.2623 Y-0.6392
N820 G2 X-0.2775 Y-0.4327 I1.6449 J0.2245
N825 X-0.2799 Y-0.1738 I10.1651 J0.2252
N830 G1 X-0.2801 Y-0.0702
N835 X-0.2802 Y0.1369
N840 X-0.2798 Y0.1887
N845 X-0.2752 Y0.2403
N850 X-0.2634 Y0.2907
N855 X-0.2444 Y0.3389
N860 X-0.2184 Y0.3836
N865 X-0.1863 Y0.4242
N870 X-0.1488 Y0.46
N875 X-0.107 Y0.4905
N880 X-0.0618 Y0.5158
N885 X-0.0141 Y0.536
N890 X0.0353 Y0.5516
N895 X0.0858 Y0.5632
N900 X0.1369 Y0.5715
N905 G2 X0.3435 Y0.5846 I0.2228 J-1.8762
N910 X0.706 Y0.5868 I0.2947 J-18.2387
N915 G1 X1.0685 Y0.5869
N920 X1.172
N925 X2.6738
N930 X2.7256 Y0.5862
N935 X2.777 Y0.5804
N940 X2.8272 Y0.5675
N945 X2.8748 Y0.5472
N950 X2.9189 Y0.5201
N955 X2.9587 Y0.487
N960 X2.9936 Y0.4487
N965 X3.0232 Y0.4062
N970 X3.0476 Y0.3605
N975 X3.067 Y0.3125
N980 X3.0818 Y0.2629
N985 X3.0928 Y0.2123
N990 G2 X3.1113 Y0.0062 I-1.3879 J-0.2286
N995 X3.1146 Y-0.4081 I-13.579 J-0.3129
N1000 G1 X3.1148 Y-0.5634
N1005 X3.1145 Y-0.6152
N1010 X3.1091 Y-0.6667
N1015 X3.0966 Y-0.717
N1020 X3.0769 Y-0.7648
N1025 X3.0502 Y-0.8093
N1030 X3.0175 Y-0.8493
N1035 X2.9795 Y-0.8845
N1040 X2.9373 Y-0.9145
N1045 X2.8918 Y-0.9393
N1050 X2.8439 Y-0.9591
N1055 X2.7944 Y-0.9742
N1060 X2.7438 Y-0.9854
N1065 G2 X2.5378 Y-1.0045 I-0.23 J1.3589
N1070 X2.2271 Y-1.0078 I-0.2556 J9.3918
N1075 G1 X2.1235 Y-1.0081
N1080 X1.7093
N1085 X0.2075
N1090 X0.1557 Y-1.0072
N1095 X0.1043 Y-1.0015
N1100 X0.0539 Y-0.9894
N1105 X0.0058 Y-0.9703
N1110 X-0.0392 Y-0.9447
N1115 X-0.0803 Y-0.9131
N1120 X-0.1167 Y-0.8763
N1125 X-0.1482 Y-0.8352
N1130 X-0.1747 Y-0.7907
N1135 X-0.1963 Y-0.7437
N1140 X-0.2132 Y-0.6947
N1145 X-0.2261 Y-0.6446
N1150 X-0.2356 Y-0.5937
N1155 G2 X-0.2519 Y-0.3873 I1.6402 J0.2331
N1160 X-0.2549 Y0.0787 I17.0236 J0.3438
N1165 G1 X-0.2546 Y0.1305
N1170 X-0.2506 Y0.1821
N1175 X-0.2406 Y0.2329
N1180 X-0.2239 Y0.282
N1185 X-0.2006 Y0.3282
N1190 X-0.1712 Y0.3708
N1195 X-0.1362 Y0.409
N1200 X-0.0967 Y0.4424
N1205 X-0.0534 Y0.4708
N1210 X-0.0072 Y0.4943
N1215 X0.041 Y0.5131
N1220 X0.0907 Y0.5277
N1225 X0.1414 Y0.5385
N1230 G2 X0.3474 Y0.5577 I0.2379 J-1.4362
N1235 X0.6581 Y0.5615 I0.2617 J-8.7168
N1240 G1 X0.7617 Y0.5618
N1245 X1.0206 Y0.5619
N1250 X2.1598
N1255 X2.5741
N1260 X2.6259 Y0.5618
N1265 X2.6777 Y0.5605
N1270 X2.7291 Y0.5545
N1275 X2.7794 Y0.5421
N1280 X2.8275 Y0.5229
N1285 X2.8725 Y0.4973
N1290 X2.9135 Y0.4657
N1295 X2.95 Y0.429
N1300 X2.9816 Y0.3879
N1305 X3.0081 Y0.3435
N1310 X3.0298 Y0.2964
N1315 X3.0469 Y0.2476
N1320 X3.0601 Y0.1975
N1325 X3.0697 Y0.1466
N1330 G2 X3.0864 Y-0.0597 I-1.6174 J-0.2342
N1335 X3.0895 Y-0.5258 I-16.1377 J-0.3423
N1340 G1 X3.088 Y-0.5775
N1345 X3.0812 Y-0.6289
N1350 X3.068 Y-0.6789
N1355 X3.0479 Y-0.7267
N1360 X3.0214 Y-0.7712
N1365 X2.9891 Y-0.8116
N1370 X2.9518 Y-0.8475
N1375 X2.9103 Y-0.8785
N1380 X2.8655 Y-0.9044
N1385 X2.8182 Y-0.9255
N1390 X2.7691 Y-0.9421
N1395 X2.7189 Y-0.9547
N1400 X2.668 Y-0.964
N1405 G2 X2.4616 Y-0.9799 I-0.2322 J1.6713
N1410 X2.0473 Y-0.9831 I-0.3335 J16.3653
N1415 G1 X1.6848
N1420 X1.1152
N1425 X0.2867
N1430 X0.2349 Y-0.9829
N1435 X0.1832 Y-0.9801
N1440 X0.1319 Y-0.9724
N1445 X0.082 Y-0.9586
N1450 X0.0344 Y-0.9383
N1455 X-0.0101 Y-0.9118
N1460 X-0.0507 Y-0.8797
N1465 X-0.0869 Y-0.8427
N1470 X-0.1184 Y-0.8016
N1475 X-0.145 Y-0.7571
N1480 X-0.1669 Y-0.7102
N1485 X-0.1843 Y-0.6614
N1490 X-0.1977 Y-0.6114
N1495 X-0.2078 Y-0.5606
N1500 G2 X-0.226 Y-0.3544 I1.5498 J0.2407
N1505 X-0.2297 Y-0.0955 I7.6541 J0.2388
N1510 G1 X-0.23 Y-0.0438
N1515 Y0.008
N1520 X-0.2299 Y0.0598
N1525 X-0.2277 Y0.1115
N1530 X-0.2209 Y0.1629
N1535 X-0.2082 Y0.2131
N1540 X-0.1891 Y0.2612
N1545 X-0.1638 Y0.3064
N1550 X-0.1328 Y0.3479
N1555 X-0.0968 Y0.3851
N1560 X-0.0565 Y0.4176
N1565 X-0.0128 Y0.4454
N1570 X0.0336 Y0.4684
N1575 X0.082 Y0.4868
N1580 X0.1317 Y0.5012
N1585 X0.1824 Y0.5121
N1590 G2 X0.3884 Y0.5321 I0.2451 J-1.4492
N1595 X0.699 Y0.5365 I0.267 J-7.9986
N1600 G1 X0.8026 Y0.5368
N1605 X1.0097 Y0.5369
N1610 X1.3722
N1615 X2.5115
N1620 X2.5633 Y0.5368
N1625 X2.615 Y0.5359
N1630 X2.6666 Y0.5316
N1635 X2.7175 Y0.5218
N1640 X2.7667 Y0.5058
N1645 X2.8134 Y0.4834
N1650 X2.8568 Y0.4551
N1655 X2.896 Y0.4213
N1660 X2.9308 Y0.3829
N1665 X2.9608 Y0.3407
N1670 X2.986 Y0.2955
N1675 X3.0066 Y0.248
N1680 X3.0229 Y0.1988
N1685 X3.0353 Y0.1485
N1690 X3.0446 Y0.0976
N1695 X3.0512 Y0.0462
N1700 X3.0559 Y-0.0053
N1705 G2 X3.0638 Y-0.2641 I-3.9782 J-0.2511
N1710 X3.0646 Y-0.4712 I-16.1374 J-0.1622
N1715 G1 X3.063 Y-0.523
N1720 X3.0573 Y-0.5744
N1725 X3.0458 Y-0.6249
N1730 X3.0279 Y-0.6735
N1735 X3.0038 Y-0.7194
N1740 X2.9739 Y-0.7616
N1745 X2.9387 Y-0.7997
N1750 X2.8992 Y-0.8331
N1755 X2.856 Y-0.8617
N1760 X2.81 Y-0.8855
N1765 X2.762 Y-0.9049
N1770 X2.7125 Y-0.9201
N1775 X2.662 Y-0.9316
N1780 G2 X2.4562 Y-0.953 I-0.2465 J1.3715
N1785 X2.0937 Y-0.9577 I-0.295 J8.6465
N1790 G1 X1.9902 Y-0.9581
N1795 X1.783
N1800 X0.3848
N1805 X0.3331
N1810 X0.2813 Y-0.9576
N1815 X0.2296 Y-0.955
N1820 X0.1783 Y-0.9478
N1825 X0.1281 Y-0.9349
N1830 X0.0799 Y-0.9159
N1835 X0.0346 Y-0.891
N1840 X-0.0073 Y-0.8605
N1845 X-0.0449 Y-0.8249
N1850 X-0.0781 Y-0.7851
N1855 X-0.1065 Y-0.7418
N1860 X-0.1303 Y-0.6958
N1865 X-0.1497 Y-0.6478
N1870 X-0.165 Y-0.5984
N1875 X-0.1768 Y-0.548
N1880 G2 X-0.1993 Y-0.3422 I1.3548 J0.2521
N1885 X-0.2043 Y0.0202 I7.1174 J0.2797
N1890 G1 X-0.2019 Y0.0719
N1895 X-0.195 Y0.1232
N1900 X-0.1824 Y0.1735
N1905 X-0.1639 Y0.2218
N1910 X-0.1394 Y0.2674
N1915 X-0.1093 Y0.3096
N1920 X-0.0741 Y0.3476
N1925 X-0.0347 Y0.3812
N1930 X0.0083 Y0.4101
N1935 X0.054 Y0.4343
N1940 X0.1019 Y0.4541
N1945 X0.1512 Y0.4699
N1950 X0.2015 Y0.4821
N1955 G2 X0.4071 Y0.5056 I0.2538 J-1.3094
N1960 X0.7695 Y0.5114 I0.3006 J-7.4933
N1965 G1 X0.8213 Y0.5117
N1970 X0.9767 Y0.5118
N1975 X1.7534 Y0.5119
N1980 X2.4784
N1985 X2.5302 Y0.5116
N1990 X2.5819 Y0.5101
N1995 X2.6335 Y0.5049
N2000 X2.6842 Y0.4944
N2005 X2.7333 Y0.4779
N2010 X2.7799 Y0.4555
N2015 X2.8234 Y0.4273
N2020 X2.8629 Y0.3938
N2025 X2.8981 Y0.3558
N2030 X2.9286 Y0.314
N2035 X2.9545 Y0.2691
N2040 X2.9758 Y0.2219
N2045 X2.9928 Y0.173
N2050 X3.0062 Y0.123
N2055 X3.0163 Y0.0722
N2060 G2 X3.0351 Y-0.1339 I-1.5746 J-0.2473
N2065 X3.039 Y-0.4446 I-7.1023 J-0.2441
N2070 G1 X3.0362 Y-0.4963
N2075 X3.029 Y-0.5476
N2080 X3.0161 Y-0.5977
N2085 X2.9973 Y-0.646
N2090 X2.9724 Y-0.6914
N2095 X2.942 Y-0.7333
N2100 X2.9066 Y-0.7711
N2105 X2.867 Y-0.8044
N2110 X2.8238 Y-0.8331
N2115 X2.7779 Y-0.857
N2120 X2.7299 Y-0.8766
N2125 X2.6805 Y-0.892
N2130 X2.6301 Y-0.904
N2135 G2 X2.4245 Y-0.927 I-0.2533 J1.3309
N2140 X2.2174 Y-0.9321 I-0.2212 J4.8199
N2145 X1.9585 Y-0.933 I-0.2376 J29.5421
N2150 G1 X1.7514 Y-0.9331
N2155 X0.405
N2160 X0.3532 Y-0.9329
N2165 X0.3014 Y-0.9317
N2170 X0.2498 Y-0.9273
N2175 X0.1988 Y-0.9183
N2180 X0.1492 Y-0.9036
N2185 X0.1016 Y-0.8831
N2190 X0.057 Y-0.8569
N2195 X0.0159 Y-0.8253
N2200 X-0.021 Y-0.789
N2205 X-0.0535 Y-0.7487
N2210 X-0.0814 Y-0.7051
N2215 X-0.1048 Y-0.6589
N2220 X-0.1239 Y-0.6107
N2225 X-0.139 Y-0.5612
N2230 X-0.1508 Y-0.5108
N2235 G2 X-0.1738 Y-0.3051 I1.3748 J0.2579
N2240 X-0.1782 Y0.0055 I4.5359 J0.2195
N2245 G1 X-0.1735 Y0.0571
N2250 X-0.1642 Y0.1081
N2255 X-0.1494 Y0.1577
N2260 X-0.1287 Y0.2052
N2265 X-0.1024 Y0.2497
N2270 X-0.0707 Y0.2907
N2275 X-0.0343 Y0.3275
N2280 X0.0061 Y0.3599
N2285 X0.0497 Y0.3879
N2290 X0.0959 Y0.4112
N2295 X0.1441 Y0.4303
N2300 X0.1936 Y0.4455
N2305 X0.244 Y0.4572
N2310 G2 X0.4497 Y0.4803 I0.259 J-1.3775
N2315 G1 X0.5014 Y0.4827
N2320 G2 X0.9156 Y0.4866 I0.3326 J-13.2616
N2325 G1 X1.071 Y0.4868
N2330 X2.4174 Y0.4869
N2335 X2.4692 Y0.4868
N2340 X2.5209 Y0.4858
N2345 X2.5726 Y0.4821
N2350 X2.6238 Y0.474
N2355 X2.6738 Y0.4606
N2360 X2.7218 Y0.4413
N2365 X2.7672 Y0.4163
N2370 X2.809 Y0.3858
N2375 X2.8469 Y0.3505
N2380 X2.8804 Y0.311
N2385 X2.9094 Y0.2681
N2390 X2.9339 Y0.2225
N2395 X2.954 Y0.1748
N2400 X2.9701 Y0.1255
N2405 X2.9826 Y0.0753
N2410 G2 X3.0076 Y-0.1301 I-1.2932 J-0.2615
N2415 X3.0135 Y-0.3889 I-4.4147 J-0.2301
N2420 G1 X3.0116 Y-0.4407
N2425 X3.0061 Y-0.4922
N2430 X2.9954 Y-0.5429
N2435 X2.9791 Y-0.592
N2440 X2.9568 Y-0.6387
N2445 X2.9289 Y-0.6824
N2450 X2.8959 Y-0.7223
N2455 X2.8584 Y-0.758
N2460 X2.8171 Y-0.7892
N2465 X2.7727 Y-0.8158
N2470 X2.7259 Y-0.8381
N2475 X2.6773 Y-0.8561
N2480 X2.6275 Y-0.8703
N2485 X2.5769 Y-0.8812
N2490 X2.5258 Y-0.8893
N2495 X2.4743 Y-0.8953
N2500 X2.4227 Y-0.8995
N2505 G2 X2.1122 Y-0.9073 I-0.2841 J5.0984
N2510 G1 X2.0604 Y-0.9077
N2515 X2.0086 Y-0.9079
N2520 X1.905 Y-0.908
N2525 X1.6979 Y-0.9081
N2530 X0.4551
N2535 X0.4033 Y-0.9079
N2540 X0.3515 Y-0.9068
N2545 X0.2999 Y-0.9033
N2550 X0.2487 Y-0.8955
N2555 X0.1985 Y-0.8826
N2560 X0.1502 Y-0.864
N2565 X0.1044 Y-0.8398
N2570 X0.0619 Y-0.8102
N2575 X0.0233 Y-0.7757
N2580 X-0.0112 Y-0.737
N2585 X-0.0412 Y-0.6948
N2590 X-0.0667 Y-0.6498
N2595 X-0.0879 Y-0.6025
N2600 X-0.1051 Y-0.5537
N2605 X-0.1187 Y-0.5037
N2610 G2 X-0.1465 Y-0.2987 I1.2095 J0.2686
N2615 X-0.1524 Y-0.0399 I3.0441 J0.1992
N2620 G1 X-0.1485 Y0.0117
N2625 X-0.1403 Y0.0629
N2630 X-0.1268 Y0.1129
N2635 X-0.1076 Y0.1609
N2640 X-0.0827 Y0.2064
N2645 X-0.0526 Y0.2485
N2650 X-0.0177 Y0.2867
N2655 X0.0214 Y0.3207
N2660 X0.064 Y0.3502
N2665 X0.1093 Y0.3753
N2670 X0.1567 Y0.3961
N2675 X0.2056 Y0.413
N2680 X0.2557 Y0.4262
N2685 X0.3065 Y0.4364
N2690 X0.3577 Y0.444
N2695 X0.4092 Y0.4495
N2700 G2 X0.7196 Y0.4606 I0.2918 J-3.8236
N2705 X0.9785 Y0.4618 I0.2227 J-20.7665
N2710 G1 X1.1857 Y0.4619
N2715 X2.3767
N2720 X2.4285 Y0.4616
N2725 X2.4803 Y0.4605
N2730 X2.5319 Y0.457
N2735 X2.5831 Y0.4493
N2740 X2.6333 Y0.4366
N2745 X2.6817 Y0.4181
N2750 X2.7276 Y0.3941
N2755 X2.7702 Y0.3647
N2760 X2.809 Y0.3304
N2765 X2.8437 Y0.2919
N2770 X2.8739 Y0.2499
N2775 X2.8997 Y0.205
N2780 X2.9211 Y0.1578
N2785 X2.9385 Y0.1091
N2790 X2.9524 Y0.0592
N2795 X2.963 Y0.0085
N2800 G2 X2.9837 Y-0.1975 I-1.5447 J-0.2598
N2805 X2.9856 Y-0.4045 I-2.1795 J-0.1236
N2810 G1 X2.9799 Y-0.456
N2815 X2.9695 Y-0.5067
N2820 X2.9534 Y-0.556
N2825 X2.9317 Y-0.603
N2830 X2.9044 Y-0.647
N2835 X2.8721 Y-0.6874
N2840 X2.8352 Y-0.7238
N2845 X2.7945 Y-0.7558
N2850 X2.7506 Y-0.7833
N2855 X2.7043 Y-0.8064
N2860 X2.6561 Y-0.8254
N2865 X2.6066 Y-0.8406
N2870 X2.5562 Y-0.8524
N2875 X2.5052 Y-0.8614
N2880 X2.4538 Y-0.868
N2885 X2.4022 Y-0.8728
N2890 G2 X2.0917 Y-0.8821 I-0.2899 J4.487
N2895 X1.8328 Y-0.883 I-0.2215 J24.5758
N2900 G1 X1.6257 Y-0.8831
N2905 X0.5382
N2910 X0.4864
N2915 X0.4347 Y-0.8827
N2920 X0.3829 Y-0.8813
N2925 X0.3313 Y-0.8773
N2930 X0.2801 Y-0.8692
N2935 X0.23 Y-0.856
N2940 X0.1817 Y-0.8373
N2945 X0.1359 Y-0.8132
N2950 X0.0933 Y-0.7837
N2955 X0.0544 Y-0.7495
N2960 X0.0197 Y-0.7112
N2965 X-0.0107 Y-0.6692
N2970 X-0.0368 Y-0.6245
N2975 X-0.0585 Y-0.5775
N2980 X-0.0763 Y-0.5288
N2985 X-0.0904 Y-0.479
N2990 X-0.1015 Y-0.4284
N2995 G2 X-0.1234 Y-0.2226 I1.491 J0.2631
N3000 G1 X-0.1256 Y-0.1709
N3005 X-0.1265 Y-0.1191
N3010 X-0.1255 Y-0.0673
N3015 X-0.1212 Y-0.0157
N3020 X-0.1125 Y0.0353
N3025 X-0.0985 Y0.0852
N3030 X-0.0788 Y0.1331
N3035 X-0.0537 Y0.1784
N3040 X-0.0234 Y0.2204
N3045 X0.0116 Y0.2585
N3050 X0.0506 Y0.2925
N3055 X0.0931 Y0.3221
N3060 X0.1383 Y0.3474
N3065 X0.1857 Y0.3684
N3070 X0.2345 Y0.3855
N3075 X0.2845 Y0.3991
N3080 G2 X0.4894 Y0.4275 I0.2724 J-1.2113
N3085 G1 X0.5411 Y0.4306
N3090 G2 X0.9553 Y0.4364 I0.3396 J-9.4838
N3095 G1 X1.0589 Y0.4368
N3100 X1.266 Y0.4369
N3105 X2.3017
N3110 X2.3535 Y0.4368
N3115 X2.4053 Y0.4364
N3120 X2.4571 Y0.4347
N3125 X2.5086 Y0.4301
N3130 X2.5597 Y0.4214
N3135 X2.6096 Y0.4075
N3140 X2.6576 Y0.3881
N3145 X2.7031 Y0.3633
N3150 X2.7453 Y0.3334
N3155 X2.7837 Y0.2987
N3160 X2.818 Y0.2599
N3165 X2.848 Y0.2176
N3170 X2.8735 Y0.1726
N3175 X2.8948 Y0.1254
N3180 X2.9122 Y0.0766
N3185 X2.9261 Y0.0267
N3190 G2 X2.9552 Y-0.1781 I-1.1938 J-0.2741
N3195 G1 X2.9583 Y-0.2298
N3200 X2.9601 Y-0.2816
N3205 X2.9603 Y-0.3334
N3210 X2.9576 Y-0.3851
N3215 X2.9509 Y-0.4364
N3220 X2.9391 Y-0.4868
N3225 X2.9217 Y-0.5356
N3230 X2.8988 Y-0.5821
N3235 X2.8706 Y-0.6255
N3240 X2.8374 Y-0.6653
N3245 X2.7999 Y-0.701
N3250 X2.7587 Y-0.7323
N3255 X2.7145 Y-0.7593
N3260 X2.6679 Y-0.7819
N3265 X2.6196 Y-0.8005
N3270 X2.57 Y-0.8154
N3275 X2.5195 Y-0.8271
N3280 G2 X2.3139 Y-0.8507 I-0.2671 J1.4156
N3285 G1 X2.2622 Y-0.8532
N3290 X2.2104 Y-0.8548
N3295 X2.1587 Y-0.856
N3300 G2 X1.7962 Y-0.858 I-0.3194 J24.1542
N3305 G1 X1.589 Y-0.8581
N3310 X0.6051
N3315 X0.5534
N3320 X0.5016 Y-0.858
N3325 X0.4498 Y-0.8573
N3330 X0.3981 Y-0.8548
N3335 X0.3466 Y-0.8493
N3340 X0.2957 Y-0.8395
N3345 X0.2462 Y-0.8245
N3350 X0.1985 Y-0.8042
N3355 X0.1536 Y-0.7785
N3360 X0.1118 Y-0.7479
N3365 X0.0739 Y-0.7126
N3370 X0.0401 Y-0.6734
N3375 X0.0107 Y-0.6308
N3380 X-0.0145 Y-0.5855
N3385 X-0.0355 Y-0.5382
N3390 X-0.0526 Y-0.4893
N3395 X-0.0662 Y-0.4393
N3400 G2 X-0.0951 Y-0.2345 I1.2105 J0.2752
N3405 G1 X-0.098 Y-0.1827
N3410 X-0.0989 Y-0.131
N3415 X-0.097 Y-0.0792
N3420 X-0.0913 Y-0.0277
N3425 X-0.0807 Y0.0229
N3430 X-0.0647 Y0.0722
N3435 X-0.0432 Y0.1193
N3440 X-0.0164 Y0.1636
N3445 X0.0155 Y0.2044
N3450 X0.0518 Y0.2414
N3455 X0.0919 Y0.2741
N3460 X0.1352 Y0.3025
N3465 X0.181 Y0.3266
N3470 X0.2288 Y0.3466
N3475 X0.278 Y0.3629
N3480 X0.3281 Y0.3757
N3485 G2 X0.5333 Y0.4027 I0.2752 J-1.298
N3490 X0.8438 Y0.411 I0.3003 J-5.4597
N3495 G1 X0.8956 Y0.4113
N3500 X0.9474 Y0.4115
N3505 X0.9992 Y0.4117
N3510 X1.1028 Y0.4118
N3515 X1.3099 Y0.4119
N3520 X2.242
N3525 X2.2938 Y0.4118
N3530 X2.3456 Y0.4116
N3535 X2.3973 Y0.4105
N3540 X2.449 Y0.4073
N3545 X2.5004 Y0.4008
N3550 X2.551 Y0.3896
N3555 X2.6001 Y0.3733
N3560 X2.6471 Y0.3516
N3565 X2.6913 Y0.3246
N3570 X2.7321 Y0.2927
N3575 X2.769 Y0.2564
N3580 X2.8017 Y0.2163
N3585 X2.8302 Y0.173
N3590 X2.8543 Y0.1272
N3595 X2.8743 Y0.0794
N3600 X2.8906 Y0.0302
N3605 X2.9035 Y-0.0199
N3610 G2 X2.9316 Y-0.3286 I-1.2761 J-0.272
N3615 G1 X2.9272 Y-0.3802
N3620 X2.918 Y-0.4312
N3625 X2.9035 Y-0.4809
N3630 X2.8836 Y-0.5287
N3635 X2.8581 Y-0.5738
N3640 X2.8275 Y-0.6156
N3645 X2.7923 Y-0.6536
N3650 X2.7531 Y-0.6874
N3655 X2.7106 Y-0.7169
N3660 X2.6654 Y-0.7422
N3665 X2.6181 Y-0.7632
N3670 X2.5692 Y-0.7804
N3675 X2.5193 Y-0.794
N3680 G2 X2.3144 Y-0.8231 I-0.2781 J1.2248
N3685 X2.0039 Y-0.8321 I-0.3015 J5.0157
N3690 X1.6932 Y-0.833 I-0.2584 J35.3522
N3695 G1 X1.3825 Y-0.8331
N3700 X0.6057
N3705 X0.5539 Y-0.833
N3710 X0.5022 Y-0.8325
N3715 X0.4504 Y-0.8306
N3720 X0.3988 Y-0.8263
N3725 X0.3477 Y-0.8182
N3730 X0.2975 Y-0.8053
N3735 X0.2489 Y-0.7873
N3740 X0.2027 Y-0.764
N3745 X0.1594 Y-0.7355
N3750 X0.1197 Y-0.7023
N3755 X0.0839 Y-0.6649
N3760 X0.0523 Y-0.6239
N3765 X0.0249 Y-0.58
N3770 X0.0017 Y-0.5337
N3775 X-0.0175 Y-0.4856
N3780 X-0.033 Y-0.4362
N3785 X-0.0453 Y-0.3859
N3790 X-0.0548 Y-0.335
N3795 G2 X-0.0697 Y-0.1286 I1.1283 J0.1852
N3800 G1 X-0.0658 Y-0.077
N3805 X-0.0572 Y-0.0259
N3810 X-0.0435 Y0.024
N3815 X-0.0242 Y0.0721
N3820 X0.0005 Y0.1176
N3825 X0.0303 Y0.1599
N3830 X0.0648 Y0.1985
N3835 X0.1033 Y0.2331
N3840 X0.1453 Y0.2635
N3845 X0.19 Y0.2895
N3850 X0.2369 Y0.3115
N3855 X0.2855 Y0.3295
N3860 X0.3352 Y0.344
N3865 G2 X0.5397 Y0.3753 I0.2841 J-1.1696
N3870 X0.8502 Y0.3855 I0.2969 J-4.3038
N3875 X1.2645 Y0.3868 I0.3236 J-37.3816
N3880 G1 X1.4716 Y0.3869
N3885 X2.1966
N3890 G2 X2.4036 Y0.3831 I0.0434 J-3.3308
N3895 G1 X2.4551 Y0.3773
N3900 X2.5059 Y0.3673
N3905 X2.5555 Y0.3525
N3910 X2.6033 Y0.3324
N3915 X2.6484 Y0.307
N3920 X2.6903 Y0.2766
N3925 X2.7286 Y0.2417
N3930 X2.7628 Y0.2029
N3935 X2.7929 Y0.1607
N3940 X2.8187 Y0.1158
N3945 X2.8403 Y0.0688
N3950 X2.8582 Y0.0201
N3955 X2.8725 Y-0.0296
N3960 G2 X2.903 Y-0.2861 I-1.0256 J-0.2524
N3965 G1 X2.9 Y-0.3378
N3970 X2.8923 Y-0.389
N3975 X2.8794 Y-0.4392
N3980 X2.8609 Y-0.4875
N3985 X2.8369 Y-0.5334
N3990 X2.8077 Y-0.5762
N3995 X2.7738 Y-0.6153
N4000 X2.7357 Y-0.6504
N4005 X2.6942 Y-0.6813
N4010 X2.6497 Y-0.7079
N4015 X2.6031 Y-0.7303
N4020 X2.5547 Y-0.7488
N4025 X2.5051 Y-0.7637
N4030 X2.4547 Y-0.7754
N4035 G2 X2.2491 Y-0.7998 I-0.2745 J1.4394
N4040 X1.8868 Y-0.8074 I-0.3188 J6.5573
N4045 G1 X1.835 Y-0.8078
N4050 X1.7314 Y-0.808
N4055 X1.5761 Y-0.8081
N4060 X1.0064
N4065 X0.6957
N4070 G2 X0.4886 Y-0.8057 I-0.0444 J5.1188
N4075 G1 X0.437 Y-0.8016
N4080 X0.3858 Y-0.7939
N4085 X0.3354 Y-0.7817
N4090 X0.2866 Y-0.7645
N4095 X0.2399 Y-0.7421
N4100 X0.1961 Y-0.7145
N4105 X0.1556 Y-0.6822
N4110 X0.119 Y-0.6456
N4115 X0.0864 Y-0.6054
N4120 X0.058 Y-0.5621
N4125 X0.0337 Y-0.5163
N4130 X0.0135 Y-0.4687
N4135 X-0.0031 Y-0.4196
N4140 X-0.0163 Y-0.3695
N4145 X-0.0264 Y-0.3187
N4150 X-0.0339 Y-0.2675
N4155 X-0.0386 Y-0.2159
N4160 X-0.0399 Y-0.1642
N4165 X-0.0371 Y-0.1124
N4170 X-0.0296 Y-0.0612
N4175 X-0.0168 Y-0.011
N4180 X0.0017 Y0.0374
N4185 X0.0256 Y0.0833
N4190 X0.0546 Y0.1262
N4195 X0.0884 Y0.1654
N4200 X0.1263 Y0.2007
N4205 X0.1677 Y0.2318
N4210 X0.212 Y0.2587
N4215 X0.2585 Y0.2814
N4220 X0.3068 Y0.3002
N4225 X0.3563 Y0.3154
N4230 X0.4066 Y0.3274
N4235 G2 X0.612 Y0.3528 I0.2779 J-1.4079
N4240 X0.9744 Y0.361 I0.3222 J-6.2069
N4245 G1 X1.0261 Y0.3615
N4250 X1.0779 Y0.3616
N4255 X1.1815 Y0.3618
N4260 X1.3886 Y0.3619
N4265 X2.1654
N4270 X2.2172 Y0.3618
N4275 X2.269 Y0.3614
N4280 X2.3207 Y0.3603
N4285 X2.3725 Y0.3576
N4290 X2.4239 Y0.3517
N4295 X2.4747 Y0.3417
N4300 X2.5243 Y0.3269
N4305 X2.5721 Y0.3069
N4310 X2.6174 Y0.2817
N4315 X2.6595 Y0.2516
N4320 X2.698 Y0.217
N4325 X2.7326 Y0.1785
N4330 X2.7631 Y0.1366
N4335 X2.7893 Y0.092
N4340 X2.8115 Y0.0452
N4345 X2.8298 Y-0.0033
N4350 X2.8446 Y-0.0529
N4355 X2.8561 Y-0.1034
N4360 X2.8647 Y-0.1544
N4365 X2.8702 Y-0.2059
N4370 X2.8721 Y-0.2577
N4375 X2.8698 Y-0.3094
N4380 X2.8626 Y-0.3607
N4385 X2.8499 Y-0.4109
N4390 X2.8316 Y-0.4593
N4395 X2.8077 Y-0.5053
N4400 X2.7787 Y-0.5482
N4405 X2.7449 Y-0.5874
N4410 X2.707 Y-0.6227
N4415 X2.6655 Y-0.6537
N4420 X2.6212 Y-0.6805
N4425 X2.5746 Y-0.7031
N4430 X2.5263 Y-0.7218
N4435 X2.4768 Y-0.737
N4440 X2.4264 Y-0.749
N4445 G2 X2.221 Y-0.7742 I-0.2764 J1.4032
N4450 G1 X2.1693 Y-0.777
N4455 X2.1176 Y-0.7789
N4460 G2 X1.6515 Y-0.783 I-0.3918 J17.9475
N4465 G1 X1.4444 Y-0.7831
N4470 X0.7194
N4475 G2 X0.5123 Y-0.7801 I-0.0405 J4.3317
N4480 G1 X0.4608 Y-0.7753
N4485 X0.4096 Y-0.7669
N4490 X0.3595 Y-0.7541
N4495 X0.3109 Y-0.7363
N4500 X0.2645 Y-0.7133
N4505 X0.2209 Y-0.6853
N4510 X0.1807 Y-0.6526
N4515 X0.1443 Y-0.6158
N4520 X0.1119 Y-0.5754
N4525 X0.0837 Y-0.532
N4530 X0.0596 Y-0.4862
N4535 X0.0394 Y-0.4385
N4540 X0.023 Y-0.3894
N4545 X0.01 Y-0.3392
N4550 X0.0004 Y-0.2883
N4555 X-0.0057 Y-0.2369
N4560 X-0.0078 Y-0.1852
N4565 X-0.0054 Y-0.1334
N4570 X0.0023 Y-0.0822
N4575 X0.0155 Y-0.0322
N4580 X0.0344 Y0.016
N4585 X0.0588 Y0.0617
N4590 X0.0884 Y0.1043
N4595 X0.1226 Y0.1431
N4600 X0.1609 Y0.178
N4605 X0.2026 Y0.2086
N4610 X0.2472 Y0.235
N4615 X0.2939 Y0.2574
N4620 X0.3423 Y0.2758
N4625 X0.3919 Y0.2908
N4630 G2 X0.5961 Y0.3239 I0.2907 J-1.1452
N4635 X0.9065 Y0.3353 I0.3029 J-4.0318
N4640 X1.269 Y0.3367 I0.2907 J-27.0962
N4645 G1 X1.5279 Y0.3369
N4650 X2.0975
N4655 G2 X2.3046 Y0.3347 I0.0429 J-5.7634
N4660 G1 X2.3563 Y0.3308
N4665 X2.4076 Y0.3238
N4670 X2.4581 Y0.3125
N4675 X2.5073 Y0.2963
N4680 X2.5545 Y0.2749
N4685 X2.5991 Y0.2486
N4690 X2.6404 Y0.2175
N4695 X2.6782 Y0.182
N4700 X2.712 Y0.1427
N4705 X2.7416 Y0.1003
N4710 X2.7671 Y0.0552
N4715 X2.7885 Y0.0081
N4720 X2.8061 Y-0.0406
N4725 X2.8201 Y-0.0905
N4730 X2.8304 Y-0.1413
N4735 X2.837 Y-0.1926
N4740 X2.8393 Y-0.2444
N4745 X2.8366 Y-0.2961
N4750 X2.8284 Y-0.3472
N4755 X2.8146 Y-0.3971
N4760 X2.795 Y-0.4451
N4765 X2.7699 Y-0.4904
N4770 X2.7397 Y-0.5324
N4775 X2.7048 Y-0.5707
N4780 X2.6659 Y-0.6049
N4785 X2.6237 Y-0.6349
N4790 X2.5788 Y-0.6606
N4795 X2.5317 Y-0.6822
N4800 X2.4831 Y-0.7
N4805 X2.4333 Y-0.7144
N4810 G2 X2.2289 Y-0.7459 I-0.2884 J1.1901
N4815 X1.9184 Y-0.7566 I-0.3018 J4.247
N4820 X1.6077 Y-0.758 I-0.2717 J26.0562
N4825 G1 X1.4006 Y-0.7581
N4830 X0.9863
N4835 X0.7792
N4840 G2 X0.572 Y-0.7562 I-0.0436 J6.5956
N4845 G1 X0.5204 Y-0.7529
N4850 X0.4689 Y-0.7467
N4855 X0.4182 Y-0.7365
N4860 X0.3686 Y-0.7215
N4865 X0.3208 Y-0.7016
N4870 X0.2754 Y-0.6766
N4875 X0.2331 Y-0.6468
N4880 X0.1942 Y-0.6126
N4885 X0.1592 Y-0.5745
N4890 X0.1283 Y-0.5329
N4895 X0.1015 Y-0.4886
N4900 X0.0788 Y-0.4421
N4905 X0.0601 Y-0.3938
N4910 X0.0453 Y-0.3441
N4915 X0.0345 Y-0.2935
N4920 X0.0279 Y-0.2421
N4925 X0.0263 Y-0.1904
N4930 X0.0299 Y-0.1387
N4935 X0.0392 Y-0.0878
N4940 X0.0544 Y-0.0382
N4945 X0.0753 Y0.0091
N4950 X0.1018 Y0.0536
N4955 X0.1332 Y0.0948
N4960 X0.1692 Y0.132
N4965 X0.2089 Y0.1652
N4970 X0.2519 Y0.1942
N4975 X0.2973 Y0.219
N4980 X0.3448 Y0.2397
N4985 X0.3937 Y0.2567
N4990 X0.4437 Y0.2703
N4995 X0.4943 Y0.2811
N5000 G2 X0.7001 Y0.3036 I0.2786 J-1.5905
N5005 X1.0625 Y0.3111 I0.3248 J-6.9948
N5010 G1 X1.1142 Y0.3115
N5015 X1.166 Y0.3116
N5020 X1.2696 Y0.3118
N5025 X1.4767
N5030 X2.0464 Y0.3119
N5035 G2 X2.2535 Y0.3102 I0.0435 J-7.493
N5040 G1 X2.3052 Y0.3072
N5045 X2.3567 Y0.3016
N5050 X2.4076 Y0.292
N5055 X2.4574 Y0.2779
N5060 X2.5055 Y0.2588
N5065 X2.5513 Y0.2347
N5070 X2.5942 Y0.2057
N5075 X2.6337 Y0.1722
N5080 X2.6694 Y0.1346
N5085 X2.701 Y0.0936
N5090 X2.7285 Y0.0497
N5095 X2.7519 Y0.0035
N5100 X2.7711 Y-0.0446
N5105 X2.7862 Y-0.0941
N5110 X2.797 Y-0.1447
N5115 X2.803 Y-0.1962
N5120 X2.8038 Y-0.248
N5125 X2.799 Y-0.2995
N5130 X2.7882 Y-0.3502
N5135 X2.7714 Y-0.3992
N5140 X2.7488 Y-0.4458
N5145 X2.7208 Y-0.4893
N5150 X2.6879 Y-0.5293
N5155 X2.6506 Y-0.5652
N5160 X2.6097 Y-0.597
N5165 X2.5659 Y-0.6246
N5170 X2.5197 Y-0.648
N5175 X2.4717 Y-0.6674
N5180 X2.4224 Y-0.6832
N5185 X2.3722 Y-0.6958
N5190 G2 X2.167 Y-0.7228 I-0.2844 J1.3659
N5195 X1.8047 Y-0.7321 I-0.3272 J5.6962
N5200 G1 X1.7529 Y-0.7326
N5205 X1.7011 Y-0.7328
N5210 X1.6493 Y-0.7329
N5215 X1.5457 Y-0.733
N5220 X1.3386 Y-0.7331
N5225 X0.8208
N5230 G2 X0.6136 Y-0.7314 I-0.0422 J7.3039
N5235 G1 X0.5619 Y-0.7285
N5240 X0.5104 Y-0.723
N5245 X0.4595 Y-0.7136
N5250 X0.4096 Y-0.6998
N5255 X0.3613 Y-0.6812
N5260 X0.3152 Y-0.6576
N5265 X0.272 Y-0.629
N5270 X0.2321 Y-0.596
N5275 X0.196 Y-0.5589
N5280 X0.1639 Y-0.5182
N5285 X0.136 Y-0.4746
N5290 X0.1123 Y-0.4286
N5295 X0.0929 Y-0.3806
N5300 X0.078 Y-0.331
N5305 X0.068 Y-0.2802
N5310 X0.0632 Y-0.2286
N5315 X0.0641 Y-0.1768
N5320 X0.0711 Y-0.1255
N5325 X0.0842 Y-0.0754
N5330 X0.1034 Y-0.0273
N5335 X0.1283 Y0.018
N5340 X0.1585 Y0.0601
N5345 X0.1934 Y0.0984
N5350 X0.2323 Y0.1326
N5355 X0.2745 Y0.1625
N5360 X0.3195 Y0.1882
N5365 X0.3665 Y0.2099
N5370 X0.4151 Y0.2277
N5375 X0.4649 Y0.2422
N5380 G2 X0.6693 Y0.274 I0.2903 J-1.1917
N5385 X0.9797 Y0.2852 I0.3067 J-4.1972
N5390 X1.4458 Y0.2868 I0.3671 J-38.1882
N5395 G1 X1.9636 Y0.2869
N5400 G2 X2.2225 Y0.285 I0.0644 J-9.2545
N5405 G1 X2.2742 Y0.2821
N5410 X2.3257 Y0.2763
N5415 X2.3766 Y0.2668
N5420 X2.4265 Y0.2528
N5425 X2.4747 Y0.234
N5430 X2.5206 Y0.2101
N5435 X2.5637 Y0.1814
N5440 X2.6034 Y0.1481
N5445 X2.6394 Y0.1109
N5450 X2.6713 Y0.0701
N5455 X2.6991 Y0.0264
N5460 X2.7224 Y-0.0199
N5465 X2.7411 Y-0.0681
N5470 X2.755 Y-0.118
N5475 X2.7636 Y-0.1691
N5480 X2.7663 Y-0.2208
N5485 X2.7629 Y-0.2725
N5490 X2.7531 Y-0.3233
N5495 X2.7371 Y-0.3726
N5500 X2.7151 Y-0.4195
N5505 X2.6875 Y-0.4633
N5510 X2.6548 Y-0.5034
N5515 X2.6177 Y-0.5396
N5520 X2.5769 Y-0.5715
N5525 X2.5331 Y-0.5991
N5530 X2.4869 Y-0.6225
N5535 X2.4389 Y-0.6419
N5540 X2.3896 Y-0.6577
N5545 X2.3394 Y-0.6704
N5550 G2 X2.1342 Y-0.6976 I-0.2845 J1.3552
N5555 G1 X2.0825 Y-0.7008
N5560 G2 X1.6684 Y-0.7075 I-0.3539 J9.0513
N5565 G1 X1.5648 Y-0.708
N5570 X1.4094 Y-0.7081
N5575 X0.9434
N5580 G2 X0.6327 Y-0.706 I-0.0794 J11.0872
N5585 G1 X0.581 Y-0.7023
N5590 X0.5296 Y-0.696
N5595 X0.4789 Y-0.6858
N5600 X0.4292 Y-0.6711
N5605 X0.3813 Y-0.6515
N5610 X0.3357 Y-0.627
N5615 X0.293 Y-0.5977
N5620 X0.2537 Y-0.5639
N5625 X0.2182 Y-0.5262
N5630 X0.1869 Y-0.485
N5635 X0.1599 Y-0.4408
N5640 X0.1376 Y-0.3941
N5645 X0.1203 Y-0.3453
N5650 X0.1086 Y-0.2948
N5655 X0.1028 Y-0.2433
N5660 X0.1034 Y-0.1916
N5665 X0.1104 Y-0.1403
N5670 X0.124 Y-0.0903
N5675 X0.1439 Y-0.0425
N5680 X0.1696 Y0.0025
N5685 X0.2006 Y0.0439
N5690 X0.2363 Y0.0815
N5695 X0.2759 Y0.1148
N5700 X0.3188 Y0.1439
N5705 X0.3642 Y0.1687
N5710 X0.4117 Y0.1894
N5715 X0.4606 Y0.2063
N5720 X0.5106 Y0.22
N5725 G2 X0.7154 Y0.2498 I0.2899 J-1.2696
N5730 X1.0258 Y0.2603 I0.3065 J-4.4914
N5735 G1 X1.1812 Y0.2613
N5740 X1.3365 Y0.2619
N5745 X1.4919 Y0.262
N5750 X1.6472 Y0.2617
N5755 X2.0097 Y0.2618
N5760 G2 X2.2168 Y0.2587 I0.0371 J-4.4074
N5765 G1 X2.2684 Y0.2544
N5770 X2.3197 Y0.247
N5775 X2.3702 Y0.2356
N5780 X2.4194 Y0.2194
N5785 X2.4667 Y0.1983
N5790 X2.5115 Y0.1724
N5795 X2.5532 Y0.1417
N5800 X2.5914 Y0.1068
N5805 X2.6256 Y0.0679
N5810 X2.6555 Y0.0256
N5815 X2.6806 Y-0.0197
N5820 X2.7007 Y-0.0675
N5825 X2.7151 Y-0.1172
N5830 X2.7234 Y-0.1683
N5835 X2.7251 Y-0.2201
N5840 X2.7201 Y-0.2716
N5845 X2.7084 Y-0.322
N5850 X2.6901 Y-0.3705
N5855 X2.6658 Y-0.4162
N5860 X2.6359 Y-0.4585
N5865 X2.6012 Y-0.4969
N5870 X2.5623 Y-0.5311
N5875 X2.5199 Y-0.5609
N5880 X2.4749 Y-0.5864
N5885 X2.4277 Y-0.6079
N5890 X2.379 Y-0.6255
N5895 X2.3292 Y-0.6396
N5900 X2.2786 Y-0.6507
N5905 G2 X2.073 Y-0.6742 I-0.2809 J1.5468
N5910 X1.7106 Y-0.6822 I-0.3286 J6.6661
N5915 G1 X1.5898 Y-0.6829
N5920 X1.469 Y-0.6831
N5925 X1.3481
N5930 X0.9339
N5935 G2 X0.675 Y-0.6811 I-0.0617 J8.8275
N5940 G1 X0.6233 Y-0.6781
N5945 X0.5718 Y-0.6726
N5950 X0.5208 Y-0.6634
N5955 X0.4708 Y-0.6499
N5960 X0.4224 Y-0.6316
N5965 X0.376 Y-0.6085
N5970 X0.3325 Y-0.5805
N5975 X0.2922 Y-0.5479
N5980 X0.2558 Y-0.5111
N5985 X0.2237 Y-0.4705
N5990 X0.1963 Y-0.4265
N5995 X0.1741 Y-0.3797
N6000 X0.1579 Y-0.3305
N6005 X0.1482 Y-0.2797
N6010 X0.1452 Y-0.228
N6015 X0.1492 Y-0.1764
N6020 X0.1602 Y-0.1257
N6025 X0.1778 Y-0.0771
N6030 X0.2018 Y-0.0311
N6035 X0.2313 Y0.0114
N6040 X0.2659 Y0.05
N6045 X0.3046 Y0.0843
N6050 X0.3469 Y0.1142
N6055 X0.3919 Y0.1398
N6060 X0.4391 Y0.1612
N6065 X0.4878 Y0.1788
N6070 X0.5376 Y0.193
N6075 G2 X0.7421 Y0.2242 I0.2893 J-1.2099
N6080 X1.0526 Y0.2352 I0.3083 J-4.3192
N6085 G1 X1.182 Y0.2362
N6090 X1.3115 Y0.2368
N6095 X1.441 Y0.237
N6100 X1.5704 Y0.2367
N6105 X1.9329 Y0.2369
N6110 G2 X2.1918 Y0.2334 I0.0539 J-5.6509
N6115 G1 X2.2434 Y0.2287
N6120 X2.2945 Y0.2209
N6125 X2.345 Y0.209
N6130 X2.3941 Y0.1926
N6135 X2.4412 Y0.1712
N6140 X2.4859 Y0.1449
N6145 X2.5273 Y0.1139
N6150 X2.5651 Y0.0785
N6155 X2.5987 Y0.0391
N6160 X2.6273 Y-0.0041
N6165 X2.6504 Y-0.0504
N6170 X2.6673 Y-0.0994
N6175 X2.6775 Y-0.1502
N6180 X2.6805 Y-0.2019
N6185 X2.6763 Y-0.2535
N6190 X2.6649 Y-0.304
N6195 X2.6467 Y-0.3525
N6200 X2.6221 Y-0.398
N6205 X2.5919 Y-0.4401
N6210 X2.5568 Y-0.4781
N6215 X2.5174 Y-0.5118
N6220 X2.4747 Y-0.5411
N6225 X2.4293 Y-0.566
N6230 X2.3819 Y-0.5867
N6235 X2.3329 Y-0.6036
N6240 X2.2829 Y-0.6171
N6245 X2.2322 Y-0.6276
N6250 G2 X2.0264 Y-0.6498 I-0.2791 J1.6265
N6255 X1.664 Y-0.6573 I-0.3283 J7.1271
N6260 G1 X1.5432 Y-0.6579
N6265 X1.4224 Y-0.6581
N6270 X1.3015
N6275 X0.9391
N6280 G2 X0.6802 Y-0.6549 I-0.0543 J6.0715
N6285 G1 X0.6286 Y-0.6506
N6290 X0.5773 Y-0.6435
N6295 X0.5267 Y-0.6324
N6300 X0.4773 Y-0.6168
N6305 X0.4297 Y-0.5963
N6310 X0.3846 Y-0.5709
N6315 X0.3425 Y-0.5407
N6320 X0.3042 Y-0.5059
N6325 X0.2704 Y-0.4667
N6330 X0.2417 Y-0.4236
N6335 X0.219 Y-0.377
N6340 X0.2029 Y-0.3278
N6345 X0.194 Y-0.2768
N6350 X0.1925 Y-0.225
N6355 X0.1985 Y-0.1736
N6360 X0.2119 Y-0.1236
N6365 X0.2321 Y-0.0759
N6370 X0.2585 Y-0.0314
N6375 X0.2905 Y0.0093
N6380 X0.3273 Y0.0458
N6385 X0.368 Y0.0778
N6390 X0.4119 Y0.1053
N6395 X0.4582 Y0.1285
N6400 X0.5063 Y0.1477
N6405 X0.5557 Y0.1632
N6410 X0.606 Y0.1755
N6415 G2 X0.8113 Y0.2016 I0.283 J-1.405
N6420 X1.1736 Y0.2108 I0.332 J-5.9462
N6425 X1.5361 Y0.2118 I0.2869 J-36.7733
N6430 G1 X1.7433 Y0.2119
N6435 G2 X2.1057 Y0.2105 I0.1033 J-21.5187
N6440 G1 X2.1575 Y0.2082
N6445 X2.2091 Y0.204
N6450 X2.2603 Y0.1965
N6455 X2.3108 Y0.1851
N6460 X2.3601 Y0.1692
N6465 X2.4075 Y0.1484
N6470 X2.4524 Y0.1225
N6475 X2.494 Y0.0917
N6480 X2.5317 Y0.0562
N6485 X2.5645 Y0.0161
N6490 X2.5916 Y-0.028
N6495 X2.6121 Y-0.0756
N6500 X2.6253 Y-0.1256
N6505 X2.631 Y-0.1771
N6510 X2.6288 Y-0.2288
N6515 X2.619 Y-0.2797
N6520 X2.6019 Y-0.3286
N6525 X2.5781 Y-0.3746
N6530 X2.5484 Y-0.417
N6535 X2.5135 Y-0.4552
N6540 X2.4743 Y-0.4891
N6545 X2.4316 Y-0.5183
N6550 X2.3861 Y-0.5431
N6555 X2.3386 Y-0.5636
N6560 X2.2895 Y-0.5802
N6565 X2.2394 Y-0.5934
N6570 G2 X2.0345 Y-0.6219 I-0.285 J1.2992
N6575 G1 X1.9828 Y-0.6253
N6580 X1.9311 Y-0.6276
N6585 G2 X1.5169 Y-0.6326 I-0.3539 J12.0326
N6590 G1 X1.4133 Y-0.633
N6595 X1.2061 Y-0.6331
N6600 X0.9472
N6605 G2 X0.7401 Y-0.6311 I-0.0375 J6.7398
N6610 G1 X0.6884 Y-0.6281
N6615 X0.6369 Y-0.6228
N6620 X0.5858 Y-0.6142
N6625 X0.5357 Y-0.6014
N6630 X0.4869 Y-0.5838
N6635 X0.4403 Y-0.5613
N6640 X0.3965 Y-0.5337
N6645 X0.3565 Y-0.5008
N6650 X0.3211 Y-0.463
N6655 X0.2914 Y-0.4206
N6660 X0.2684 Y-0.3742
N6665 X0.2528 Y-0.3248
N6670 X0.245 Y-0.2736
N6675 X0.2453 Y-0.2218
N6680 X0.2536 Y-0.1707
N6685 X0.2694 Y-0.1214
N6690 X0.2921 Y-0.0749
N6695 X0.3211 Y-0.032
N6700 X0.3554 Y0.0068
N6705 X0.3942 Y0.0411
N6710 X0.4367 Y0.0707
N6715 X0.482 Y0.0958
N6720 X0.5294 Y0.1166
N6725 X0.5784 Y0.1335
N6730 X0.6284 Y0.1469
N6735 G2 X0.8333 Y0.1755 I0.2822 J-1.2722
N6740 X1.1438 Y0.1853 I0.307 J-4.8099
N6745 G1 X1.2992 Y0.1864
N6750 X1.4545 Y0.1869
N6755 X1.6099 Y0.1868
N6760 X1.8688
N6765 G2 X2.1277 Y0.1833 I0.0503 J-5.7786
N6770 G1 X2.1793 Y0.1788
N6775 X2.2305 Y0.1714
N6780 X2.281 Y0.16
N6785 X2.3303 Y0.1442
N6790 X2.3777 Y0.1233
N6795 X2.4224 Y0.097
N6800 X2.4633 Y0.0654
N6805 X2.4995 Y0.0283
N6810 X2.5297 Y-0.0138
N6815 X2.5529 Y-0.0601
N6820 X2.5684 Y-0.1095
N6825 X2.5756 Y-0.1608
N6830 X2.5746 Y-0.2125
N6835 X2.5654 Y-0.2635
N6840 X2.5487 Y-0.3125
N6845 X2.5249 Y-0.3585
N6850 X2.4949 Y-0.4007
N6855 X2.4596 Y-0.4386
N6860 X2.4199 Y-0.4718
N6865 X2.3766 Y-0.5003
N6870 X2.3307 Y-0.5243
N6875 X2.2828 Y-0.544
N6880 X2.2335 Y-0.5598
N6885 X2.1832 Y-0.5721
N6890 G2 X1.9779 Y-0.5982 I-0.2793 J1.3793
N6895 X1.6156 Y-0.6071 I-0.3294 J6.0417
N6900 X1.3567 Y-0.608 I-0.209 J23.0219
N6905 G1 X1.1495 Y-0.6081
N6910 G2 X0.7871 Y-0.6066 I-0.1036 J19.1189
N6915 G1 X0.7353 Y-0.6041
N6920 X0.6837 Y-0.5998
N6925 X0.6325 Y-0.5925
N6930 X0.5819 Y-0.5811
N6935 X0.5327 Y-0.5651
N6940 X0.4854 Y-0.544
N6945 X0.4411 Y-0.5171
N6950 X0.401 Y-0.4844
N6955 X0.3663 Y-0.4459
N6960 X0.3383 Y-0.4024
N6965 X0.318 Y-0.3547
N6970 X0.306 Y-0.3044
N6975 X0.3026 Y-0.2527
N6980 X0.3076 Y-0.2012
N6985 X0.3208 Y-0.1511
N6990 X0.3414 Y-0.1036
N6995 X0.3688 Y-0.0596
N7000 X0.4021 Y-0.0199
N7005 X0.4401 Y0.0152
N7010 X0.4821 Y0.0455
N7015 X0.5271 Y0.0711
N7020 X0.5744 Y0.0923
N7025 X0.6233 Y0.1093
N7030 X0.6733 Y0.1227
N7035 G2 X0.8783 Y0.151 I0.2795 J-1.2681
N7040 X1.1888 Y0.1604 I0.3045 J-4.915
N7045 X1.4995 Y0.1617 I0.2792 J-28.7459
N7050 G1 X1.7066 Y0.1618
N7055 G2 X2.0691 Y0.1597 I0.1008 J-13.4614
N7060 G1 X2.1208 Y0.1563
N7065 X2.1723 Y0.1508
N7070 X2.2233 Y0.1418
N7075 X2.2733 Y0.1285
N7080 X2.3217 Y0.11
N7085 X2.3674 Y0.0857
N7090 X2.4092 Y0.0551
N7095 X2.4455 Y0.0182
N7100 X2.4751 Y-0.0243
N7105 X2.4967 Y-0.0714
N7110 X2.5099 Y-0.1214
N7115 X2.5142 Y-0.1731
N7120 X2.5098 Y-0.2246
N7125 X2.4969 Y-0.2748
N7130 X2.4765 Y-0.3224
N7135 X2.4491 Y-0.3663
N7140 X2.4158 Y-0.406
N7145 X2.3775 Y-0.4409
N7150 X2.3353 Y-0.4709
N7155 X2.2901 Y-0.4962
N7160 X2.2426 Y-0.5168
N7165 X2.1936 Y-0.5334
N7170 X2.1434 Y-0.5463
N7175 G2 X1.9382 Y-0.5732 I-0.2754 J1.3047
N7180 X1.6277 Y-0.5819 I-0.311 J5.5424
N7185 G1 X1.4335 Y-0.5828
N7190 X1.2393 Y-0.5832
N7195 X1.0451 Y-0.5831
N7200 X0.8509 Y-0.5824
N7205 X0.7992 Y-0.5808
N7210 X0.7475 Y-0.5779
N7215 X0.696 Y-0.5726
N7220 X0.6449 Y-0.5639
N7225 X0.5948 Y-0.5509
N7230 X0.5464 Y-0.5325
N7235 X0.501 Y-0.5075
N7240 X0.4602 Y-0.4756
N7245 X0.4256 Y-0.4371
N7250 X0.3986 Y-0.393
N7255 X0.38 Y-0.3446
N7260 X0.3704 Y-0.2937
N7265 X0.3699 Y-0.242
N7270 X0.3783 Y-0.1909
N7275 X0.3949 Y-0.1418
N7280 X0.419 Y-0.096
N7285 X0.4496 Y-0.0542
N7290 X0.4858 Y-0.0172
N7295 X0.5264 Y0.015
N7300 X0.5705 Y0.0421
N7305 X0.6172 Y0.0645
N7310 X0.6657 Y0.0825
N7315 X0.7156 Y0.0966
N7320 X0.7662 Y0.1075
N7325 G2 X0.9721 Y0.1292 I0.2679 J-1.5527
N7330 X1.3344 Y0.1361 I0.3252 J-7.6101
N7335 G1 X1.5243 Y0.1367
N7340 X1.7142 Y0.1369
N7345 X1.9041 Y0.1367
N7350 G2 X2.111 Y0.1296 I0.0242 J-2.3213
N7355 G1 X2.1623 Y0.1226
N7360 X2.213 Y0.1119
N7365 X2.2622 Y0.0957
N7370 X2.3086 Y0.0727
N7375 X2.3503 Y0.042
N7380 X2.3857 Y0.0042
N7385 X2.4132 Y-0.0396
N7390 X2.432 Y-0.0879
N7395 X2.4415 Y-0.1388
N7400 X2.4417 Y-0.1906
N7405 X2.4328 Y-0.2416
N7410 X2.4155 Y-0.2904
N7415 X2.3905 Y-0.3358
N7420 X2.3591 Y-0.3769
N7425 X2.3222 Y-0.4133
N7430 X2.2809 Y-0.4445
N7435 X2.2362 Y-0.4706
N7440 X2.189 Y-0.492
N7445 X2.1401 Y-0.509
N7450 X2.09 Y-0.5222
N7455 G2 X1.8848 Y-0.5488 I-0.268 J1.2633
N7460 X1.5743 Y-0.557 I-0.308 J5.7641
N7465 X1.3153 Y-0.558 I-0.2479 J32.2529
N7470 X0.8493 Y-0.5567 I-0.1539 J29.235
N7475 G1 X0.7976 Y-0.5541
N7480 X0.7459 Y-0.5499
N7485 X0.6947 Y-0.5426
N7490 X0.6443 Y-0.5308
N7495 X0.5959 Y-0.5121
N7500 X0.5517 Y-0.4852
N7505 X0.5136 Y-0.4502
N7510 X0.4831 Y-0.4083
N7515 X0.4614 Y-0.3613
N7520 X0.4493 Y-0.3109
N7525 X0.4468 Y-0.2592
N7530 X0.4537 Y-0.2079
N7535 X0.4694 Y-0.1586
N7540 X0.4931 Y-0.1125
N7545 X0.5235 Y-0.0706
N7550 X0.5598 Y-0.0337
N7555 X0.6007 Y-0.0019
N7560 X0.6451 Y0.0247
N7565 X0.6922 Y0.0464
N7570 X0.741 Y0.0635
N7575 X0.7911 Y0.0767
N7580 X0.8419 Y0.0867
N7585 G2 X1.0481 Y0.1057 I0.2569 J-1.6632
N7590 X1.2551 Y0.1104 I0.2398 J-5.9241
N7595 G1 X1.4234 Y0.1114
N7600 X1.5917 Y0.1119
N7605 X1.76 Y0.1118
N7610 X1.9283 Y0.1113
N7615 X1.9801 Y0.1103
N7620 X2.0318 Y0.1082
N7625 X2.0835 Y0.1042
N7630 X2.1347 Y0.0969
N7635 X2.185 Y0.0843
N7640 X2.2322 Y0.063
N7645 X2.2741 Y0.0326
N7650 X2.3088 Y-0.0058
N7655 X2.3348 Y-0.0506
N7660 X2.3513 Y-0.0997
N7665 X2.3578 Y-0.1511
N7670 X2.3545 Y-0.2027
N7675 X2.3418 Y-0.253
N7680 X2.3208 Y-0.3003
N7685 X2.2923 Y-0.3435
N7690 X2.2576 Y-0.382
N7695 X2.2179 Y-0.4152
N7700 X2.1743 Y-0.443
N7705 X2.1277 Y-0.4657
N7710 X2.0791 Y-0.4837
N7715 X2.0292 Y-0.4975
N7720 X1.9785 Y-0.5078
N7725 G2 X1.7724 Y-0.5271 I-0.2533 J1.5969
N7730 X1.3582 Y-0.5326 I-0.3447 J10.4264
N7735 X0.8921 Y-0.5319 I-0.1924 J26.3939
N7740 G1 X0.8404 Y-0.5297
N7745 X0.7887 Y-0.5261
N7750 X0.7374 Y-0.5191
N7755 X0.6878 Y-0.5043
N7760 X0.6425 Y-0.4792
N7765 X0.6038 Y-0.4448
N7770 X0.5735 Y-0.4028
N7775 X0.5528 Y-0.3554
N7780 X0.5423 Y-0.3046
N7785 X0.5421 Y-0.2529
N7790 X0.5516 Y-0.2019
N7795 X0.5701 Y-0.1536
N7800 X0.5964 Y-0.109
N7805 X0.6296 Y-0.0692
N7810 X0.6682 Y-0.0347
N7815 X0.711 Y-0.0056
N7820 X0.7571 Y0.018
N7825 X0.8054 Y0.0367
N7830 X0.8551 Y0.0511
N7835 X0.9058 Y0.0617
N7840 X0.957 Y0.0694
N7845 X1.0085 Y0.0748
N7850 G2 X1.319 Y0.0854 I0.2933 J-4.0553
N7855 X1.9404 Y0.0857 I0.3276 J-34.8271
N7860 G1 X1.9921 Y0.0836
N7865 X2.0438 Y0.0799
N7870 G2 X2.2442 Y-0.1543 I-0.0329 J-0.231
N7875 G1 X2.2406 Y-0.206
N7880 X2.2261 Y-0.2557
N7885 X2.203 Y-0.3021
N7890 X2.1724 Y-0.3438
N7895 X2.1357 Y-0.3804
N7900 X2.0941 Y-0.4112
N7905 X2.0489 Y-0.4365
N7910 X2.0011 Y-0.4564
N7915 X1.9516 Y-0.4717
N7920 X1.9011 Y-0.4829
N7925 X1.8499 Y-0.4909
N7930 X1.7985 Y-0.4965
N7935 G2 X1.5398 Y-0.5064 I-0.2603 J3.4349
N7940 X0.9184 Y-0.5068 I-0.3313 J30.5957
N7945 G1 X0.8666 Y-0.5045
N7950 G2 X0.6783 Y-0.1769 I0.0245 J0.232
N7955 G1 X0.7021 Y-0.1309
N7960 X0.7343 Y-0.0904
N7965 X0.7723 Y-0.0553
N7970 X0.8149 Y-0.0258
N7975 X0.861 Y-0.0021
N7980 X0.9093 Y0.0164
N7985 X0.9592 Y0.0303
N7990 X1.01 Y0.0404
N7995 G2 X1.2163 Y0.0575 I0.2354 J-1.584
N8000 G1 X1.2681 Y0.0591
N8005 X1.2939 Y0.059
N8010 X1.3433
N8015 X1.5505 Y0.0594
N8020 G2 X1.9129 Y0.0582 I0.1111 J-21.5986
N8025 X2.0296 Y0.0055 I-0.0355 J-0.2341
N8030 X2.06 Y-0.3203 I-0.1505 J-0.1784
N8035 G1 X2.0251 Y-0.3586
N8040 X1.9831 Y-0.3889
N8045 X1.9376 Y-0.4137
N8050 X1.8896 Y-0.433
N8055 X1.8399 Y-0.4477
N8060 X1.7893 Y-0.4584
N8065 G2 X1.5831 Y-0.4765 I-0.2338 J1.4736
N8070 X1.2724 Y-0.4805 I-0.2857 J10.2612
N8075 X1.0135 Y-0.4802 I-0.1093 J22.5533
N8080 X0.9023 Y-0.066 I0.0332 J0.231
N8085 G1 X0.9447 Y-0.0363
N8090 X0.9954 Y-0.015
N8095 X1.045 Y0.0002
N8100 X1.0955 Y0.0113
N8105 X1.1467 Y0.0191
N8110 G2 X1.3534 Y0.0304 I0.2057 J-1.8736
N8115 X1.7095 Y0.0321 I0.2801 J-21.2711
N8120 G3 X1.7381 Y0.0424 I-0.0017 J0.05
N8125 G1 X1.7426 Y0.0458 Z0.1628
N8130 X1.747 Y0.0491 Z0.1637
N8135 X1.7512 Y0.0524 Z0.1653
N8140 X1.7554 Y0.0555 Z0.1674
N8145 X1.7593 Y0.0585 Z0.1701
N8150 X1.7629 Y0.0613 Z0.1734
N8155 X1.7662 Y0.0638 Z0.1771
N8160 X1.7692 Y0.0661 Z0.1813
N8165 X1.7718 Y0.068 Z0.1859
N8170 X1.7739 Y0.0697 Z0.1908
N8175 X1.7756 Y0.071 Z0.196
N8180 X1.7769 Y0.0719 Z0.2014
N8185 X1.7776 Y0.0725 Z0.2069
N8190 X1.7779 Y0.0727 Z0.2125
N8195 G0 Z0.6075
N8200 G1 X0.9556 Y-0.0649 F500.
N8205 G0 Z0.2912
N8210 G1 Z0.1625 F69.
N8215 G2 X0.9477 Y-0.035 I0.1331 J0.0512
N8220 G1 X0.9673 Y-0.0811
N8225 X1.0138 Y-0.0582
N8230 X1.0622 Y-0.04
N8235 X1.1121 Y-0.0261
N8240 X1.1629 Y-0.0159
N8245 G2 X1.3691 Y0.0014 I0.2298 J-1.5045
N8250 X1.5924 Y0.0045 I0.2154 J-7.4771
N8255 G3 X1.621 Y0.0149 I-0.0019 J0.05
N8260 G1 X1.6255 Y0.0183 Z0.1628
N8265 X1.6299 Y0.0217 Z0.1637
N8270 X1.6341 Y0.025 Z0.1653
N8275 X1.6382 Y0.0282 Z0.1674
N8280 X1.6421 Y0.0311 Z0.1701
N8285 X1.6457 Y0.0339 Z0.1734
N8290 X1.6491 Y0.0365 Z0.1771
N8295 X1.652 Y0.0388 Z0.1813
N8300 X1.6546 Y0.0407 Z0.1859
N8305 X1.6567 Y0.0424 Z0.1908
N8310 X1.6584 Y0.0437 Z0.196
N8315 X1.6597 Y0.0447 Z0.2014
N8320 X1.6604 Y0.0452 Z0.2069
N8325 X1.6607 Y0.0454 Z0.2125
N8330 G0 Z1.0075

(Face3)
N8335 S8000 M3
N8340 G1 X3.2238 Y-0.1691 F500.
N8345 G0 Z1.0075
N8350 Z0.6075
N8355 G1 Z0.2075 F10.
N8360 X3.2236 Y-0.1693 Z0.2019 F30.
N8365 X3.223 Y-0.17 Z0.1964
N8370 X3.2219 Y-0.1711 Z0.191
N8375 X3.2203 Y-0.1726 Z0.1858
N8380 X3.2184 Y-0.1745 Z0.1809
N8385 X3.2161 Y-0.1768 Z0.1763
N8390 X3.2135 Y-0.1794 Z0.1721
N8395 X3.2105 Y-0.1824 Z0.1684
N8400 X3.2073 Y-0.1856 Z0.1651
N8405 X3.2038 Y-0.1891 Z0.1624
N8410 X3.2002 Y-0.1927 Z0.1603
N8415 X3.1963 Y-0.1966 Z0.1587
N8420 X3.1924 Y-0.2005 Z0.1578
N8425 X3.1885 Y-0.2044 Z0.1575
N8430 X2.356 Y-1.0369
N8435 X2.1193 Y-1.2736
N8440 G2 X1.8826 Y-1.0369 I-0.1184 J0.1184
N8445 G1 X3.185 Y0.2655
N8450 G3 X2.9483 Y0.5022 I-0.1184 J0.1184
N8455 G1 X1.4092 Y-1.0369
N8460 X1.1725 Y-1.2736
N8465 G2 X0.9358 Y-1.0369 I-0.1184 J0.1184
N8470 G1 X2.5883 Y0.6156
N8475 G3 X2.3516 Y0.8524 I-0.1184 J0.1184
N8480 G1 X2.1149 Y0.6156
N8485 X0.4623 Y-1.0369
N8490 X0.231 Y-1.2682
N8495 G2 X-0.0057 Y-1.0315 I-0.1184 J0.1184
N8500 G1 X1.6415 Y0.6156
N8505 G3 X1.4048 Y0.8524 I-0.1184 J0.1184
N8510 G1 X1.1681 Y0.6156
N8515 X-0.2424 Y-0.7948
N8520 G2 X-0.4791 Y-0.5581 I-0.1184 J0.1184
N8525 G1 X-0.3538 Y-0.4329
N8530 X0.6947 Y0.6156
N8535 X0.6986 Y0.6196 Z0.1578
N8540 X0.7025 Y0.6235 Z0.1587
N8545 X0.7063 Y0.6273 Z0.1603
N8550 X0.71 Y0.631 Z0.1624
N8555 X0.7135 Y0.6345 Z0.1651
N8560 X0.7167 Y0.6377 Z0.1684
N8565 X0.7197 Y0.6406 Z0.1721
N8570 X0.7223 Y0.6433 Z0.1763
N8575 X0.7246 Y0.6456 Z0.1809
N8580 X0.7265 Y0.6475 Z0.1858
N8585 X0.728 Y0.649 Z0.191
N8590 X0.7291 Y0.6501 Z0.1964
N8595 X0.7298 Y0.6508 Z0.2019
N8600 X0.73 Y0.651 Z0.2075
N8605 G0 Z1.0075

N8610 M5
N8615 M9
N8620 G53 G0 Z0.
N8625 X1.4173
N8630 G53 G0 Y0.
N8635 M30

%
