%
O01001
(Using high feed G1 F500. instead of G0.)
(T1 D=2.5 CR=0.125 TAPER=45deg - ZMIN=1.005 - face mill)
(T2 D=0.5 CR=0. - ZMIN=0.005 - flat end mill)
N10 G90 G17
N15 G20
N20 G53 G0 Z0.

(Face1)
N25 T1 M6
N30 S4500 M3
N35 G54
N40 G17 G90
N45 M8
N50 G1 X9.5402 Y1.3743 F500.
N55 G0 G43 Z1.61 H1
N60 T2
N65 G0 Z1.21
N70 G1 Z1.005 F13.123
N75 Y1.2504 F56.25
N80 Y-13.2504
N85 G0 Z1.21
N90 G1 X8.343 Y-13.375 F500.
N95 Z1.005 F13.123
N100 Y-13.2504 F56.25
N105 Y1.2504
N110 G0 Z1.21
N115 G1 X7.1457 Y1.375 F500.
N120 Z1.005 F13.123
N125 Y1.2504 F56.25
N130 Y-13.2504
N135 G0 Z1.21
N140 G1 X5.9484 Y-13.375 F500.
N145 Z1.005 F13.123
N150 Y-13.2504 F56.25
N155 Y1.2504
N160 G0 Z1.21
N165 G1 X4.7512 Y1.375 F500.
N170 Z1.005 F13.123
N175 Y1.2504 F56.25
N180 Y-13.2504
N185 G0 Z1.21
N190 G1 X3.5539 Y-13.375 F500.
N195 Z1.005 F13.123
N200 Y-13.2504 F56.25
N205 Y1.2504
N210 G0 Z1.21
N215 G1 X2.3566 Y1.375 F500.
N220 Z1.005 F13.123
N225 Y1.2504 F56.25
N230 Y-13.2504
N235 G0 Z1.21
N240 G1 X1.1594 Y-13.375 F500.
N245 Z1.005 F13.123
N250 Y-13.2504 F56.25
N255 Y1.2504
N260 G0 Z1.21
N265 G1 X-0.0379 Y1.375 F500.
N270 Z1.005 F13.123
N275 Y1.2504 F56.25
N280 Y-13.2504
N285 G0 Z1.21
N290 G1 X-1.2352 Y-13.375 F500.
N295 Z1.005 F13.123
N300 Y-13.2504 F56.25
N305 Y1.2504
N310 G0 Z1.21
N315 G1 X-2.4324 Y1.375 F500.
N320 Z1.005 F13.123
N325 Y1.2504 F56.25
N330 Y-13.2504
N335 G0 Z1.21
N340 G1 X-3.6297 Y-13.375 F500.
N345 Z1.005 F13.123
N350 Y-13.2504 F56.25
N355 Y1.2504
N360 G0 Z1.21
N365 G1 X-4.827 Y1.375 F500.
N370 Z1.005 F13.123
N375 Y1.2504 F56.25
N380 Y-13.2504
N385 G0 Z1.21
N390 G1 X-6.0242 Y-13.375 F500.
N395 Z1.005 F13.123
N400 Y-13.2504 F56.25
N405 Y1.2504
N410 G0 Z1.21
N415 G1 X-7.2215 Y1.375 F500.
N420 Z1.005 F13.123
N425 Y1.2504 F56.25
N430 Y-13.2504
N435 G0 Z1.21
N440 G1 X-8.4187 Y-13.375 F500.
N445 Z1.005 F13.123
N450 Y-13.2504 F56.25
N455 Y1.2504
N460 G0 Z1.61
N465 M9
N470 M5
N475 G53 G0 Z0.

(2D Contour1)
N480 M1
N485 T2 M6
N490 S4500 M3
N495 G54
N500 G17 G90
N505 M8
N510 G1 X-9.55 Y0.405 F500.
N515 G0 G43 Z1.61 H2
N520 T1
N525 G0 Z1.21
N530 G1 Z1.01 F50.
N535 G19 G2 Y0.355 Z0.96 J-0.05 K0. F101.25
N540 G1 Y0.305
N545 G17 G3 X-9.5 Y0.255 I0.05 J0.
N550 G1 X9.5
N555 G2 X9.755 Y0. I0. J-0.255
N560 G1 Y-12.
N565 G2 X9.5 Y-12.255 I-0.255 J0.
N570 G1 X-9.5
N575 G2 X-9.755 Y-12. I0. J0.255
N580 G1 Y0.
N585 G2 X-9.5 Y0.255 I0.255 J0.
N590 G3 X-9.45 Y0.305 I0. J0.05
N595 G1 Y0.355
N600 G19 G3 Y0.405 Z1.01 J0. K0.05
N605 G0 Z1.21
N610 X-9.55
N615 G1 Z0.96 F50.
N620 G2 Y0.355 Z0.91 J-0.05 K0. F101.25
N625 G1 Y0.305
N630 G17 G3 X-9.5 Y0.255 I0.05 J0.
N635 G1 X9.5
N640 G2 X9.755 Y0. I0. J-0.255
N645 G1 Y-12.
N650 G2 X9.5 Y-12.255 I-0.255 J0.
N655 G1 X-9.5
N660 G2 X-9.755 Y-12. I0. J0.255
N665 G1 Y0.
N670 G2 X-9.5 Y0.255 I0.255 J0.
N675 G3 X-9.45 Y0.305 I0. J0.05
N680 G1 Y0.355
N685 G19 G3 Y0.405 Z0.96 J0. K0.05
N690 G0 Z1.21
N695 X-9.55
N700 G1 Z0.91 F50.
N705 G2 Y0.355 Z0.86 J-0.05 K0. F101.25
N710 G1 Y0.305
N715 G17 G3 X-9.5 Y0.255 I0.05 J0.
N720 G1 X9.5
N725 G2 X9.755 Y0. I0. J-0.255
N730 G1 Y-12.
N735 G2 X9.5 Y-12.255 I-0.255 J0.
N740 G1 X-9.5
N745 G2 X-9.755 Y-12. I0. J0.255
N750 G1 Y0.
N755 G2 X-9.5 Y0.255 I0.255 J0.
N760 G3 X-9.45 Y0.305 I0. J0.05
N765 G1 Y0.355
N770 G19 G3 Y0.405 Z0.91 J0. K0.05
N775 G0 Z1.21
N780 X-9.55
N785 G1 Z0.86 F50.
N790 G2 Y0.355 Z0.81 J-0.05 K0. F101.25
N795 G1 Y0.305
N800 G17 G3 X-9.5 Y0.255 I0.05 J0.
N805 G1 X9.5
N810 G2 X9.755 Y0. I0. J-0.255
N815 G1 Y-12.
N820 G2 X9.5 Y-12.255 I-0.255 J0.
N825 G1 X-9.5
N830 G2 X-9.755 Y-12. I0. J0.255
N835 G1 Y0.
N840 G2 X-9.5 Y0.255 I0.255 J0.
N845 G3 X-9.45 Y0.305 I0. J0.05
N850 G1 Y0.355
N855 G19 G3 Y0.405 Z0.86 J0. K0.05
N860 G0 Z1.21
N865 X-9.55
N870 G1 Z0.81 F50.
N875 G2 Y0.355 Z0.76 J-0.05 K0. F101.25
N880 G1 Y0.305
N885 G17 G3 X-9.5 Y0.255 I0.05 J0.
N890 G1 X9.5
N895 G2 X9.755 Y0. I0. J-0.255
N900 G1 Y-12.
N905 G2 X9.5 Y-12.255 I-0.255 J0.
N910 G1 X-9.5
N915 G2 X-9.755 Y-12. I0. J0.255
N920 G1 Y0.
N925 G2 X-9.5 Y0.255 I0.255 J0.
N930 G3 X-9.45 Y0.305 I0. J0.05
N935 G1 Y0.355
N940 G19 G3 Y0.405 Z0.81 J0. K0.05
N945 G0 Z1.21
N950 X-9.55
N955 G1 Z0.76 F50.
N960 G2 Y0.355 Z0.71 J-0.05 K0. F101.25
N965 G1 Y0.305
N970 G17 G3 X-9.5 Y0.255 I0.05 J0.
N975 G1 X9.5
N980 G2 X9.755 Y0. I0. J-0.255
N985 G1 Y-12.
N990 G2 X9.5 Y-12.255 I-0.255 J0.
N995 G1 X-9.5
N1000 G2 X-9.755 Y-12. I0. J0.255
N1005 G1 Y0.
N1010 G2 X-9.5 Y0.255 I0.255 J0.
N1015 G3 X-9.45 Y0.305 I0. J0.05
N1020 G1 Y0.355
N1025 G19 G3 Y0.405 Z0.76 J0. K0.05
N1030 G0 Z1.21
N1035 X-9.55
N1040 G1 Z0.71 F50.
N1045 G2 Y0.355 Z0.66 J-0.05 K0. F101.25
N1050 G1 Y0.305
N1055 G17 G3 X-9.5 Y0.255 I0.05 J0.
N1060 G1 X9.5
N1065 G2 X9.755 Y0. I0. J-0.255
N1070 G1 Y-12.
N1075 G2 X9.5 Y-12.255 I-0.255 J0.
N1080 G1 X-9.5
N1085 G2 X-9.755 Y-12. I0. J0.255
N1090 G1 Y0.
N1095 G2 X-9.5 Y0.255 I0.255 J0.
N1100 G3 X-9.45 Y0.305 I0. J0.05
N1105 G1 Y0.355
N1110 G19 G3 Y0.405 Z0.71 J0. K0.05
N1115 G0 Z1.21
N1120 X-9.55
N1125 G1 Z0.66 F50.
N1130 G2 Y0.355 Z0.61 J-0.05 K0. F101.25
N1135 G1 Y0.305
N1140 G17 G3 X-9.5 Y0.255 I0.05 J0.
N1145 G1 X9.5
N1150 G2 X9.755 Y0. I0. J-0.255
N1155 G1 Y-12.
N1160 G2 X9.5 Y-12.255 I-0.255 J0.
N1165 G1 X-9.5
N1170 G2 X-9.755 Y-12. I0. J0.255
N1175 G1 Y0.
N1180 G2 X-9.5 Y0.255 I0.255 J0.
N1185 G3 X-9.45 Y0.305 I0. J0.05
N1190 G1 Y0.355
N1195 G19 G3 Y0.405 Z0.66 J0. K0.05
N1200 G0 Z1.21
N1205 X-9.55
N1210 G1 Z0.61 F50.
N1215 G2 Y0.355 Z0.56 J-0.05 K0. F101.25
N1220 G1 Y0.305
N1225 G17 G3 X-9.5 Y0.255 I0.05 J0.
N1230 G1 X9.5
N1235 G2 X9.755 Y0. I0. J-0.255
N1240 G1 Y-12.
N1245 G2 X9.5 Y-12.255 I-0.255 J0.
N1250 G1 X-9.5
N1255 G2 X-9.755 Y-12. I0. J0.255
N1260 G1 Y0.
N1265 G2 X-9.5 Y0.255 I0.255 J0.
N1270 G3 X-9.45 Y0.305 I0. J0.05
N1275 G1 Y0.355
N1280 G19 G3 Y0.405 Z0.61 J0. K0.05
N1285 G0 Z1.21
N1290 X-9.55
N1295 G1 Z0.56 F50.
N1300 G2 Y0.355 Z0.51 J-0.05 K0. F101.25
N1305 G1 Y0.305
N1310 G17 G3 X-9.5 Y0.255 I0.05 J0.
N1315 G1 X9.5
N1320 G2 X9.755 Y0. I0. J-0.255
N1325 G1 Y-12.
N1330 G2 X9.5 Y-12.255 I-0.255 J0.
N1335 G1 X-9.5
N1340 G2 X-9.755 Y-12. I0. J0.255
N1345 G1 Y0.
N1350 G2 X-9.5 Y0.255 I0.255 J0.
N1355 G3 X-9.45 Y0.305 I0. J0.05
N1360 G1 Y0.355
N1365 G19 G3 Y0.405 Z0.56 J0. K0.05
N1370 G0 Z1.21
N1375 X-9.55
N1380 G1 Z0.51 F50.
N1385 G2 Y0.355 Z0.46 J-0.05 K0. F101.25
N1390 G1 Y0.305
N1395 G17 G3 X-9.5 Y0.255 I0.05 J0.
N1400 G1 X9.5
N1405 G2 X9.755 Y0. I0. J-0.255
N1410 G1 Y-12.
N1415 G2 X9.5 Y-12.255 I-0.255 J0.
N1420 G1 X-9.5
N1425 G2 X-9.755 Y-12. I0. J0.255
N1430 G1 Y0.
N1435 G2 X-9.5 Y0.255 I0.255 J0.
N1440 G3 X-9.45 Y0.305 I0. J0.05
N1445 G1 Y0.355
N1450 G19 G3 Y0.405 Z0.51 J0. K0.05
N1455 G0 Z1.21
N1460 X-9.55
N1465 G1 Z0.46 F50.
N1470 G2 Y0.355 Z0.41 J-0.05 K0. F101.25
N1475 G1 Y0.305
N1480 G17 G3 X-9.5 Y0.255 I0.05 J0.
N1485 G1 X9.5
N1490 G2 X9.755 Y0. I0. J-0.255
N1495 G1 Y-12.
N1500 G2 X9.5 Y-12.255 I-0.255 J0.
N1505 G1 X-9.5
N1510 G2 X-9.755 Y-12. I0. J0.255
N1515 G1 Y0.
N1520 G2 X-9.5 Y0.255 I0.255 J0.
N1525 G3 X-9.45 Y0.305 I0. J0.05
N1530 G1 Y0.355
N1535 G19 G3 Y0.405 Z0.46 J0. K0.05
N1540 G0 Z1.21
N1545 X-9.55
N1550 G1 Z0.41 F50.
N1555 G2 Y0.355 Z0.36 J-0.05 K0. F101.25
N1560 G1 Y0.305
N1565 G17 G3 X-9.5 Y0.255 I0.05 J0.
N1570 G1 X9.5
N1575 G2 X9.755 Y0. I0. J-0.255
N1580 G1 Y-12.
N1585 G2 X9.5 Y-12.255 I-0.255 J0.
N1590 G1 X-9.5
N1595 G2 X-9.755 Y-12. I0. J0.255
N1600 G1 Y0.
N1605 G2 X-9.5 Y0.255 I0.255 J0.
N1610 G3 X-9.45 Y0.305 I0. J0.05
N1615 G1 Y0.355
N1620 G19 G3 Y0.405 Z0.41 J0. K0.05
N1625 G0 Z1.21
N1630 X-9.55
N1635 G1 Z0.36 F50.
N1640 G2 Y0.355 Z0.31 J-0.05 K0. F101.25
N1645 G1 Y0.305
N1650 G17 G3 X-9.5 Y0.255 I0.05 J0.
N1655 G1 X9.5
N1660 G2 X9.755 Y0. I0. J-0.255
N1665 G1 Y-12.
N1670 G2 X9.5 Y-12.255 I-0.255 J0.
N1675 G1 X-9.5
N1680 G2 X-9.755 Y-12. I0. J0.255
N1685 G1 Y0.
N1690 G2 X-9.5 Y0.255 I0.255 J0.
N1695 G3 X-9.45 Y0.305 I0. J0.05
N1700 G1 Y0.355
N1705 G19 G3 Y0.405 Z0.36 J0. K0.05
N1710 G0 Z1.21
N1715 X-9.55
N1720 G1 Z0.31 F50.
N1725 G2 Y0.355 Z0.26 J-0.05 K0. F101.25
N1730 G1 Y0.305
N1735 G17 G3 X-9.5 Y0.255 I0.05 J0.
N1740 G1 X9.5
N1745 G2 X9.755 Y0. I0. J-0.255
N1750 G1 Y-12.
N1755 G2 X9.5 Y-12.255 I-0.255 J0.
N1760 G1 X-9.5
N1765 G2 X-9.755 Y-12. I0. J0.255
N1770 G1 Y0.
N1775 G2 X-9.5 Y0.255 I0.255 J0.
N1780 G3 X-9.45 Y0.305 I0. J0.05
N1785 G1 Y0.355
N1790 G19 G3 Y0.405 Z0.31 J0. K0.05
N1795 G0 Z1.21
N1800 X-9.55
N1805 G1 Z0.26 F50.
N1810 G2 Y0.355 Z0.21 J-0.05 K0. F101.25
N1815 G1 Y0.305
N1820 G17 G3 X-9.5 Y0.255 I0.05 J0.
N1825 G1 X9.5
N1830 G2 X9.755 Y0. I0. J-0.255
N1835 G1 Y-12.
N1840 G2 X9.5 Y-12.255 I-0.255 J0.
N1845 G1 X-9.5
N1850 G2 X-9.755 Y-12. I0. J0.255
N1855 G1 Y0.
N1860 G2 X-9.5 Y0.255 I0.255 J0.
N1865 G3 X-9.45 Y0.305 I0. J0.05
N1870 G1 Y0.355
N1875 G19 G3 Y0.405 Z0.26 J0. K0.05
N1880 G0 Z1.21
N1885 X-9.55
N1890 G1 Z0.21 F50.
N1895 G2 Y0.355 Z0.16 J-0.05 K0. F101.25
N1900 G1 Y0.305
N1905 G17 G3 X-9.5 Y0.255 I0.05 J0.
N1910 G1 X9.5
N1915 G2 X9.755 Y0. I0. J-0.255
N1920 G1 Y-12.
N1925 G2 X9.5 Y-12.255 I-0.255 J0.
N1930 G1 X-9.5
N1935 G2 X-9.755 Y-12. I0. J0.255
N1940 G1 Y0.
N1945 G2 X-9.5 Y0.255 I0.255 J0.
N1950 G3 X-9.45 Y0.305 I0. J0.05
N1955 G1 Y0.355
N1960 G19 G3 Y0.405 Z0.21 J0. K0.05
N1965 G0 Z1.21
N1970 X-9.55
N1975 G1 Z0.16 F50.
N1980 G2 Y0.355 Z0.11 J-0.05 K0. F101.25
N1985 G1 Y0.305
N1990 G17 G3 X-9.5 Y0.255 I0.05 J0.
N1995 G1 X9.5
N2000 G2 X9.755 Y0. I0. J-0.255
N2005 G1 Y-12.
N2010 G2 X9.5 Y-12.255 I-0.255 J0.
N2015 G1 X-9.5
N2020 G2 X-9.755 Y-12. I0. J0.255
N2025 G1 Y0.
N2030 G2 X-9.5 Y0.255 I0.255 J0.
N2035 G3 X-9.45 Y0.305 I0. J0.05
N2040 G1 Y0.355
N2045 G19 G3 Y0.405 Z0.16 J0. K0.05
N2050 G0 Z1.21
N2055 X-9.55
N2060 G1 Z0.11 F50.
N2065 G2 Y0.355 Z0.06 J-0.05 K0. F101.25
N2070 G1 Y0.305
N2075 G17 G3 X-9.5 Y0.255 I0.05 J0.
N2080 G1 X9.5
N2085 G2 X9.755 Y0. I0. J-0.255
N2090 G1 Y-12.
N2095 G2 X9.5 Y-12.255 I-0.255 J0.
N2100 G1 X-9.5
N2105 G2 X-9.755 Y-12. I0. J0.255
N2110 G1 Y0.
N2115 G2 X-9.5 Y0.255 I0.255 J0.
N2120 G3 X-9.45 Y0.305 I0. J0.05
N2125 G1 Y0.355
N2130 G19 G3 Y0.405 Z0.11 J0. K0.05
N2135 G0 Z1.21
N2140 X-9.55
N2145 G1 Z0.0825 F50.
N2150 G2 Y0.355 Z0.0325 J-0.05 K0. F101.25
N2155 G1 Y0.305
N2160 G17 G3 X-9.5 Y0.255 I0.05 J0.
N2165 G1 X9.5
N2170 G2 X9.755 Y0. I0. J-0.255
N2175 G1 Y-0.4895
N2180 Z0.045
N2185 Y-1.2395
N2190 Z0.0325 F50.
N2195 Y-5.9949 F101.25
N2200 Z0.045
N2205 Y-6.7449
N2210 Z0.0325 F50.
N2215 Y-10.9631 F101.25
N2220 Z0.045
N2225 Y-11.7131
N2230 Z0.0325 F50.
N2235 Y-12. F101.25
N2240 G2 X9.5 Y-12.255 I-0.255 J0.
N2245 G1 X-9.5
N2250 G2 X-9.755 Y-12. I0. J0.255
N2255 G1 Y-11.7489
N2260 Z0.045
N2265 Y-10.9989
N2270 Z0.0325 F50.
N2275 Y-6.1046 F101.25
N2280 Z0.045
N2285 Y-5.3546
N2290 Z0.0325 F50.
N2295 Y-1.1051 F101.25
N2300 Z0.045
N2305 Y-0.3551
N2310 Z0.0325 F50.
N2315 Y0. F101.25
N2320 G2 X-9.5 Y0.255 I0.255 J0.
N2325 G3 X-9.45 Y0.305 I0. J0.05
N2330 G1 Y0.355
N2335 G19 G3 Y0.405 Z0.0825 J0. K0.05
N2340 G0 Z1.21
N2345 X-9.55
N2350 G1 Z0.055 F50.
N2355 G2 Y0.355 Z0.005 J-0.05 K0. F101.25
N2360 G1 Y0.305
N2365 G17 G3 X-9.5 Y0.255 I0.05 J0.
N2370 G1 X9.5
N2375 G2 X9.755 Y0. I0. J-0.255
N2380 G1 Y-0.4895
N2385 Z0.045
N2390 Y-1.2395
N2395 Z0.005 F50.
N2400 Y-5.9949 F101.25
N2405 Z0.045
N2410 Y-6.7449
N2415 Z0.005 F50.
N2420 Y-10.9631 F101.25
N2425 Z0.045
N2430 Y-11.7131
N2435 Z0.005 F50.
N2440 Y-12. F101.25
N2445 G2 X9.5 Y-12.255 I-0.255 J0.
N2450 G1 X-9.5
N2455 G2 X-9.755 Y-12. I0. J0.255
N2460 G1 Y-11.7489
N2465 Z0.045
N2470 Y-10.9989
N2475 Z0.005 F50.
N2480 Y-6.1046 F101.25
N2485 Z0.045
N2490 Y-5.3546
N2495 Z0.005 F50.
N2500 Y-1.1051 F101.25
N2505 Z0.045
N2510 Y-0.3551
N2515 Z0.005 F50.
N2520 Y0. F101.25
N2525 G2 X-9.5 Y0.255 I0.255 J0.
N2530 G3 X-9.45 Y0.305 I0. J0.05
N2535 G1 Y0.355
N2540 G19 G3 Y0.405 Z0.055 J0. K0.05
N2545 G0 Z1.61

(2D Contour1 2)
N2550 S7500 M3
N2555 G17
N2560 G1 X-9.55 Y0.4 F500.
N2565 G0 Z1.61
N2570 Z1.21
N2575 G1 Z0.055 F50.
N2580 G19 G2 Y0.35 Z0.005 J-0.05 K0. F67.5
N2585 G1 Y0.3
N2590 G17 G3 X-9.5 Y0.25 I0.05 J0.
N2595 G1 X9.5
N2600 G2 X9.75 Y0. I0. J-0.25
N2605 G1 Y-0.4895
N2610 Z0.045
N2615 Y-1.2395
N2620 Z0.005 F50.
N2625 Y-5.9949 F67.5
N2630 Z0.045
N2635 Y-6.7449
N2640 Z0.005 F50.
N2645 Y-10.9631 F67.5
N2650 Z0.045
N2655 Y-11.7131
N2660 Z0.005 F50.
N2665 Y-12. F67.5
N2670 G2 X9.5 Y-12.25 I-0.25 J0.
N2675 G1 X-9.5
N2680 G2 X-9.75 Y-12. I0. J0.25
N2685 G1 Y-11.7489
N2690 Z0.045
N2695 Y-10.9989
N2700 Z0.005 F50.
N2705 Y-6.1046 F67.5
N2710 Z0.045
N2715 Y-5.3546
N2720 Z0.005 F50.
N2725 Y-1.1051 F67.5
N2730 Z0.045
N2735 Y-0.3551
N2740 Z0.005 F50.
N2745 Y0. F67.5
N2750 G2 X-9.5 Y0.25 I0.25 J0.
N2755 G3 X-9.45 Y0.3 I0. J0.05
N2760 G1 Y0.35
N2765 G19 G3 Y0.4 Z0.055 J0. K0.05
N2770 G0 Z1.61

N2775 M5
N2780 M9
N2785 G53 G0 Z0.
N2790 X0.
N2795 G53 G0 Y0.
N2800 M30

%
