%
O01002
(Using high feed G1 F500. instead of G0.)
(T1 D=2.5 CR=0.125 TAPER=45deg - ZMIN=1.005 - face mill)
(T2 D=0.5 CR=0. - ZMIN=0.005 - flat end mill)
N10 G90 G17
N15 G20
N20 G53 G0 Z0.

(Face1)
N25 T1 M6
N30 S4500 M3
N35 G54
N40 G17 G90
N45 M8
N50 G1 X9.7819 Y1.3457 F500.
N55 G0 G43 Z1.61 H1
N60 T2
N65 G0 Z1.21
N70 G1 Z1.005 F13.123
N75 Y1.2504 F33.75
N80 Y-13.2504
N85 G0 Z1.21
N90 G1 X8.8239 Y-13.375 F500.
N95 Z1.005 F13.123
N100 Y-13.2504 F33.75
N105 Y1.2504
N110 G0 Z1.21
N115 G1 X7.8658 Y1.375 F500.
N120 Z1.005 F13.123
N125 Y1.2504 F33.75
N130 Y-13.2504
N135 G0 Z1.21
N140 G1 X6.9077 Y-13.375 F500.
N145 Z1.005 F13.123
N150 Y-13.2504 F33.75
N155 Y1.2504
N160 G0 Z1.21
N165 G1 X5.9497 Y1.375 F500.
N170 Z1.005 F13.123
N175 Y1.2504 F33.75
N180 Y-13.2504
N185 G0 Z1.21
N190 G1 X4.9916 Y-13.375 F500.
N195 Z1.005 F13.123
N200 Y-13.2504 F33.75
N205 Y1.2504
N210 G0 Z1.21
N215 G1 X4.0336 Y1.375 F500.
N220 Z1.005 F13.123
N225 Y1.2504 F33.75
N230 Y-13.2504
N235 G0 Z1.21
N240 G1 X3.0755 Y-13.375 F500.
N245 Z1.005 F13.123
N250 Y-13.2504 F33.75
N255 Y1.2504
N260 G0 Z1.21
N265 G1 X2.1174 Y1.375 F500.
N270 Z1.005 F13.123
N275 Y1.2504 F33.75
N280 Y-13.2504
N285 G0 Z1.21
N290 G1 X1.1594 Y-13.375 F500.
N295 Z1.005 F13.123
N300 Y-13.2504 F33.75
N305 Y1.2504
N310 G0 Z1.21
N315 G1 X0.2013 Y1.375 F500.
N320 Z1.005 F13.123
N325 Y1.2504 F33.75
N330 Y-13.2504
N335 G0 Z1.21
N340 G1 X-0.7568 Y-13.375 F500.
N345 Z1.005 F13.123
N350 Y-13.2504 F33.75
N355 Y1.2504
N360 G0 Z1.21
N365 G1 X-1.7148 Y1.375 F500.
N370 Z1.005 F13.123
N375 Y1.2504 F33.75
N380 Y-13.2504
N385 G0 Z1.21
N390 G1 X-2.6729 Y-13.375 F500.
N395 Z1.005 F13.123
N400 Y-13.2504 F33.75
N405 Y1.2504
N410 G0 Z1.21
N415 G1 X-3.6309 Y1.375 F500.
N420 Z1.005 F13.123
N425 Y1.2504 F33.75
N430 Y-13.2504
N435 G0 Z1.21
N440 G1 X-4.589 Y-13.375 F500.
N445 Z1.005 F13.123
N450 Y-13.2504 F33.75
N455 Y1.2504
N460 G0 Z1.21
N465 G1 X-5.5471 Y1.375 F500.
N470 Z1.005 F13.123
N475 Y1.2504 F33.75
N480 Y-13.2504
N485 G0 Z1.21
N490 G1 X-6.5051 Y-13.375 F500.
N495 Z1.005 F13.123
N500 Y-13.2504 F33.75
N505 Y1.2504
N510 G0 Z1.21
N515 G1 X-7.4632 Y1.375 F500.
N520 Z1.005 F13.123
N525 Y1.2504 F33.75
N530 Y-13.2504
N535 G0 Z1.21
N540 G1 X-8.4212 Y-13.375 F500.
N545 Z1.005 F13.123
N550 Y-13.2504 F33.75
N555 Y1.2504
N560 G0 Z1.61
N565 M9
N570 M5
N575 G53 G0 Z0.

(2D Contour1)
N580 M1
N585 T2 M6
N590 S4500 M3
N595 G54
N600 G17 G90
N605 M8
N610 G1 X-9.55 Y0.405 F500.
N615 G0 G43 Z1.61 H2
N620 T1
N625 G0 Z1.21
N630 G1 Z1.01 F50.
N635 G19 G2 Y0.355 Z0.96 J-0.05 K0. F101.25
N640 G1 Y0.305
N645 G17 G3 X-9.5 Y0.255 I0.05 J0.
N650 G1 X9.5
N655 G2 X9.755 Y0. I0. J-0.255
N660 G1 Y-12.
N665 G2 X9.5 Y-12.255 I-0.255 J0.
N670 G1 X-9.5
N675 G2 X-9.755 Y-12. I0. J0.255
N680 G1 Y0.
N685 G2 X-9.5 Y0.255 I0.255 J0.
N690 G3 X-9.45 Y0.305 I0. J0.05
N695 G1 Y0.355
N700 G19 G3 Y0.405 Z1.01 J0. K0.05
N705 G0 Z1.21
N710 X-9.55
N715 G1 Z0.96 F50.
N720 G2 Y0.355 Z0.91 J-0.05 K0. F101.25
N725 G1 Y0.305
N730 G17 G3 X-9.5 Y0.255 I0.05 J0.
N735 G1 X9.5
N740 G2 X9.755 Y0. I0. J-0.255
N745 G1 Y-12.
N750 G2 X9.5 Y-12.255 I-0.255 J0.
N755 G1 X-9.5
N760 G2 X-9.755 Y-12. I0. J0.255
N765 G1 Y0.
N770 G2 X-9.5 Y0.255 I0.255 J0.
N775 G3 X-9.45 Y0.305 I0. J0.05
N780 G1 Y0.355
N785 G19 G3 Y0.405 Z0.96 J0. K0.05
N790 G0 Z1.21
N795 X-9.55
N800 G1 Z0.91 F50.
N805 G2 Y0.355 Z0.86 J-0.05 K0. F101.25
N810 G1 Y0.305
N815 G17 G3 X-9.5 Y0.255 I0.05 J0.
N820 G1 X9.5
N825 G2 X9.755 Y0. I0. J-0.255
N830 G1 Y-12.
N835 G2 X9.5 Y-12.255 I-0.255 J0.
N840 G1 X-9.5
N845 G2 X-9.755 Y-12. I0. J0.255
N850 G1 Y0.
N855 G2 X-9.5 Y0.255 I0.255 J0.
N860 G3 X-9.45 Y0.305 I0. J0.05
N865 G1 Y0.355
N870 G19 G3 Y0.405 Z0.91 J0. K0.05
N875 G0 Z1.21
N880 X-9.55
N885 G1 Z0.86 F50.
N890 G2 Y0.355 Z0.81 J-0.05 K0. F101.25
N895 G1 Y0.305
N900 G17 G3 X-9.5 Y0.255 I0.05 J0.
N905 G1 X9.5
N910 G2 X9.755 Y0. I0. J-0.255
N915 G1 Y-12.
N920 G2 X9.5 Y-12.255 I-0.255 J0.
N925 G1 X-9.5
N930 G2 X-9.755 Y-12. I0. J0.255
N935 G1 Y0.
N940 G2 X-9.5 Y0.255 I0.255 J0.
N945 G3 X-9.45 Y0.305 I0. J0.05
N950 G1 Y0.355
N955 G19 G3 Y0.405 Z0.86 J0. K0.05
N960 G0 Z1.21
N965 X-9.55
N970 G1 Z0.81 F50.
N975 G2 Y0.355 Z0.76 J-0.05 K0. F101.25
N980 G1 Y0.305
N985 G17 G3 X-9.5 Y0.255 I0.05 J0.
N990 G1 X9.5
N995 G2 X9.755 Y0. I0. J-0.255
N1000 G1 Y-12.
N1005 G2 X9.5 Y-12.255 I-0.255 J0.
N1010 G1 X-9.5
N1015 G2 X-9.755 Y-12. I0. J0.255
N1020 G1 Y0.
N1025 G2 X-9.5 Y0.255 I0.255 J0.
N1030 G3 X-9.45 Y0.305 I0. J0.05
N1035 G1 Y0.355
N1040 G19 G3 Y0.405 Z0.81 J0. K0.05
N1045 G0 Z1.21
N1050 X-9.55
N1055 G1 Z0.76 F50.
N1060 G2 Y0.355 Z0.71 J-0.05 K0. F101.25
N1065 G1 Y0.305
N1070 G17 G3 X-9.5 Y0.255 I0.05 J0.
N1075 G1 X9.5
N1080 G2 X9.755 Y0. I0. J-0.255
N1085 G1 Y-12.
N1090 G2 X9.5 Y-12.255 I-0.255 J0.
N1095 G1 X-9.5
N1100 G2 X-9.755 Y-12. I0. J0.255
N1105 G1 Y0.
N1110 G2 X-9.5 Y0.255 I0.255 J0.
N1115 G3 X-9.45 Y0.305 I0. J0.05
N1120 G1 Y0.355
N1125 G19 G3 Y0.405 Z0.76 J0. K0.05
N1130 G0 Z1.21
N1135 X-9.55
N1140 G1 Z0.71 F50.
N1145 G2 Y0.355 Z0.66 J-0.05 K0. F101.25
N1150 G1 Y0.305
N1155 G17 G3 X-9.5 Y0.255 I0.05 J0.
N1160 G1 X9.5
N1165 G2 X9.755 Y0. I0. J-0.255
N1170 G1 Y-12.
N1175 G2 X9.5 Y-12.255 I-0.255 J0.
N1180 G1 X-9.5
N1185 G2 X-9.755 Y-12. I0. J0.255
N1190 G1 Y0.
N1195 G2 X-9.5 Y0.255 I0.255 J0.
N1200 G3 X-9.45 Y0.305 I0. J0.05
N1205 G1 Y0.355
N1210 G19 G3 Y0.405 Z0.71 J0. K0.05
N1215 G0 Z1.21
N1220 X-9.55
N1225 G1 Z0.66 F50.
N1230 G2 Y0.355 Z0.61 J-0.05 K0. F101.25
N1235 G1 Y0.305
N1240 G17 G3 X-9.5 Y0.255 I0.05 J0.
N1245 G1 X9.5
N1250 G2 X9.755 Y0. I0. J-0.255
N1255 G1 Y-12.
N1260 G2 X9.5 Y-12.255 I-0.255 J0.
N1265 G1 X-9.5
N1270 G2 X-9.755 Y-12. I0. J0.255
N1275 G1 Y0.
N1280 G2 X-9.5 Y0.255 I0.255 J0.
N1285 G3 X-9.45 Y0.305 I0. J0.05
N1290 G1 Y0.355
N1295 G19 G3 Y0.405 Z0.66 J0. K0.05
N1300 G0 Z1.21
N1305 X-9.55
N1310 G1 Z0.61 F50.
N1315 G2 Y0.355 Z0.56 J-0.05 K0. F101.25
N1320 G1 Y0.305
N1325 G17 G3 X-9.5 Y0.255 I0.05 J0.
N1330 G1 X9.5
N1335 G2 X9.755 Y0. I0. J-0.255
N1340 G1 Y-12.
N1345 G2 X9.5 Y-12.255 I-0.255 J0.
N1350 G1 X-9.5
N1355 G2 X-9.755 Y-12. I0. J0.255
N1360 G1 Y0.
N1365 G2 X-9.5 Y0.255 I0.255 J0.
N1370 G3 X-9.45 Y0.305 I0. J0.05
N1375 G1 Y0.355
N1380 G19 G3 Y0.405 Z0.61 J0. K0.05
N1385 G0 Z1.21
N1390 X-9.55
N1395 G1 Z0.56 F50.
N1400 G2 Y0.355 Z0.51 J-0.05 K0. F101.25
N1405 G1 Y0.305
N1410 G17 G3 X-9.5 Y0.255 I0.05 J0.
N1415 G1 X9.5
N1420 G2 X9.755 Y0. I0. J-0.255
N1425 G1 Y-12.
N1430 G2 X9.5 Y-12.255 I-0.255 J0.
N1435 G1 X-9.5
N1440 G2 X-9.755 Y-12. I0. J0.255
N1445 G1 Y0.
N1450 G2 X-9.5 Y0.255 I0.255 J0.
N1455 G3 X-9.45 Y0.305 I0. J0.05
N1460 G1 Y0.355
N1465 G19 G3 Y0.405 Z0.56 J0. K0.05
N1470 G0 Z1.21
N1475 X-9.55
N1480 G1 Z0.51 F50.
N1485 G2 Y0.355 Z0.46 J-0.05 K0. F101.25
N1490 G1 Y0.305
N1495 G17 G3 X-9.5 Y0.255 I0.05 J0.
N1500 G1 X9.5
N1505 G2 X9.755 Y0. I0. J-0.255
N1510 G1 Y-12.
N1515 G2 X9.5 Y-12.255 I-0.255 J0.
N1520 G1 X-9.5
N1525 G2 X-9.755 Y-12. I0. J0.255
N1530 G1 Y0.
N1535 G2 X-9.5 Y0.255 I0.255 J0.
N1540 G3 X-9.45 Y0.305 I0. J0.05
N1545 G1 Y0.355
N1550 G19 G3 Y0.405 Z0.51 J0. K0.05
N1555 G0 Z1.21
N1560 X-9.55
N1565 G1 Z0.46 F50.
N1570 G2 Y0.355 Z0.41 J-0.05 K0. F101.25
N1575 G1 Y0.305
N1580 G17 G3 X-9.5 Y0.255 I0.05 J0.
N1585 G1 X9.5
N1590 G2 X9.755 Y0. I0. J-0.255
N1595 G1 Y-12.
N1600 G2 X9.5 Y-12.255 I-0.255 J0.
N1605 G1 X-9.5
N1610 G2 X-9.755 Y-12. I0. J0.255
N1615 G1 Y0.
N1620 G2 X-9.5 Y0.255 I0.255 J0.
N1625 G3 X-9.45 Y0.305 I0. J0.05
N1630 G1 Y0.355
N1635 G19 G3 Y0.405 Z0.46 J0. K0.05
N1640 G0 Z1.21
N1645 X-9.55
N1650 G1 Z0.41 F50.
N1655 G2 Y0.355 Z0.36 J-0.05 K0. F101.25
N1660 G1 Y0.305
N1665 G17 G3 X-9.5 Y0.255 I0.05 J0.
N1670 G1 X9.5
N1675 G2 X9.755 Y0. I0. J-0.255
N1680 G1 Y-12.
N1685 G2 X9.5 Y-12.255 I-0.255 J0.
N1690 G1 X-9.5
N1695 G2 X-9.755 Y-12. I0. J0.255
N1700 G1 Y0.
N1705 G2 X-9.5 Y0.255 I0.255 J0.
N1710 G3 X-9.45 Y0.305 I0. J0.05
N1715 G1 Y0.355
N1720 G19 G3 Y0.405 Z0.41 J0. K0.05
N1725 G0 Z1.21
N1730 X-9.55
N1735 G1 Z0.36 F50.
N1740 G2 Y0.355 Z0.31 J-0.05 K0. F101.25
N1745 G1 Y0.305
N1750 G17 G3 X-9.5 Y0.255 I0.05 J0.
N1755 G1 X9.5
N1760 G2 X9.755 Y0. I0. J-0.255
N1765 G1 Y-12.
N1770 G2 X9.5 Y-12.255 I-0.255 J0.
N1775 G1 X-9.5
N1780 G2 X-9.755 Y-12. I0. J0.255
N1785 G1 Y0.
N1790 G2 X-9.5 Y0.255 I0.255 J0.
N1795 G3 X-9.45 Y0.305 I0. J0.05
N1800 G1 Y0.355
N1805 G19 G3 Y0.405 Z0.36 J0. K0.05
N1810 G0 Z1.21
N1815 X-9.55
N1820 G1 Z0.31 F50.
N1825 G2 Y0.355 Z0.26 J-0.05 K0. F101.25
N1830 G1 Y0.305
N1835 G17 G3 X-9.5 Y0.255 I0.05 J0.
N1840 G1 X9.5
N1845 G2 X9.755 Y0. I0. J-0.255
N1850 G1 Y-12.
N1855 G2 X9.5 Y-12.255 I-0.255 J0.
N1860 G1 X-9.5
N1865 G2 X-9.755 Y-12. I0. J0.255
N1870 G1 Y0.
N1875 G2 X-9.5 Y0.255 I0.255 J0.
N1880 G3 X-9.45 Y0.305 I0. J0.05
N1885 G1 Y0.355
N1890 G19 G3 Y0.405 Z0.31 J0. K0.05
N1895 G0 Z1.21
N1900 X-9.55
N1905 G1 Z0.26 F50.
N1910 G2 Y0.355 Z0.21 J-0.05 K0. F101.25
N1915 G1 Y0.305
N1920 G17 G3 X-9.5 Y0.255 I0.05 J0.
N1925 G1 X9.5
N1930 G2 X9.755 Y0. I0. J-0.255
N1935 G1 Y-12.
N1940 G2 X9.5 Y-12.255 I-0.255 J0.
N1945 G1 X-9.5
N1950 G2 X-9.755 Y-12. I0. J0.255
N1955 G1 Y0.
N1960 G2 X-9.5 Y0.255 I0.255 J0.
N1965 G3 X-9.45 Y0.305 I0. J0.05
N1970 G1 Y0.355
N1975 G19 G3 Y0.405 Z0.26 J0. K0.05
N1980 G0 Z1.21
N1985 X-9.55
N1990 G1 Z0.21 F50.
N1995 G2 Y0.355 Z0.16 J-0.05 K0. F101.25
N2000 G1 Y0.305
N2005 G17 G3 X-9.5 Y0.255 I0.05 J0.
N2010 G1 X9.5
N2015 G2 X9.755 Y0. I0. J-0.255
N2020 G1 Y-12.
N2025 G2 X9.5 Y-12.255 I-0.255 J0.
N2030 G1 X-9.5
N2035 G2 X-9.755 Y-12. I0. J0.255
N2040 G1 Y0.
N2045 G2 X-9.5 Y0.255 I0.255 J0.
N2050 G3 X-9.45 Y0.305 I0. J0.05
N2055 G1 Y0.355
N2060 G19 G3 Y0.405 Z0.21 J0. K0.05
N2065 G0 Z1.21
N2070 X-9.55
N2075 G1 Z0.16 F50.
N2080 G2 Y0.355 Z0.11 J-0.05 K0. F101.25
N2085 G1 Y0.305
N2090 G17 G3 X-9.5 Y0.255 I0.05 J0.
N2095 G1 X9.5
N2100 G2 X9.755 Y0. I0. J-0.255
N2105 G1 Y-12.
N2110 G2 X9.5 Y-12.255 I-0.255 J0.
N2115 G1 X-9.5
N2120 G2 X-9.755 Y-12. I0. J0.255
N2125 G1 Y0.
N2130 G2 X-9.5 Y0.255 I0.255 J0.
N2135 G3 X-9.45 Y0.305 I0. J0.05
N2140 G1 Y0.355
N2145 G19 G3 Y0.405 Z0.16 J0. K0.05
N2150 G0 Z1.21
N2155 X-9.55
N2160 G1 Z0.11 F50.
N2165 G2 Y0.355 Z0.06 J-0.05 K0. F101.25
N2170 G1 Y0.305
N2175 G17 G3 X-9.5 Y0.255 I0.05 J0.
N2180 G1 X9.5
N2185 G2 X9.755 Y0. I0. J-0.255
N2190 G1 Y-12.
N2195 G2 X9.5 Y-12.255 I-0.255 J0.
N2200 G1 X-9.5
N2205 G2 X-9.755 Y-12. I0. J0.255
N2210 G1 Y0.
N2215 G2 X-9.5 Y0.255 I0.255 J0.
N2220 G3 X-9.45 Y0.305 I0. J0.05
N2225 G1 Y0.355
N2230 G19 G3 Y0.405 Z0.11 J0. K0.05
N2235 G0 Z1.21
N2240 X-9.55
N2245 G1 Z0.0825 F50.
N2250 G2 Y0.355 Z0.0325 J-0.05 K0. F101.25
N2255 G1 Y0.305
N2260 G17 G3 X-9.5 Y0.255 I0.05 J0.
N2265 G1 X9.5
N2270 G2 X9.755 Y0. I0. J-0.255
N2275 G1 Y-0.4895
N2280 Z0.045
N2285 Y-1.2395
N2290 Z0.0325 F50.
N2295 Y-5.9949 F101.25
N2300 Z0.045
N2305 Y-6.7449
N2310 Z0.0325 F50.
N2315 Y-10.9631 F101.25
N2320 Z0.045
N2325 Y-11.7131
N2330 Z0.0325 F50.
N2335 Y-12. F101.25
N2340 G2 X9.5 Y-12.255 I-0.255 J0.
N2345 G1 X-9.5
N2350 G2 X-9.755 Y-12. I0. J0.255
N2355 G1 Y-11.7489
N2360 Z0.045
N2365 Y-10.9989
N2370 Z0.0325 F50.
N2375 Y-6.1046 F101.25
N2380 Z0.045
N2385 Y-5.3546
N2390 Z0.0325 F50.
N2395 Y-1.1051 F101.25
N2400 Z0.045
N2405 Y-0.3551
N2410 Z0.0325 F50.
N2415 Y0. F101.25
N2420 G2 X-9.5 Y0.255 I0.255 J0.
N2425 G3 X-9.45 Y0.305 I0. J0.05
N2430 G1 Y0.355
N2435 G19 G3 Y0.405 Z0.0825 J0. K0.05
N2440 G0 Z1.21
N2445 X-9.55
N2450 G1 Z0.055 F50.
N2455 G2 Y0.355 Z0.005 J-0.05 K0. F101.25
N2460 G1 Y0.305
N2465 G17 G3 X-9.5 Y0.255 I0.05 J0.
N2470 G1 X9.5
N2475 G2 X9.755 Y0. I0. J-0.255
N2480 G1 Y-0.4895
N2485 Z0.045
N2490 Y-1.2395
N2495 Z0.005 F50.
N2500 Y-5.9949 F101.25
N2505 Z0.045
N2510 Y-6.7449
N2515 Z0.005 F50.
N2520 Y-10.9631 F101.25
N2525 Z0.045
N2530 Y-11.7131
N2535 Z0.005 F50.
N2540 Y-12. F101.25
N2545 G2 X9.5 Y-12.255 I-0.255 J0.
N2550 G1 X-9.5
N2555 G2 X-9.755 Y-12. I0. J0.255
N2560 G1 Y-11.7489
N2565 Z0.045
N2570 Y-10.9989
N2575 Z0.005 F50.
N2580 Y-6.1046 F101.25
N2585 Z0.045
N2590 Y-5.3546
N2595 Z0.005 F50.
N2600 Y-1.1051 F101.25
N2605 Z0.045
N2610 Y-0.3551
N2615 Z0.005 F50.
N2620 Y0. F101.25
N2625 G2 X-9.5 Y0.255 I0.255 J0.
N2630 G3 X-9.45 Y0.305 I0. J0.05
N2635 G1 Y0.355
N2640 G19 G3 Y0.405 Z0.055 J0. K0.05
N2645 G0 Z1.61

(2D Contour1 2)
N2650 S7500 M3
N2655 G17
N2660 G1 X-9.55 Y0.4 F500.
N2665 G0 Z1.61
N2670 Z1.21
N2675 G1 Z0.055 F50.
N2680 G19 G2 Y0.35 Z0.005 J-0.05 K0. F67.5
N2685 G1 Y0.3
N2690 G17 G3 X-9.5 Y0.25 I0.05 J0.
N2695 G1 X9.5
N2700 G2 X9.75 Y0. I0. J-0.25
N2705 G1 Y-0.4895
N2710 Z0.045
N2715 Y-1.2395
N2720 Z0.005 F50.
N2725 Y-5.9949 F67.5
N2730 Z0.045
N2735 Y-6.7449
N2740 Z0.005 F50.
N2745 Y-10.9631 F67.5
N2750 Z0.045
N2755 Y-11.7131
N2760 Z0.005 F50.
N2765 Y-12. F67.5
N2770 G2 X9.5 Y-12.25 I-0.25 J0.
N2775 G1 X-9.5
N2780 G2 X-9.75 Y-12. I0. J0.25
N2785 G1 Y-11.7489
N2790 Z0.045
N2795 Y-10.9989
N2800 Z0.005 F50.
N2805 Y-6.1046 F67.5
N2810 Z0.045
N2815 Y-5.3546
N2820 Z0.005 F50.
N2825 Y-1.1051 F67.5
N2830 Z0.045
N2835 Y-0.3551
N2840 Z0.005 F50.
N2845 Y0. F67.5
N2850 G2 X-9.5 Y0.25 I0.25 J0.
N2855 G3 X-9.45 Y0.3 I0. J0.05
N2860 G1 Y0.35
N2865 G19 G3 Y0.4 Z0.055 J0. K0.05
N2870 G0 Z1.61

N2875 M5
N2880 M9
N2885 G53 G0 Z0.
N2890 X0.
N2895 G53 G0 Y0.
N2900 M30

%
