%
O01003
(Using high feed G1 F500. instead of G0.)
(T2 D=0.5 CR=0. - ZMIN=-1.005 - flat end mill)
N10 G90 G17
N15 G20
N20 G53 G0 Z0.

(2D Contour1)
N25 T2 M6
N30 S4500 M3
N35 G54
N40 G17 G90
N45 M8
N50 G1 X-9.55 Y0.405 F500.
N55 G0 G43 Z0.6 H2
N60 G0 Z0.2
N65 G1 Z0. F50.
N70 G19 G2 Y0.355 Z-0.05 J-0.05 K0. F101.25
N75 G1 Y0.305
N80 G17 G3 X-9.5 Y0.255 I0.05 J0.
N85 G1 X9.5 F40.
N90 G2 X9.755 Y0. I0. J-0.255
N95 G1 Y-12.
N100 G2 X9.5 Y-12.255 I-0.255 J0.
N105 G1 X-9.5
N110 G2 X-9.755 Y-12. I0. J0.255
N115 G1 Y0.
N120 G2 X-9.5 Y0.255 I0.255 J0.
N125 G3 X-9.45 Y0.305 I0. J0.05 F101.25
N130 G1 Y0.355
N135 G19 G3 Y0.405 Z0. J0. K0.05
N140 G0 Z0.2
N145 X-9.55
N150 G1 Z-0.05 F50.
N155 G2 Y0.355 Z-0.1 J-0.05 K0. F101.25
N160 G1 Y0.305
N165 G17 G3 X-9.5 Y0.255 I0.05 J0.
N170 G1 X9.5 F40.
N175 G2 X9.755 Y0. I0. J-0.255
N180 G1 Y-12.
N185 G2 X9.5 Y-12.255 I-0.255 J0.
N190 G1 X-9.5
N195 G2 X-9.755 Y-12. I0. J0.255
N200 G1 Y0.
N205 G2 X-9.5 Y0.255 I0.255 J0.
N210 G3 X-9.45 Y0.305 I0. J0.05 F101.25
N215 G1 Y0.355
N220 G19 G3 Y0.405 Z-0.05 J0. K0.05
N225 G0 Z0.2
N230 X-9.55
N235 G1 Z-0.1 F50.
N240 G2 Y0.355 Z-0.15 J-0.05 K0. F101.25
N245 G1 Y0.305
N250 G17 G3 X-9.5 Y0.255 I0.05 J0.
N255 G1 X9.5 F40.
N260 G2 X9.755 Y0. I0. J-0.255
N265 G1 Y-12.
N270 G2 X9.5 Y-12.255 I-0.255 J0.
N275 G1 X-9.5
N280 G2 X-9.755 Y-12. I0. J0.255
N285 G1 Y0.
N290 G2 X-9.5 Y0.255 I0.255 J0.
N295 G3 X-9.45 Y0.305 I0. J0.05 F101.25
N300 G1 Y0.355
N305 G19 G3 Y0.405 Z-0.1 J0. K0.05
N310 G0 Z0.2
N315 X-9.55
N320 G1 Z-0.15 F50.
N325 G2 Y0.355 Z-0.2 J-0.05 K0. F101.25
N330 G1 Y0.305
N335 G17 G3 X-9.5 Y0.255 I0.05 J0.
N340 G1 X9.5 F40.
N345 G2 X9.755 Y0. I0. J-0.255
N350 G1 Y-12.
N355 G2 X9.5 Y-12.255 I-0.255 J0.
N360 G1 X-9.5
N365 G2 X-9.755 Y-12. I0. J0.255
N370 G1 Y0.
N375 G2 X-9.5 Y0.255 I0.255 J0.
N380 G3 X-9.45 Y0.305 I0. J0.05 F101.25
N385 G1 Y0.355
N390 G19 G3 Y0.405 Z-0.15 J0. K0.05
N395 G0 Z0.2
N400 X-9.55
N405 G1 Z-0.2 F50.
N410 G2 Y0.355 Z-0.25 J-0.05 K0. F101.25
N415 G1 Y0.305
N420 G17 G3 X-9.5 Y0.255 I0.05 J0.
N425 G1 X9.5 F40.
N430 G2 X9.755 Y0. I0. J-0.255
N435 G1 Y-12.
N440 G2 X9.5 Y-12.255 I-0.255 J0.
N445 G1 X-9.5
N450 G2 X-9.755 Y-12. I0. J0.255
N455 G1 Y0.
N460 G2 X-9.5 Y0.255 I0.255 J0.
N465 G3 X-9.45 Y0.305 I0. J0.05 F101.25
N470 G1 Y0.355
N475 G19 G3 Y0.405 Z-0.2 J0. K0.05
N480 G0 Z0.2
N485 X-9.55
N490 G1 Z-0.25 F50.
N495 G2 Y0.355 Z-0.3 J-0.05 K0. F101.25
N500 G1 Y0.305
N505 G17 G3 X-9.5 Y0.255 I0.05 J0.
N510 G1 X9.5 F40.
N515 G2 X9.755 Y0. I0. J-0.255
N520 G1 Y-12.
N525 G2 X9.5 Y-12.255 I-0.255 J0.
N530 G1 X-9.5
N535 G2 X-9.755 Y-12. I0. J0.255
N540 G1 Y0.
N545 G2 X-9.5 Y0.255 I0.255 J0.
N550 G3 X-9.45 Y0.305 I0. J0.05 F101.25
N555 G1 Y0.355
N560 G19 G3 Y0.405 Z-0.25 J0. K0.05
N565 G0 Z0.2
N570 X-9.55
N575 G1 Z-0.3 F50.
N580 G2 Y0.355 Z-0.35 J-0.05 K0. F101.25
N585 G1 Y0.305
N590 G17 G3 X-9.5 Y0.255 I0.05 J0.
N595 G1 X9.5 F40.
N600 G2 X9.755 Y0. I0. J-0.255
N605 G1 Y-12.
N610 G2 X9.5 Y-12.255 I-0.255 J0.
N615 G1 X-9.5
N620 G2 X-9.755 Y-12. I0. J0.255
N625 G1 Y0.
N630 G2 X-9.5 Y0.255 I0.255 J0.
N635 G3 X-9.45 Y0.305 I0. J0.05 F101.25
N640 G1 Y0.355
N645 G19 G3 Y0.405 Z-0.3 J0. K0.05
N650 G0 Z0.2
N655 X-9.55
N660 G1 Z-0.35 F50.
N665 G2 Y0.355 Z-0.4 J-0.05 K0. F101.25
N670 G1 Y0.305
N675 G17 G3 X-9.5 Y0.255 I0.05 J0.
N680 G1 X9.5 F40.
N685 G2 X9.755 Y0. I0. J-0.255
N690 G1 Y-12.
N695 G2 X9.5 Y-12.255 I-0.255 J0.
N700 G1 X-9.5
N705 G2 X-9.755 Y-12. I0. J0.255
N710 G1 Y0.
N715 G2 X-9.5 Y0.255 I0.255 J0.
N720 G3 X-9.45 Y0.305 I0. J0.05 F101.25
N725 G1 Y0.355
N730 G19 G3 Y0.405 Z-0.35 J0. K0.05
N735 G0 Z0.2
N740 X-9.55
N745 G1 Z-0.4 F50.
N750 G2 Y0.355 Z-0.45 J-0.05 K0. F101.25
N755 G1 Y0.305
N760 G17 G3 X-9.5 Y0.255 I0.05 J0.
N765 G1 X9.5 F40.
N770 G2 X9.755 Y0. I0. J-0.255
N775 G1 Y-12.
N780 G2 X9.5 Y-12.255 I-0.255 J0.
N785 G1 X-9.5
N790 G2 X-9.755 Y-12. I0. J0.255
N795 G1 Y0.
N800 G2 X-9.5 Y0.255 I0.255 J0.
N805 G3 X-9.45 Y0.305 I0. J0.05 F101.25
N810 G1 Y0.355
N815 G19 G3 Y0.405 Z-0.4 J0. K0.05
N820 G0 Z0.2
N825 X-9.55
N830 G1 Z-0.45 F50.
N835 G2 Y0.355 Z-0.5 J-0.05 K0. F101.25
N840 G1 Y0.305
N845 G17 G3 X-9.5 Y0.255 I0.05 J0.
N850 G1 X9.5 F40.
N855 G2 X9.755 Y0. I0. J-0.255
N860 G1 Y-12.
N865 G2 X9.5 Y-12.255 I-0.255 J0.
N870 G1 X-9.5
N875 G2 X-9.755 Y-12. I0. J0.255
N880 G1 Y0.
N885 G2 X-9.5 Y0.255 I0.255 J0.
N890 G3 X-9.45 Y0.305 I0. J0.05 F101.25
N895 G1 Y0.355
N900 G19 G3 Y0.405 Z-0.45 J0. K0.05
N905 G0 Z0.2
N910 X-9.55
N915 G1 Z-0.5 F50.
N920 G2 Y0.355 Z-0.55 J-0.05 K0. F101.25
N925 G1 Y0.305
N930 G17 G3 X-9.5 Y0.255 I0.05 J0.
N935 G1 X9.5 F40.
N940 G2 X9.755 Y0. I0. J-0.255
N945 G1 Y-12.
N950 G2 X9.5 Y-12.255 I-0.255 J0.
N955 G1 X-9.5
N960 G2 X-9.755 Y-12. I0. J0.255
N965 G1 Y0.
N970 G2 X-9.5 Y0.255 I0.255 J0.
N975 G3 X-9.45 Y0.305 I0. J0.05 F101.25
N980 G1 Y0.355
N985 G19 G3 Y0.405 Z-0.5 J0. K0.05
N990 G0 Z0.2
N995 X-9.55
N1000 G1 Z-0.55 F50.
N1005 G2 Y0.355 Z-0.6 J-0.05 K0. F101.25
N1010 G1 Y0.305
N1015 G17 G3 X-9.5 Y0.255 I0.05 J0.
N1020 G1 X9.5 F40.
N1025 G2 X9.755 Y0. I0. J-0.255
N1030 G1 Y-12.
N1035 G2 X9.5 Y-12.255 I-0.255 J0.
N1040 G1 X-9.5
N1045 G2 X-9.755 Y-12. I0. J0.255
N1050 G1 Y0.
N1055 G2 X-9.5 Y0.255 I0.255 J0.
N1060 G3 X-9.45 Y0.305 I0. J0.05 F101.25
N1065 G1 Y0.355
N1070 G19 G3 Y0.405 Z-0.55 J0. K0.05
N1075 G0 Z0.2
N1080 X-9.55
N1085 G1 Z-0.6 F50.
N1090 G2 Y0.355 Z-0.65 J-0.05 K0. F101.25
N1095 G1 Y0.305
N1100 G17 G3 X-9.5 Y0.255 I0.05 J0.
N1105 G1 X9.5 F40.
N1110 G2 X9.755 Y0. I0. J-0.255
N1115 G1 Y-12.
N1120 G2 X9.5 Y-12.255 I-0.255 J0.
N1125 G1 X-9.5
N1130 G2 X-9.755 Y-12. I0. J0.255
N1135 G1 Y0.
N1140 G2 X-9.5 Y0.255 I0.255 J0.
N1145 G3 X-9.45 Y0.305 I0. J0.05 F101.25
N1150 G1 Y0.355
N1155 G19 G3 Y0.405 Z-0.6 J0. K0.05
N1160 G0 Z0.2
N1165 X-9.55
N1170 G1 Z-0.65 F50.
N1175 G2 Y0.355 Z-0.7 J-0.05 K0. F101.25
N1180 G1 Y0.305
N1185 G17 G3 X-9.5 Y0.255 I0.05 J0.
N1190 G1 X9.5 F40.
N1195 G2 X9.755 Y0. I0. J-0.255
N1200 G1 Y-12.
N1205 G2 X9.5 Y-12.255 I-0.255 J0.
N1210 G1 X-9.5
N1215 G2 X-9.755 Y-12. I0. J0.255
N1220 G1 Y0.
N1225 G2 X-9.5 Y0.255 I0.255 J0.
N1230 G3 X-9.45 Y0.305 I0. J0.05 F101.25
N1235 G1 Y0.355
N1240 G19 G3 Y0.405 Z-0.65 J0. K0.05
N1245 G0 Z0.2
N1250 X-9.55
N1255 G1 Z-0.7 F50.
N1260 G2 Y0.355 Z-0.75 J-0.05 K0. F101.25
N1265 G1 Y0.305
N1270 G17 G3 X-9.5 Y0.255 I0.05 J0.
N1275 G1 X9.5 F40.
N1280 G2 X9.755 Y0. I0. J-0.255
N1285 G1 Y-12.
N1290 G2 X9.5 Y-12.255 I-0.255 J0.
N1295 G1 X-9.5
N1300 G2 X-9.755 Y-12. I0. J0.255
N1305 G1 Y0.
N1310 G2 X-9.5 Y0.255 I0.255 J0.
N1315 G3 X-9.45 Y0.305 I0. J0.05 F101.25
N1320 G1 Y0.355
N1325 G19 G3 Y0.405 Z-0.7 J0. K0.05
N1330 G0 Z0.2
N1335 X-9.55
N1340 G1 Z-0.75 F50.
N1345 G2 Y0.355 Z-0.8 J-0.05 K0. F101.25
N1350 G1 Y0.305
N1355 G17 G3 X-9.5 Y0.255 I0.05 J0.
N1360 G1 X9.5 F40.
N1365 G2 X9.755 Y0. I0. J-0.255
N1370 G1 Y-12.
N1375 G2 X9.5 Y-12.255 I-0.255 J0.
N1380 G1 X-9.5
N1385 G2 X-9.755 Y-12. I0. J0.255
N1390 G1 Y0.
N1395 G2 X-9.5 Y0.255 I0.255 J0.
N1400 G3 X-9.45 Y0.305 I0. J0.05 F101.25
N1405 G1 Y0.355
N1410 G19 G3 Y0.405 Z-0.75 J0. K0.05
N1415 G0 Z0.2
N1420 X-9.55
N1425 G1 Z-0.8 F50.
N1430 G2 Y0.355 Z-0.85 J-0.05 K0. F101.25
N1435 G1 Y0.305
N1440 G17 G3 X-9.5 Y0.255 I0.05 J0.
N1445 G1 X9.5 F40.
N1450 G2 X9.755 Y0. I0. J-0.255
N1455 G1 Y-12.
N1460 G2 X9.5 Y-12.255 I-0.255 J0.
N1465 G1 X-9.5
N1470 G2 X-9.755 Y-12. I0. J0.255
N1475 G1 Y0.
N1480 G2 X-9.5 Y0.255 I0.255 J0.
N1485 G3 X-9.45 Y0.305 I0. J0.05 F101.25
N1490 G1 Y0.355
N1495 G19 G3 Y0.405 Z-0.8 J0. K0.05
N1500 G0 Z0.2
N1505 X-9.55
N1510 G1 Z-0.85 F50.
N1515 G2 Y0.355 Z-0.9 J-0.05 K0. F101.25
N1520 G1 Y0.305
N1525 G17 G3 X-9.5 Y0.255 I0.05 J0.
N1530 G1 X9.5 F40.
N1535 G2 X9.755 Y0. I0. J-0.255
N1540 G1 Y-12.
N1545 G2 X9.5 Y-12.255 I-0.255 J0.
N1550 G1 X-9.5
N1555 G2 X-9.755 Y-12. I0. J0.255
N1560 G1 Y0.
N1565 G2 X-9.5 Y0.255 I0.255 J0.
N1570 G3 X-9.45 Y0.305 I0. J0.05 F101.25
N1575 G1 Y0.355
N1580 G19 G3 Y0.405 Z-0.85 J0. K0.05
N1585 G0 Z0.2
N1590 X-9.55
N1595 G1 Z-0.9 F50.
N1600 G2 Y0.355 Z-0.95 J-0.05 K0. F101.25
N1605 G1 Y0.305
N1610 G17 G3 X-9.5 Y0.255 I0.05 J0.
N1615 G1 X9.5 F40.
N1620 G2 X9.755 Y0. I0. J-0.255
N1625 G1 Y-12.
N1630 G2 X9.5 Y-12.255 I-0.255 J0.
N1635 G1 X-9.5
N1640 G2 X-9.755 Y-12. I0. J0.255
N1645 G1 Y0.
N1650 G2 X-9.5 Y0.255 I0.255 J0.
N1655 G3 X-9.45 Y0.305 I0. J0.05 F101.25
N1660 G1 Y0.355
N1665 G19 G3 Y0.405 Z-0.9 J0. K0.05
N1670 G0 Z0.2
N1675 X-9.55
N1680 G1 Z-0.9275 F50.
N1685 G2 Y0.355 Z-0.9775 J-0.05 K0. F101.25
N1690 G1 Y0.305
N1695 G17 G3 X-9.5 Y0.255 I0.05 J0.
N1700 G1 X9.5 F40.
N1705 G2 X9.755 Y0. I0. J-0.255
N1710 G1 Y-0.4895
N1715 Z-0.965
N1720 Y-1.2395
N1725 Z-0.9775 F50.
N1730 Y-5.9949 F40.
N1735 Z-0.965
N1740 Y-6.7449
N1745 Z-0.9775 F50.
N1750 Y-10.9631 F40.
N1755 Z-0.965
N1760 Y-11.7131
N1765 Z-0.9775 F50.
N1770 Y-12. F40.
N1775 G2 X9.5 Y-12.255 I-0.255 J0.
N1780 G1 X-9.5
N1785 G2 X-9.755 Y-12. I0. J0.255
N1790 G1 Y-11.7489
N1795 Z-0.965
N1800 Y-10.9989
N1805 Z-0.9775 F50.
N1810 Y-6.1046 F40.
N1815 Z-0.965
N1820 Y-5.3546
N1825 Z-0.9775 F50.
N1830 Y-1.1051 F40.
N1835 Z-0.965
N1840 Y-0.3551
N1845 Z-0.9775 F50.
N1850 Y0. F40.
N1855 G2 X-9.5 Y0.255 I0.255 J0.
N1860 G3 X-9.45 Y0.305 I0. J0.05 F101.25
N1865 G1 Y0.355
N1870 G19 G3 Y0.405 Z-0.9275 J0. K0.05
N1875 G0 Z0.2
N1880 X-9.55
N1885 G1 Z-0.955 F50.
N1890 G2 Y0.355 Z-1.005 J-0.05 K0. F101.25
N1895 G1 Y0.305
N1900 G17 G3 X-9.5 Y0.255 I0.05 J0.
N1905 G1 X9.5 F40.
N1910 G2 X9.755 Y0. I0. J-0.255
N1915 G1 Y-0.4895
N1920 Z-0.965
N1925 Y-1.2395
N1930 Z-1.005 F50.
N1935 Y-5.9949 F40.
N1940 Z-0.965
N1945 Y-6.7449
N1950 Z-1.005 F50.
N1955 Y-10.9631 F40.
N1960 Z-0.965
N1965 Y-11.7131
N1970 Z-1.005 F50.
N1975 Y-12. F40.
N1980 G2 X9.5 Y-12.255 I-0.255 J0.
N1985 G1 X-9.5
N1990 G2 X-9.755 Y-12. I0. J0.255
N1995 G1 Y-11.7489
N2000 Z-0.965
N2005 Y-10.9989
N2010 Z-1.005 F50.
N2015 Y-6.1046 F40.
N2020 Z-0.965
N2025 Y-5.3546
N2030 Z-1.005 F50.
N2035 Y-1.1051 F40.
N2040 Z-0.965
N2045 Y-0.3551
N2050 Z-1.005 F50.
N2055 Y0. F40.
N2060 G2 X-9.5 Y0.255 I0.255 J0.
N2065 G3 X-9.45 Y0.305 I0. J0.05 F101.25
N2070 G1 Y0.355
N2075 G19 G3 Y0.405 Z-0.955 J0. K0.05
N2080 G0 Z0.6

(2D Contour1 2)
N2085 S7500 M3
N2090 G17
N2095 G1 X-9.55 Y0.4 F500.
N2100 G0 Z0.6
N2105 Z0.2
N2110 G1 Z-0.955 F50.
N2115 G19 G2 Y0.35 Z-1.005 J-0.05 K0. F67.5
N2120 G1 Y0.3
N2125 G17 G3 X-9.5 Y0.25 I0.05 J0.
N2130 G1 X9.5
N2135 G2 X9.75 Y0. I0. J-0.25
N2140 G1 Y-0.4895
N2145 Z-0.965
N2150 Y-1.2395
N2155 Z-1.005 F50.
N2160 Y-5.9949 F67.5
N2165 Z-0.965
N2170 Y-6.7449
N2175 Z-1.005 F50.
N2180 Y-10.9631 F67.5
N2185 Z-0.965
N2190 Y-11.7131
N2195 Z-1.005 F50.
N2200 Y-12. F67.5
N2205 G2 X9.5 Y-12.25 I-0.25 J0.
N2210 G1 X-9.5
N2215 G2 X-9.75 Y-12. I0. J0.25
N2220 G1 Y-11.7489
N2225 Z-0.965
N2230 Y-10.9989
N2235 Z-1.005 F50.
N2240 Y-6.1046 F67.5
N2245 Z-0.965
N2250 Y-5.3546
N2255 Z-1.005 F50.
N2260 Y-1.1051 F67.5
N2265 Z-0.965
N2270 Y-0.3551
N2275 Z-1.005 F50.
N2280 Y0. F67.5
N2285 G2 X-9.5 Y0.25 I0.25 J0.
N2290 G3 X-9.45 Y0.3 I0. J0.05
N2295 G1 Y0.35
N2300 G19 G3 Y0.4 Z-0.955 J0. K0.05
N2305 G0 Z0.6

N2310 M5
N2315 M9
N2320 G53 G0 Z0.
N2325 X0.
N2330 G53 G0 Y0.
N2335 M30

%
