%
O01004
(Using high feed G1 F500. instead of G0.)
(T2 D=0.5 CR=0. - ZMIN=-1.005 - flat end mill)
N10 G90 G17
N15 G20
N20 G53 G0 Z0.

(2D Contour1 2)
N25 T2 M6
N30 S3500 M3
N35 G54
N40 G17 G90
N45 M8
N50 G1 X-9.55 Y0.4 F500.
N55 G0 G43 Z0.6 H2
N60 G0 Z0.2
N65 G1 Z-0.955 F50.
N70 G19 G2 Y0.35 Z-1.005 J-0.05 K0. F21.
N75 G1 Y0.3
N80 G17 G3 X-9.5 Y0.25 I0.05 J0.
N85 G1 X9.5
N90 G2 X9.75 Y0. I0. J-0.25
N95 G1 Y-0.4895
N100 Z-0.965
N105 Y-1.2395
N110 Z-1.005 F50.
N115 Y-5.9949 F21.
N120 Z-0.965
N125 Y-6.7449
N130 Z-1.005 F50.
N135 Y-10.9631 F21.
N140 Z-0.965
N145 Y-11.7131
N150 Z-1.005 F50.
N155 Y-12. F21.
N160 G2 X9.5 Y-12.25 I-0.25 J0.
N165 G1 X-9.5
N170 G2 X-9.75 Y-12. I0. J0.25
N175 G1 Y-11.7489
N180 Z-0.965
N185 Y-10.9989
N190 Z-1.005 F50.
N195 Y-6.1046 F21.
N200 Z-0.965
N205 Y-5.3546
N210 Z-1.005 F50.
N215 Y-1.1051 F21.
N220 Z-0.965
N225 Y-0.3551
N230 Z-1.005 F50.
N235 Y0. F21.
N240 G2 X-9.5 Y0.25 I0.25 J0.
N245 G3 X-9.45 Y0.3 I0. J0.05
N250 G1 Y0.35
N255 G19 G3 Y0.4 Z-0.955 J0. K0.05
N260 G0 Z0.6

N265 M5
N270 M9
N275 G53 G0 Z0.
N280 X0.
N285 G53 G0 Y0.
N290 M30

%
