%
O01005
(Using high feed G1 F500. instead of G0.)
(T1 D=2.5 CR=0.125 TAPER=45deg - ZMIN=1. - face mill)
(T2 D=0.5 CR=0. - ZMIN=0.875 - flat end mill)
N10 G90 G17
N15 G20
N20 G53 G0 Z0.

(Face1 2)
N25 T1 M6
N30 S4500 M3
N35 G54
N40 G17 G90
N45 M8
N50 G1 X16.5578 Y1.3736 F500.
N55 G0 G43 Z1.605 H1
N60 T2
N65 G0 Z1.205
N70 G1 Z1. F13.123
N75 Y1.2504 F56.25
N80 Y-13.2504
N85 G0 Z1.205
N90 G1 X15.3781 Y-13.375 F500.
N95 Z1. F13.123
N100 Y-13.2504 F56.25
N105 Y1.2504
N110 G0 Z1.205
N115 G1 X14.1984 Y1.375 F500.
N120 Z1. F13.123
N125 Y1.2504 F56.25
N130 Y-13.2504
N135 G0 Z1.205
N140 G1 X13.0187 Y-13.375 F500.
N145 Z1. F13.123
N150 Y-13.2504 F56.25
N155 Y1.2504
N160 G0 Z1.205
N165 G1 X11.8391 Y1.375 F500.
N170 Z1. F13.123
N175 Y1.2504 F56.25
N180 Y-13.2504
N185 G0 Z1.205
N190 G1 X10.6594 Y-13.375 F500.
N195 Z1. F13.123
N200 Y-13.2504 F56.25
N205 Y1.2504
N210 G0 Z1.205
N215 G1 X9.4797 Y1.375 F500.
N220 Z1. F13.123
N225 Y1.2504 F56.25
N230 Y-13.2504
N235 G0 Z1.205
N240 G1 X8.3 Y-13.375 F500.
N245 Z1. F13.123
N250 Y-13.2504 F56.25
N255 Y1.2504
N260 G0 Z1.205
N265 G1 X7.1203 Y1.375 F500.
N270 Z1. F13.123
N275 Y1.2504 F56.25
N280 Y-13.2504
N285 G0 Z1.205
N290 G1 X5.9406 Y-13.375 F500.
N295 Z1. F13.123
N300 Y-13.2504 F56.25
N305 Y1.2504
N310 G0 Z1.205
N315 G1 X4.7609 Y1.375 F500.
N320 Z1. F13.123
N325 Y1.2504 F56.25
N330 Y-13.2504
N335 G0 Z1.205
N340 G1 X3.5813 Y-13.375 F500.
N345 Z1. F13.123
N350 Y-13.2504 F56.25
N355 Y1.2504
N360 G0 Z1.605
N365 M9
N370 M5
N375 G53 G0 Z0.

(Slot1)
N380 M1
N385 T2 M6
N390 S3500 M3
N395 G54
N400 G17 G90
N405 M8
N410 G1 X6.9475 Y-1.27 F500.
N415 G0 G43 Z1.505 H2
N420 T1
N425 G0 Z1.105
N430 G1 Y-10.73 Z1.0833 F25.
N435 Y-1.27 Z1.0617
N440 Y-10.73 Z1.04
N445 Y-1.27 Z1.0183
N450 Y-10.73 Z0.9967
N455 Y-1.27 Z0.975
N460 Y-10.73 F31.5
N465 Y-1.27 Z0.925 F25.
N470 Y-10.73 F31.5
N475 Y-1.27 Z0.875 F25.
N480 Y-10.73 F31.5
N485 G0 Z1.105
N490 G1 X12.0525 Y-1.27 F500.
N495 Y-10.73 Z1.0833 F25.
N500 Y-1.27 Z1.0617
N505 Y-10.73 Z1.04
N510 Y-1.27 Z1.0183
N515 Y-10.73 Z0.9967
N520 Y-1.27 Z0.975
N525 Y-10.73 F31.5
N530 Y-1.27 Z0.925 F25.
N535 Y-10.73 F31.5
N540 Y-1.27 Z0.875 F25.
N545 Y-10.73 F31.5
N550 G0 Z1.505

(2D Contour2)
N555 G0 Z1.605
N560 G1 X6.935 Y-1.27 F500.
N565 G0 Z1.205
N570 G1 Z0.875 F20.
N575 Y-10.73 F21.
N580 G3 X6.96 I0.0125 J0.
N585 G1 Y-1.27
N590 G3 X6.935 I-0.0125 J0.
N595 G0 Z1.205
N600 G1 X12.065 Y-10.6558 F500.
N605 Z0.875 F20.
N610 Y-1.27 F21.
N615 G3 X12.04 I-0.0125 J0.
N620 G1 Y-10.73
N625 G3 X12.065 I0.0125 J0.
N630 G1 Y-10.6558
N635 G0 Z1.605

N640 M5
N645 M9
N650 G53 G0 Z0.
N655 X9.5
N660 G53 G0 Y0.
N665 M30

%
