%
O01006
(Using high feed G1 F500. instead of G0.)
(T1 D=2.5 CR=0.125 TAPER=45deg - ZMIN=1. - face mill)
(T2 D=0.5 CR=0. - ZMIN=0.875 - flat end mill)
N10 G90 G17
N15 G20
N20 G53 G0 Z0.

(Face1 2)
N25 T1 M6
N30 S4500 M3
N35 G54
N40 G17 G90
N45 M8
N50 G1 X16.7959 Y1.3426 F500.
N55 G0 G43 Z1.605 H1
N60 T2
N65 G0 Z1.205
N70 G1 Z1. F13.123
N75 Y1.2504 F33.75
N80 Y-13.2504
N85 G0 Z1.205
N90 G1 X15.8518 Y-13.375 F500.
N95 Z1. F13.123
N100 Y-13.2504 F33.75
N105 Y1.2504
N110 G0 Z1.205
N115 G1 X14.9078 Y1.375 F500.
N120 Z1. F13.123
N125 Y1.2504 F33.75
N130 Y-13.2504
N135 G0 Z1.205
N140 G1 X13.9637 Y-13.375 F500.
N145 Z1. F13.123
N150 Y-13.2504 F33.75
N155 Y1.2504
N160 G0 Z1.205
N165 G1 X13.0196 Y1.375 F500.
N170 Z1. F13.123
N175 Y1.2504 F33.75
N180 Y-13.2504
N185 G0 Z1.205
N190 G1 X12.0755 Y-13.375 F500.
N195 Z1. F13.123
N200 Y-13.2504 F33.75
N205 Y1.2504
N210 G0 Z1.205
N215 G1 X11.1314 Y1.375 F500.
N220 Z1. F13.123
N225 Y1.2504 F33.75
N230 Y-13.2504
N235 G0 Z1.205
N240 G1 X10.1873 Y-13.375 F500.
N245 Z1. F13.123
N250 Y-13.2504 F33.75
N255 Y1.2504
N260 G0 Z1.205
N265 G1 X9.2432 Y1.375 F500.
N270 Z1. F13.123
N275 Y1.2504 F33.75
N280 Y-13.2504
N285 G0 Z1.205
N290 G1 X8.2992 Y-13.375 F500.
N295 Z1. F13.123
N300 Y-13.2504 F33.75
N305 Y1.2504
N310 G0 Z1.205
N315 G1 X7.3551 Y1.375 F500.
N320 Z1. F13.123
N325 Y1.2504 F33.75
N330 Y-13.2504
N335 G0 Z1.205
N340 G1 X6.411 Y-13.375 F500.
N345 Z1. F13.123
N350 Y-13.2504 F33.75
N355 Y1.2504
N360 G0 Z1.205
N365 G1 X5.4669 Y1.375 F500.
N370 Z1. F13.123
N375 Y1.2504 F33.75
N380 Y-13.2504
N385 G0 Z1.205
N390 G1 X4.5228 Y-13.375 F500.
N395 Z1. F13.123
N400 Y-13.2504 F33.75
N405 Y1.2504
N410 G0 Z1.205
N415 G1 X3.5788 Y1.375 F500.
N420 Z1. F13.123
N425 Y1.2504 F33.75
N430 Y-13.2504
N435 G0 Z1.605
N440 M9
N445 M5
N450 G53 G0 Z0.

(Slot1)
N455 M1
N460 T2 M6
N465 S3500 M3
N470 G54
N475 G17 G90
N480 M8
N485 G1 X6.9475 Y-1.27 F500.
N490 G0 G43 Z1.505 H2
N495 T1
N500 G0 Z1.105
N505 G1 Y-10.73 Z1.0833 F25.
N510 Y-1.27 Z1.0617
N515 Y-10.73 Z1.04
N520 Y-1.27 Z1.0183
N525 Y-10.73 Z0.9967
N530 Y-1.27 Z0.975
N535 Y-10.73 F31.5
N540 Y-1.27 Z0.925 F25.
N545 Y-10.73 F31.5
N550 Y-1.27 Z0.875 F25.
N555 Y-10.73 F31.5
N560 G0 Z1.105
N565 G1 X12.0525 Y-1.27 F500.
N570 Y-10.73 Z1.0833 F25.
N575 Y-1.27 Z1.0617
N580 Y-10.73 Z1.04
N585 Y-1.27 Z1.0183
N590 Y-10.73 Z0.9967
N595 Y-1.27 Z0.975
N600 Y-10.73 F31.5
N605 Y-1.27 Z0.925 F25.
N610 Y-10.73 F31.5
N615 Y-1.27 Z0.875 F25.
N620 Y-10.73 F31.5
N625 G0 Z1.505

(2D Contour2)
N630 G0 Z1.605
N635 G1 X6.935 Y-1.27 F500.
N640 G0 Z1.205
N645 G1 Z0.875 F20.
N650 Y-10.73 F21.
N655 G3 X6.96 I0.0125 J0.
N660 G1 Y-1.27
N665 G3 X6.935 I-0.0125 J0.
N670 G0 Z1.205
N675 G1 X12.065 Y-10.6558 F500.
N680 Z0.875 F20.
N685 Y-1.27 F21.
N690 G3 X12.04 I-0.0125 J0.
N695 G1 Y-10.73
N700 G3 X12.065 I0.0125 J0.
N705 G1 Y-10.6558
N710 G0 Z1.605

N715 M5
N720 M9
N725 G53 G0 Z0.
N730 X9.5
N735 G53 G0 Y0.
N740 M30

%
