%
O01009
(Using high feed G1 F500. instead of G0.)
(T1 D=2.5 CR=0.125 TAPER=45deg - ZMIN=1. - face mill)
N10 G90 G17
N15 G20
N20 G53 G0 Z0.

(Face1 5)
N25 T1 M6
N30 S3500 M3
N35 G54
N40 G17 G90
N45 M8
N50 G1 X2.8521 Y1.329 F500.
N55 G0 G43 Z1.605 H1
N60 G0 Z1.205
N65 G1 Z1. F13.123
N70 Y1.2504 F35.
N75 Y-7.2504
N80 G2 X1.9667 I-0.4427 J0.
N85 G1 Y1.2504
N90 G3 X1.0813 I-0.4427 J0.
N95 G1 Y-7.2504
N100 G0 Z1.605

N105 M5
N110 M9
N115 G53 G0 Z0.
N120 X9.5
N125 G53 G0 Y0.
N130 M30

%
