%
O01011
(Using high feed G1 F500. instead of G0.)
(T1 D=2.5 CR=0.125 TAPER=45deg - ZMIN=1. - face mill)
N10 G90 G17
N15 G20
N20 G53 G0 Z0.

(Face1 6)
N25 T1 M6
N30 S3500 M3
N35 G54
N40 G17 G90
N45 M8
N50 G1 X15.9241 Y-13.2504 F500.
N55 G0 G43 Z1.605 H1
N60 G0 Z1.205
N65 G1 Z1. F13.123
N70 Y-4.7496 F35.
N75 G2 X16.5906 I0.3333 J0.
N80 G1 Y-13.2504
N85 G3 X17.2572 I0.3333 J0.
N90 G1 Y-4.7496
N95 G2 X17.9237 I0.3333 J0.
N100 G1 Y-13.2504
N105 G0 Z1.605

(Face1 5)
N110 G1 X3.0759 Y1.2504 F500.
N115 G0 Z1.605
N120 Z1.205
N125 G1 Z1. F13.123
N130 Y-7.2504 F35.
N135 G2 X2.4094 I-0.3333 J0.
N140 G1 Y1.2504
N145 G3 X1.7428 I-0.3333 J0.
N150 G1 Y-7.2504
N155 G2 X1.0763 I-0.3333 J0.
N160 G1 Y1.2504
N165 G0 Z1.605

(Face1 4)
N170 G1 X-0.5759 Y-13.2504 F500.
N175 G0 Z1.605
N180 Z1.205
N185 G1 Z1. F13.123
N190 Y-4.7496 F35.
N195 G2 X0.0906 I0.3333 J0.
N200 G1 Y-13.2504
N205 G3 X0.7572 I0.3333 J0.
N210 G1 Y-4.7496
N215 G2 X1.4237 I0.3333 J0.
N220 G1 Y-13.2504
N225 G0 Z1.605

N230 M5
N235 M9
N240 G53 G0 Z0.
N245 X9.5
N250 G53 G0 Y0.
N255 M30

%
