%
O01012
(Using high feed G1 F500. instead of G0.)
(T1 D=2.5 CR=0.125 TAPER=45deg - ZMIN=1. - face mill)
N10 G90 G17
N15 G20
N20 G53 G0 Z0.

(Face1 4)
N25 T1 M6
N30 S3500 M3
N35 G54
N40 G17 G90
N45 M8
N50 G1 X3.0759 Y-4.7496 F500.
N55 G0 G43 Z1.605 H1
N60 G0 Z1.205
N65 G1 Z1. F13.123
N70 Y-13.2504 F35.
N75 G2 X2.4094 I-0.3333 J0.
N80 G1 Y-4.7496
N85 G3 X1.7428 I-0.3333 J0.
N90 G1 Y-13.2504
N95 G2 X1.0763 I-0.3333 J0.
N100 G1 Y-4.7496
N105 G0 Z1.605

N110 M5
N115 M9
N120 G53 G0 Z0.
N125 X9.5
N130 G53 G0 Y0.
N135 M30

%
