%
O01013
(Using high feed G1 F500. instead of G0.)
(T3 D=0.25 CR=0. TAPER=118deg - ZMIN=0.85 - center drill)
(T4 D=0.5 CR=0. TAPER=118deg - ZMIN=-0.22 - drill)
(T5 D=0.4688 CR=0. TAPER=118deg - ZMIN=-0.22 - drill)
N10 G90 G17
N15 G20
N20 G53 G0 Z0.

(Drill1)
N25 T3 M6
N30 S764 M3
N35 G54
N40 G17 G90
N45 M8
N50 G1 X1.185 Y-11. F500.
N55 G0 G43 Z1.605 H3
N60 T4
N65 G0 Z1.205
N70 G95
N75 G98 G81 X1.185 Y-11. Z0.85 R1.199 F0.008
N80 G80
N85 G94
N90 G1 Y-9.15 Z1.205 F500.
N95 G95
N100 G98 G81 X1.185 Y-9.15 Z0.85 R1.2 F0.008
N105 Y-2.85
N110 G80
N115 G94
N120 G1 Y-1. Z1.205 F500.
N125 G95
N130 G98 G81 X1.185 Y-1. Z0.85 R1.199 F0.008
N135 X17.815
N140 G80
N145 G94
N150 G1 Y-2.85 Z1.205 F500.
N155 G95
N160 G98 G81 X17.815 Y-2.85 Z0.85 R1.2 F0.008
N165 Y-9.15
N170 G80
N175 G94
N180 G1 Y-11. Z1.205 F500.
N185 G95
N190 G98 G81 X17.815 Y-11. Z0.85 R1.199 F0.008
N195 G80
N200 G94
N205 G0 Z1.605
N210 M9
N215 M5
N220 G53 G0 Z0.

(Drill1 2)
N225 M1
N230 T4 M6
N235 S382 M3
N240 G54
N245 G17 G90
N250 M8
N255 G1 X1.185 Y-9.15 F500.
N260 G0 G43 Z1.605 H4
N265 T5
N270 G0 Z1.205
N275 G98 G83 X1.185 Y-9.15 Z-0.22 R1.2 Q0.1 F3.056
N280 Y-2.85
N285 X17.815
N290 Y-9.15
N295 G80
N300 G0 Z1.605
N305 M9
N310 M5
N315 G53 G0 Z0.

(Drill1 3)
N320 M1
N325 T5 M6
N330 S407 M3
N335 G54
N340 G17 G90
N345 M8
N350 G1 X1.185 Y-1. F500.
N355 G0 G43 Z1.605 H5
N360 T3
N365 G0 Z1.205
N370 G98 G83 X1.185 Y-1. Z-0.22 R1.199 Q0.1 F3.056
N375 Y-11.
N380 X17.815
N385 Y-1.
N390 G80
N395 G0 Z1.605

N400 M5
N405 M9
N410 G53 G0 Z0.
N415 X9.5
N420 G53 G0 Y0.
N425 M30

%
