%
O01014
(Using high feed G1 F500. instead of G0.)
(T3 D=0.25 CR=0. TAPER=118deg - ZMIN=0.85 - center drill)
(T4 D=0.5 CR=0. TAPER=118deg - ZMIN=-0.22 - drill)
(T5 D=0.4688 CR=0. TAPER=118deg - ZMIN=-0.22 - drill)
N10 G90 G17
N15 G20
N20 G53 G0 Z0.

(Drill1)
N25 T3 M6
N30 S764 M3
N35 G54
N40 G17 G90
N45 M8
N50 G1 X1.185 Y-11. F500.
N55 G0 G43 Z1.605 H3
N60 T4
N65 G0 Z1.205
N70 G95
N75 G98 G81 X1.185 Y-11. Z0.85 R1.199 F0.003
N80 G80
N85 G94
N90 G1 Y-9.15 Z1.205 F500.
N95 G95
N100 G98 G81 X1.185 Y-9.15 Z0.85 R1.2 F0.003
N105 Y-2.85
N110 G80
N115 G94
N120 G1 Y-1. Z1.205 F500.
N125 G95
N130 G98 G81 X1.185 Y-1. Z0.85 R1.199 F0.003
N135 X17.815
N140 G80
N145 G94
N150 G1 Y-2.85 Z1.205 F500.
N155 G95
N160 G98 G81 X17.815 Y-2.85 Z0.85 R1.2 F0.003
N165 Y-9.15
N170 G80
N175 G94
N180 G1 Y-11. Z1.205 F500.
N185 G95
N190 G98 G81 X17.815 Y-11. Z0.85 R1.199 F0.003
N195 G80
N200 G94
N205 G0 Z1.605
N210 M9
N215 M5
N220 G53 G0 Z0.

(Drill1 2)
N225 M1
N230 T4 M6
N235 S382 M3
N240 G54
N245 G17 G90
N250 M8
N255 G1 X1.185 Y-9.15 F500.
N260 G0 G43 Z1.605 H4
N265 T5
N270 G0 Z1.205
N275 Z1.2
N280 Z1.08
N285 G1 Z0.975 F1.528
N290 G0 Z1.
N295 G1 Z0.95 F1.528
N300 G0 Z0.975
N305 G1 Z0.925 F1.528
N310 G0 Z0.95
N315 G1 Z0.9 F1.528
N320 G0 Z0.925
N325 G1 Z0.875 F1.528
N330 G0 Z0.9
N335 G1 Z0.85 F1.528
N340 G0 Z0.875
N345 G1 Z0.825 F1.528
N350 G0 Z0.85
N355 G1 Z0.8 F1.528
N360 G0 Z0.825
N365 G1 Z0.775 F1.528
N370 G0 Z1.205
N375 Z0.855
N380 G1 Z0.75 F1.528
N385 G0 Z0.775
N390 G1 Z0.725 F1.528
N395 G0 Z0.75
N400 G1 Z0.7 F1.528
N405 G0 Z0.725
N410 G1 Z0.675 F1.528
N415 G0 Z0.7
N420 G1 Z0.65 F1.528
N425 G0 Z0.675
N430 G1 Z0.625 F1.528
N435 G0 Z0.65
N440 G1 Z0.6 F1.528
N445 G0 Z0.625
N450 G1 Z0.575 F1.528
N455 G0 Z0.6
N460 G1 Z0.55 F1.528
N465 G0 Z1.205
N470 Z0.63
N475 G1 Z0.525 F1.528
N480 G0 Z0.55
N485 G1 Z0.5 F1.528
N490 G0 Z0.525
N495 G1 Z0.475 F1.528
N500 G0 Z0.5
N505 G1 Z0.45 F1.528
N510 G0 Z0.475
N515 G1 Z0.425 F1.528
N520 G0 Z0.45
N525 G1 Z0.4 F1.528
N530 G0 Z0.425
N535 G1 Z0.375 F1.528
N540 G0 Z0.4
N545 G1 Z0.35 F1.528
N550 G0 Z0.375
N555 G1 Z0.325 F1.528
N560 G0 Z1.205
N565 Z0.405
N570 G1 Z0.3 F1.528
N575 G0 Z0.325
N580 G1 Z0.275 F1.528
N585 G0 Z0.3
N590 G1 Z0.25 F1.528
N595 G0 Z0.275
N600 G1 Z0.225 F1.528
N605 G0 Z0.25
N610 G1 Z0.2 F1.528
N615 G0 Z0.225
N620 G1 Z0.175 F1.528
N625 G0 Z0.2
N630 G1 Z0.15 F1.528
N635 G0 Z0.175
N640 G1 Z0.125 F1.528
N645 G0 Z0.15
N650 G1 Z0.1 F1.528
N655 G0 Z1.205
N660 Z0.18
N665 G1 Z0.075 F1.528
N670 G0 Z0.1
N675 G1 Z0.05 F1.528
N680 G0 Z0.075
N685 G1 Z0.025 F1.528
N690 G0 Z0.05
N695 G1 Z0. F1.528
N700 G0 Z0.025
N705 G1 Z-0.025 F1.528
N710 G0 Z0.
N715 G1 Z-0.05 F1.528
N720 G0 Z-0.025
N725 G1 Z-0.075 F1.528
N730 G0 Z-0.05
N735 G1 Z-0.1 F1.528
N740 G0 Z-0.075
N745 G1 Z-0.125 F1.528
N750 G0 Z1.205
N755 Z-0.045
N760 G1 Z-0.15 F1.528
N765 G0 Z-0.125
N770 G1 Z-0.175 F1.528
N775 G0 Z-0.15
N780 G1 Z-0.2 F1.528
N785 G0 Z-0.175
N790 G1 Z-0.22 F1.528
N795 G0 Z1.205
N800 Y-2.85
N805 Z1.2
N810 Z1.08
N815 G1 Z0.975 F1.528
N820 G0 Z1.
N825 G1 Z0.95 F1.528
N830 G0 Z0.975
N835 G1 Z0.925 F1.528
N840 G0 Z0.95
N845 G1 Z0.9 F1.528
N850 G0 Z0.925
N855 G1 Z0.875 F1.528
N860 G0 Z0.9
N865 G1 Z0.85 F1.528
N870 G0 Z0.875
N875 G1 Z0.825 F1.528
N880 G0 Z0.85
N885 G1 Z0.8 F1.528
N890 G0 Z0.825
N895 G1 Z0.775 F1.528
N900 G0 Z1.205
N905 Z0.855
N910 G1 Z0.75 F1.528
N915 G0 Z0.775
N920 G1 Z0.725 F1.528
N925 G0 Z0.75
N930 G1 Z0.7 F1.528
N935 G0 Z0.725
N940 G1 Z0.675 F1.528
N945 G0 Z0.7
N950 G1 Z0.65 F1.528
N955 G0 Z0.675
N960 G1 Z0.625 F1.528
N965 G0 Z0.65
N970 G1 Z0.6 F1.528
N975 G0 Z0.625
N980 G1 Z0.575 F1.528
N985 G0 Z0.6
N990 G1 Z0.55 F1.528
N995 G0 Z1.205
N1000 Z0.63
N1005 G1 Z0.525 F1.528
N1010 G0 Z0.55
N1015 G1 Z0.5 F1.528
N1020 G0 Z0.525
N1025 G1 Z0.475 F1.528
N1030 G0 Z0.5
N1035 G1 Z0.45 F1.528
N1040 G0 Z0.475
N1045 G1 Z0.425 F1.528
N1050 G0 Z0.45
N1055 G1 Z0.4 F1.528
N1060 G0 Z0.425
N1065 G1 Z0.375 F1.528
N1070 G0 Z0.4
N1075 G1 Z0.35 F1.528
N1080 G0 Z0.375
N1085 G1 Z0.325 F1.528
N1090 G0 Z1.205
N1095 Z0.405
N1100 G1 Z0.3 F1.528
N1105 G0 Z0.325
N1110 G1 Z0.275 F1.528
N1115 G0 Z0.3
N1120 G1 Z0.25 F1.528
N1125 G0 Z0.275
N1130 G1 Z0.225 F1.528
N1135 G0 Z0.25
N1140 G1 Z0.2 F1.528
N1145 G0 Z0.225
N1150 G1 Z0.175 F1.528
N1155 G0 Z0.2
N1160 G1 Z0.15 F1.528
N1165 G0 Z0.175
N1170 G1 Z0.125 F1.528
N1175 G0 Z0.15
N1180 G1 Z0.1 F1.528
N1185 G0 Z1.205
N1190 Z0.18
N1195 G1 Z0.075 F1.528
N1200 G0 Z0.1
N1205 G1 Z0.05 F1.528
N1210 G0 Z0.075
N1215 G1 Z0.025 F1.528
N1220 G0 Z0.05
N1225 G1 Z0. F1.528
N1230 G0 Z0.025
N1235 G1 Z-0.025 F1.528
N1240 G0 Z0.
N1245 G1 Z-0.05 F1.528
N1250 G0 Z-0.025
N1255 G1 Z-0.075 F1.528
N1260 G0 Z-0.05
N1265 G1 Z-0.1 F1.528
N1270 G0 Z-0.075
N1275 G1 Z-0.125 F1.528
N1280 G0 Z1.205
N1285 Z-0.045
N1290 G1 Z-0.15 F1.528
N1295 G0 Z-0.125
N1300 G1 Z-0.175 F1.528
N1305 G0 Z-0.15
N1310 G1 Z-0.2 F1.528
N1315 G0 Z-0.175
N1320 G1 Z-0.22 F1.528
N1325 G0 Z1.205
N1330 X17.815
N1335 Z1.2
N1340 Z1.08
N1345 G1 Z0.975 F1.528
N1350 G0 Z1.
N1355 G1 Z0.95 F1.528
N1360 G0 Z0.975
N1365 G1 Z0.925 F1.528
N1370 G0 Z0.95
N1375 G1 Z0.9 F1.528
N1380 G0 Z0.925
N1385 G1 Z0.875 F1.528
N1390 G0 Z0.9
N1395 G1 Z0.85 F1.528
N1400 G0 Z0.875
N1405 G1 Z0.825 F1.528
N1410 G0 Z0.85
N1415 G1 Z0.8 F1.528
N1420 G0 Z0.825
N1425 G1 Z0.775 F1.528
N1430 G0 Z1.205
N1435 Z0.855
N1440 G1 Z0.75 F1.528
N1445 G0 Z0.775
N1450 G1 Z0.725 F1.528
N1455 G0 Z0.75
N1460 G1 Z0.7 F1.528
N1465 G0 Z0.725
N1470 G1 Z0.675 F1.528
N1475 G0 Z0.7
N1480 G1 Z0.65 F1.528
N1485 G0 Z0.675
N1490 G1 Z0.625 F1.528
N1495 G0 Z0.65
N1500 G1 Z0.6 F1.528
N1505 G0 Z0.625
N1510 G1 Z0.575 F1.528
N1515 G0 Z0.6
N1520 G1 Z0.55 F1.528
N1525 G0 Z1.205
N1530 Z0.63
N1535 G1 Z0.525 F1.528
N1540 G0 Z0.55
N1545 G1 Z0.5 F1.528
N1550 G0 Z0.525
N1555 G1 Z0.475 F1.528
N1560 G0 Z0.5
N1565 G1 Z0.45 F1.528
N1570 G0 Z0.475
N1575 G1 Z0.425 F1.528
N1580 G0 Z0.45
N1585 G1 Z0.4 F1.528
N1590 G0 Z0.425
N1595 G1 Z0.375 F1.528
N1600 G0 Z0.4
N1605 G1 Z0.35 F1.528
N1610 G0 Z0.375
N1615 G1 Z0.325 F1.528
N1620 G0 Z1.205
N1625 Z0.405
N1630 G1 Z0.3 F1.528
N1635 G0 Z0.325
N1640 G1 Z0.275 F1.528
N1645 G0 Z0.3
N1650 G1 Z0.25 F1.528
N1655 G0 Z0.275
N1660 G1 Z0.225 F1.528
N1665 G0 Z0.25
N1670 G1 Z0.2 F1.528
N1675 G0 Z0.225
N1680 G1 Z0.175 F1.528
N1685 G0 Z0.2
N1690 G1 Z0.15 F1.528
N1695 G0 Z0.175
N1700 G1 Z0.125 F1.528
N1705 G0 Z0.15
N1710 G1 Z0.1 F1.528
N1715 G0 Z1.205
N1720 Z0.18
N1725 G1 Z0.075 F1.528
N1730 G0 Z0.1
N1735 G1 Z0.05 F1.528
N1740 G0 Z0.075
N1745 G1 Z0.025 F1.528
N1750 G0 Z0.05
N1755 G1 Z0. F1.528
N1760 G0 Z0.025
N1765 G1 Z-0.025 F1.528
N1770 G0 Z0.
N1775 G1 Z-0.05 F1.528
N1780 G0 Z-0.025
N1785 G1 Z-0.075 F1.528
N1790 G0 Z-0.05
N1795 G1 Z-0.1 F1.528
N1800 G0 Z-0.075
N1805 G1 Z-0.125 F1.528
N1810 G0 Z1.205
N1815 Z-0.045
N1820 G1 Z-0.15 F1.528
N1825 G0 Z-0.125
N1830 G1 Z-0.175 F1.528
N1835 G0 Z-0.15
N1840 G1 Z-0.2 F1.528
N1845 G0 Z-0.175
N1850 G1 Z-0.22 F1.528
N1855 G0 Z1.205
N1860 Y-9.15
N1865 Z1.2
N1870 Z1.08
N1875 G1 Z0.975 F1.528
N1880 G0 Z1.
N1885 G1 Z0.95 F1.528
N1890 G0 Z0.975
N1895 G1 Z0.925 F1.528
N1900 G0 Z0.95
N1905 G1 Z0.9 F1.528
N1910 G0 Z0.925
N1915 G1 Z0.875 F1.528
N1920 G0 Z0.9
N1925 G1 Z0.85 F1.528
N1930 G0 Z0.875
N1935 G1 Z0.825 F1.528
N1940 G0 Z0.85
N1945 G1 Z0.8 F1.528
N1950 G0 Z0.825
N1955 G1 Z0.775 F1.528
N1960 G0 Z1.205
N1965 Z0.855
N1970 G1 Z0.75 F1.528
N1975 G0 Z0.775
N1980 G1 Z0.725 F1.528
N1985 G0 Z0.75
N1990 G1 Z0.7 F1.528
N1995 G0 Z0.725
N2000 G1 Z0.675 F1.528
N2005 G0 Z0.7
N2010 G1 Z0.65 F1.528
N2015 G0 Z0.675
N2020 G1 Z0.625 F1.528
N2025 G0 Z0.65
N2030 G1 Z0.6 F1.528
N2035 G0 Z0.625
N2040 G1 Z0.575 F1.528
N2045 G0 Z0.6
N2050 G1 Z0.55 F1.528
N2055 G0 Z1.205
N2060 Z0.63
N2065 G1 Z0.525 F1.528
N2070 G0 Z0.55
N2075 G1 Z0.5 F1.528
N2080 G0 Z0.525
N2085 G1 Z0.475 F1.528
N2090 G0 Z0.5
N2095 G1 Z0.45 F1.528
N2100 G0 Z0.475
N2105 G1 Z0.425 F1.528
N2110 G0 Z0.45
N2115 G1 Z0.4 F1.528
N2120 G0 Z0.425
N2125 G1 Z0.375 F1.528
N2130 G0 Z0.4
N2135 G1 Z0.35 F1.528
N2140 G0 Z0.375
N2145 G1 Z0.325 F1.528
N2150 G0 Z1.205
N2155 Z0.405
N2160 G1 Z0.3 F1.528
N2165 G0 Z0.325
N2170 G1 Z0.275 F1.528
N2175 G0 Z0.3
N2180 G1 Z0.25 F1.528
N2185 G0 Z0.275
N2190 G1 Z0.225 F1.528
N2195 G0 Z0.25
N2200 G1 Z0.2 F1.528
N2205 G0 Z0.225
N2210 G1 Z0.175 F1.528
N2215 G0 Z0.2
N2220 G1 Z0.15 F1.528
N2225 G0 Z0.175
N2230 G1 Z0.125 F1.528
N2235 G0 Z0.15
N2240 G1 Z0.1 F1.528
N2245 G0 Z1.205
N2250 Z0.18
N2255 G1 Z0.075 F1.528
N2260 G0 Z0.1
N2265 G1 Z0.05 F1.528
N2270 G0 Z0.075
N2275 G1 Z0.025 F1.528
N2280 G0 Z0.05
N2285 G1 Z0. F1.528
N2290 G0 Z0.025
N2295 G1 Z-0.025 F1.528
N2300 G0 Z0.
N2305 G1 Z-0.05 F1.528
N2310 G0 Z-0.025
N2315 G1 Z-0.075 F1.528
N2320 G0 Z-0.05
N2325 G1 Z-0.1 F1.528
N2330 G0 Z-0.075
N2335 G1 Z-0.125 F1.528
N2340 G0 Z1.205
N2345 Z-0.045
N2350 G1 Z-0.15 F1.528
N2355 G0 Z-0.125
N2360 G1 Z-0.175 F1.528
N2365 G0 Z-0.15
N2370 G1 Z-0.2 F1.528
N2375 G0 Z-0.175
N2380 G1 Z-0.22 F1.528
N2385 G0 Z1.205
N2390 Z1.605
N2395 M9
N2400 M5
N2405 G53 G0 Z0.

(Drill1 3)
N2410 M1
N2415 T5 M6
N2420 S407 M3
N2425 G54
N2430 G17 G90
N2435 M8
N2440 G1 X1.185 Y-1. F500.
N2445 G0 G43 Z1.605 H5
N2450 T3
N2455 G0 Z1.205
N2460 Z1.199
N2465 Z1.079
N2470 G1 Z0.974 F1.426
N2475 G0 Z0.999
N2480 G1 Z0.949 F1.426
N2485 G0 Z0.974
N2490 G1 Z0.924 F1.426
N2495 G0 Z0.949
N2500 G1 Z0.899 F1.426
N2505 G0 Z0.924
N2510 G1 Z0.874 F1.426
N2515 G0 Z0.899
N2520 G1 Z0.849 F1.426
N2525 G0 Z0.874
N2530 G1 Z0.824 F1.426
N2535 G0 Z0.849
N2540 G1 Z0.799 F1.426
N2545 G0 Z0.824
N2550 G1 Z0.774 F1.426
N2555 G0 Z1.205
N2560 Z0.854
N2565 G1 Z0.749 F1.426
N2570 G0 Z0.774
N2575 G1 Z0.724 F1.426
N2580 G0 Z0.749
N2585 G1 Z0.699 F1.426
N2590 G0 Z0.724
N2595 G1 Z0.674 F1.426
N2600 G0 Z0.699
N2605 G1 Z0.649 F1.426
N2610 G0 Z0.674
N2615 G1 Z0.624 F1.426
N2620 G0 Z0.649
N2625 G1 Z0.599 F1.426
N2630 G0 Z0.624
N2635 G1 Z0.574 F1.426
N2640 G0 Z0.599
N2645 G1 Z0.549 F1.426
N2650 G0 Z1.205
N2655 Z0.629
N2660 G1 Z0.524 F1.426
N2665 G0 Z0.549
N2670 G1 Z0.499 F1.426
N2675 G0 Z0.524
N2680 G1 Z0.474 F1.426
N2685 G0 Z0.499
N2690 G1 Z0.449 F1.426
N2695 G0 Z0.474
N2700 G1 Z0.424 F1.426
N2705 G0 Z0.449
N2710 G1 Z0.399 F1.426
N2715 G0 Z0.424
N2720 G1 Z0.374 F1.426
N2725 G0 Z0.399
N2730 G1 Z0.349 F1.426
N2735 G0 Z0.374
N2740 G1 Z0.324 F1.426
N2745 G0 Z1.205
N2750 Z0.404
N2755 G1 Z0.299 F1.426
N2760 G0 Z0.324
N2765 G1 Z0.274 F1.426
N2770 G0 Z0.299
N2775 G1 Z0.249 F1.426
N2780 G0 Z0.274
N2785 G1 Z0.224 F1.426
N2790 G0 Z0.249
N2795 G1 Z0.199 F1.426
N2800 G0 Z0.224
N2805 G1 Z0.174 F1.426
N2810 G0 Z0.199
N2815 G1 Z0.149 F1.426
N2820 G0 Z0.174
N2825 G1 Z0.124 F1.426
N2830 G0 Z0.149
N2835 G1 Z0.099 F1.426
N2840 G0 Z1.205
N2845 Z0.179
N2850 G1 Z0.074 F1.426
N2855 G0 Z0.099
N2860 G1 Z0.049 F1.426
N2865 G0 Z0.074
N2870 G1 Z0.024 F1.426
N2875 G0 Z0.049
N2880 G1 Z-0.001 F1.426
N2885 G0 Z0.024
N2890 G1 Z-0.026 F1.426
N2895 G0 Z-0.001
N2900 G1 Z-0.051 F1.426
N2905 G0 Z-0.026
N2910 G1 Z-0.076 F1.426
N2915 G0 Z-0.051
N2920 G1 Z-0.101 F1.426
N2925 G0 Z-0.076
N2930 G1 Z-0.126 F1.426
N2935 G0 Z1.205
N2940 Z-0.046
N2945 G1 Z-0.151 F1.426
N2950 G0 Z-0.126
N2955 G1 Z-0.176 F1.426
N2960 G0 Z-0.151
N2965 G1 Z-0.201 F1.426
N2970 G0 Z-0.176
N2975 G1 Z-0.22 F1.426
N2980 G0 Z1.205
N2985 Y-11.
N2990 Z1.199
N2995 Z1.079
N3000 G1 Z0.974 F1.426
N3005 G0 Z0.999
N3010 G1 Z0.949 F1.426
N3015 G0 Z0.974
N3020 G1 Z0.924 F1.426
N3025 G0 Z0.949
N3030 G1 Z0.899 F1.426
N3035 G0 Z0.924
N3040 G1 Z0.874 F1.426
N3045 G0 Z0.899
N3050 G1 Z0.849 F1.426
N3055 G0 Z0.874
N3060 G1 Z0.824 F1.426
N3065 G0 Z0.849
N3070 G1 Z0.799 F1.426
N3075 G0 Z0.824
N3080 G1 Z0.774 F1.426
N3085 G0 Z1.205
N3090 Z0.854
N3095 G1 Z0.749 F1.426
N3100 G0 Z0.774
N3105 G1 Z0.724 F1.426
N3110 G0 Z0.749
N3115 G1 Z0.699 F1.426
N3120 G0 Z0.724
N3125 G1 Z0.674 F1.426
N3130 G0 Z0.699
N3135 G1 Z0.649 F1.426
N3140 G0 Z0.674
N3145 G1 Z0.624 F1.426
N3150 G0 Z0.649
N3155 G1 Z0.599 F1.426
N3160 G0 Z0.624
N3165 G1 Z0.574 F1.426
N3170 G0 Z0.599
N3175 G1 Z0.549 F1.426
N3180 G0 Z1.205
N3185 Z0.629
N3190 G1 Z0.524 F1.426
N3195 G0 Z0.549
N3200 G1 Z0.499 F1.426
N3205 G0 Z0.524
N3210 G1 Z0.474 F1.426
N3215 G0 Z0.499
N3220 G1 Z0.449 F1.426
N3225 G0 Z0.474
N3230 G1 Z0.424 F1.426
N3235 G0 Z0.449
N3240 G1 Z0.399 F1.426
N3245 G0 Z0.424
N3250 G1 Z0.374 F1.426
N3255 G0 Z0.399
N3260 G1 Z0.349 F1.426
N3265 G0 Z0.374
N3270 G1 Z0.324 F1.426
N3275 G0 Z1.205
N3280 Z0.404
N3285 G1 Z0.299 F1.426
N3290 G0 Z0.324
N3295 G1 Z0.274 F1.426
N3300 G0 Z0.299
N3305 G1 Z0.249 F1.426
N3310 G0 Z0.274
N3315 G1 Z0.224 F1.426
N3320 G0 Z0.249
N3325 G1 Z0.199 F1.426
N3330 G0 Z0.224
N3335 G1 Z0.174 F1.426
N3340 G0 Z0.199
N3345 G1 Z0.149 F1.426
N3350 G0 Z0.174
N3355 G1 Z0.124 F1.426
N3360 G0 Z0.149
N3365 G1 Z0.099 F1.426
N3370 G0 Z1.205
N3375 Z0.179
N3380 G1 Z0.074 F1.426
N3385 G0 Z0.099
N3390 G1 Z0.049 F1.426
N3395 G0 Z0.074
N3400 G1 Z0.024 F1.426
N3405 G0 Z0.049
N3410 G1 Z-0.001 F1.426
N3415 G0 Z0.024
N3420 G1 Z-0.026 F1.426
N3425 G0 Z-0.001
N3430 G1 Z-0.051 F1.426
N3435 G0 Z-0.026
N3440 G1 Z-0.076 F1.426
N3445 G0 Z-0.051
N3450 G1 Z-0.101 F1.426
N3455 G0 Z-0.076
N3460 G1 Z-0.126 F1.426
N3465 G0 Z1.205
N3470 Z-0.046
N3475 G1 Z-0.151 F1.426
N3480 G0 Z-0.126
N3485 G1 Z-0.176 F1.426
N3490 G0 Z-0.151
N3495 G1 Z-0.201 F1.426
N3500 G0 Z-0.176
N3505 G1 Z-0.22 F1.426
N3510 G0 Z1.205
N3515 X17.815
N3520 Z1.199
N3525 Z1.079
N3530 G1 Z0.974 F1.426
N3535 G0 Z0.999
N3540 G1 Z0.949 F1.426
N3545 G0 Z0.974
N3550 G1 Z0.924 F1.426
N3555 G0 Z0.949
N3560 G1 Z0.899 F1.426
N3565 G0 Z0.924
N3570 G1 Z0.874 F1.426
N3575 G0 Z0.899
N3580 G1 Z0.849 F1.426
N3585 G0 Z0.874
N3590 G1 Z0.824 F1.426
N3595 G0 Z0.849
N3600 G1 Z0.799 F1.426
N3605 G0 Z0.824
N3610 G1 Z0.774 F1.426
N3615 G0 Z1.205
N3620 Z0.854
N3625 G1 Z0.749 F1.426
N3630 G0 Z0.774
N3635 G1 Z0.724 F1.426
N3640 G0 Z0.749
N3645 G1 Z0.699 F1.426
N3650 G0 Z0.724
N3655 G1 Z0.674 F1.426
N3660 G0 Z0.699
N3665 G1 Z0.649 F1.426
N3670 G0 Z0.674
N3675 G1 Z0.624 F1.426
N3680 G0 Z0.649
N3685 G1 Z0.599 F1.426
N3690 G0 Z0.624
N3695 G1 Z0.574 F1.426
N3700 G0 Z0.599
N3705 G1 Z0.549 F1.426
N3710 G0 Z1.205
N3715 Z0.629
N3720 G1 Z0.524 F1.426
N3725 G0 Z0.549
N3730 G1 Z0.499 F1.426
N3735 G0 Z0.524
N3740 G1 Z0.474 F1.426
N3745 G0 Z0.499
N3750 G1 Z0.449 F1.426
N3755 G0 Z0.474
N3760 G1 Z0.424 F1.426
N3765 G0 Z0.449
N3770 G1 Z0.399 F1.426
N3775 G0 Z0.424
N3780 G1 Z0.374 F1.426
N3785 G0 Z0.399
N3790 G1 Z0.349 F1.426
N3795 G0 Z0.374
N3800 G1 Z0.324 F1.426
N3805 G0 Z1.205
N3810 Z0.404
N3815 G1 Z0.299 F1.426
N3820 G0 Z0.324
N3825 G1 Z0.274 F1.426
N3830 G0 Z0.299
N3835 G1 Z0.249 F1.426
N3840 G0 Z0.274
N3845 G1 Z0.224 F1.426
N3850 G0 Z0.249
N3855 G1 Z0.199 F1.426
N3860 G0 Z0.224
N3865 G1 Z0.174 F1.426
N3870 G0 Z0.199
N3875 G1 Z0.149 F1.426
N3880 G0 Z0.174
N3885 G1 Z0.124 F1.426
N3890 G0 Z0.149
N3895 G1 Z0.099 F1.426
N3900 G0 Z1.205
N3905 Z0.179
N3910 G1 Z0.074 F1.426
N3915 G0 Z0.099
N3920 G1 Z0.049 F1.426
N3925 G0 Z0.074
N3930 G1 Z0.024 F1.426
N3935 G0 Z0.049
N3940 G1 Z-0.001 F1.426
N3945 G0 Z0.024
N3950 G1 Z-0.026 F1.426
N3955 G0 Z-0.001
N3960 G1 Z-0.051 F1.426
N3965 G0 Z-0.026
N3970 G1 Z-0.076 F1.426
N3975 G0 Z-0.051
N3980 G1 Z-0.101 F1.426
N3985 G0 Z-0.076
N3990 G1 Z-0.126 F1.426
N3995 G0 Z1.205
N4000 Z-0.046
N4005 G1 Z-0.151 F1.426
N4010 G0 Z-0.126
N4015 G1 Z-0.176 F1.426
N4020 G0 Z-0.151
N4025 G1 Z-0.201 F1.426
N4030 G0 Z-0.176
N4035 G1 Z-0.22 F1.426
N4040 G0 Z1.205
N4045 Y-1.
N4050 Z1.199
N4055 Z1.079
N4060 G1 Z0.974 F1.426
N4065 G0 Z0.999
N4070 G1 Z0.949 F1.426
N4075 G0 Z0.974
N4080 G1 Z0.924 F1.426
N4085 G0 Z0.949
N4090 G1 Z0.899 F1.426
N4095 G0 Z0.924
N4100 G1 Z0.874 F1.426
N4105 G0 Z0.899
N4110 G1 Z0.849 F1.426
N4115 G0 Z0.874
N4120 G1 Z0.824 F1.426
N4125 G0 Z0.849
N4130 G1 Z0.799 F1.426
N4135 G0 Z0.824
N4140 G1 Z0.774 F1.426
N4145 G0 Z1.205
N4150 Z0.854
N4155 G1 Z0.749 F1.426
N4160 G0 Z0.774
N4165 G1 Z0.724 F1.426
N4170 G0 Z0.749
N4175 G1 Z0.699 F1.426
N4180 G0 Z0.724
N4185 G1 Z0.674 F1.426
N4190 G0 Z0.699
N4195 G1 Z0.649 F1.426
N4200 G0 Z0.674
N4205 G1 Z0.624 F1.426
N4210 G0 Z0.649
N4215 G1 Z0.599 F1.426
N4220 G0 Z0.624
N4225 G1 Z0.574 F1.426
N4230 G0 Z0.599
N4235 G1 Z0.549 F1.426
N4240 G0 Z1.205
N4245 Z0.629
N4250 G1 Z0.524 F1.426
N4255 G0 Z0.549
N4260 G1 Z0.499 F1.426
N4265 G0 Z0.524
N4270 G1 Z0.474 F1.426
N4275 G0 Z0.499
N4280 G1 Z0.449 F1.426
N4285 G0 Z0.474
N4290 G1 Z0.424 F1.426
N4295 G0 Z0.449
N4300 G1 Z0.399 F1.426
N4305 G0 Z0.424
N4310 G1 Z0.374 F1.426
N4315 G0 Z0.399
N4320 G1 Z0.349 F1.426
N4325 G0 Z0.374
N4330 G1 Z0.324 F1.426
N4335 G0 Z1.205
N4340 Z0.404
N4345 G1 Z0.299 F1.426
N4350 G0 Z0.324
N4355 G1 Z0.274 F1.426
N4360 G0 Z0.299
N4365 G1 Z0.249 F1.426
N4370 G0 Z0.274
N4375 G1 Z0.224 F1.426
N4380 G0 Z0.249
N4385 G1 Z0.199 F1.426
N4390 G0 Z0.224
N4395 G1 Z0.174 F1.426
N4400 G0 Z0.199
N4405 G1 Z0.149 F1.426
N4410 G0 Z0.174
N4415 G1 Z0.124 F1.426
N4420 G0 Z0.149
N4425 G1 Z0.099 F1.426
N4430 G0 Z1.205
N4435 Z0.179
N4440 G1 Z0.074 F1.426
N4445 G0 Z0.099
N4450 G1 Z0.049 F1.426
N4455 G0 Z0.074
N4460 G1 Z0.024 F1.426
N4465 G0 Z0.049
N4470 G1 Z-0.001 F1.426
N4475 G0 Z0.024
N4480 G1 Z-0.026 F1.426
N4485 G0 Z-0.001
N4490 G1 Z-0.051 F1.426
N4495 G0 Z-0.026
N4500 G1 Z-0.076 F1.426
N4505 G0 Z-0.051
N4510 G1 Z-0.101 F1.426
N4515 G0 Z-0.076
N4520 G1 Z-0.126 F1.426
N4525 G0 Z1.205
N4530 Z-0.046
N4535 G1 Z-0.151 F1.426
N4540 G0 Z-0.126
N4545 G1 Z-0.176 F1.426
N4550 G0 Z-0.151
N4555 G1 Z-0.201 F1.426
N4560 G0 Z-0.176
N4565 G1 Z-0.22 F1.426
N4570 G0 Z1.205
N4575 Z1.605

N4580 M5
N4585 M9
N4590 G53 G0 Z0.
N4595 X9.5
N4600 G53 G0 Y0.
N4605 M30

%
