%
O01001
(Using high feed G1 F500. instead of G0.)
(T1 D=0.5 CR=0. - ZMIN=0.4569 - flat end mill)
(T2 D=0.5 CR=0.25 - ZMIN=0.6432 - ball end mill)
N10 G90 G17
N15 G20
N20 G53 G0 Z0.

(adaptive top)
N25 T1 M6
N30 S5000 M3
N35 G54
N40 G17 G90
N45 M8
N50 G1 X-0.0491 Y-1.8211 F500.
N55 G0 G43 Z1.85 H1
N60 T2
N65 G0 Z0.5569
N70 G1 Z0.5069 F69.
N75 X-0.049 Y-1.8208 Z0.5013
N80 X-0.0487 Y-1.8199 Z0.4957
N85 X-0.0484 Y-1.8184 Z0.4903
N90 X-0.0478 Y-1.8163 Z0.4852
N95 X-0.0472 Y-1.8137 Z0.4802
N100 X-0.0463 Y-1.8106 Z0.4757
N105 X-0.0454 Y-1.807 Z0.4715
N110 X-0.0444 Y-1.8029 Z0.4678
N115 X-0.0432 Y-1.7985 Z0.4645
N120 X-0.042 Y-1.7937 Z0.4618
N125 X-0.0407 Y-1.7887 Z0.4597
N130 X-0.0394 Y-1.7835 Z0.4581
N135 X-0.038 Y-1.7781 Z0.4572
N140 X-0.0366 Y-1.7727 Z0.4569
N145 G3 X0.0025 Y-1.5005 I-1.2366 J0.3167
N150 G1 Y-1.4973
N155 X-0.042 Y-1.4708
N160 X-0.0811 Y-1.4369
N165 X-0.1143 Y-1.3971
N170 X-0.1413 Y-1.3529
N175 X-0.1625 Y-1.3057
N180 X-0.1785 Y-1.2565
N185 X-0.1901 Y-1.206
N190 X-0.1981 Y-1.1548
N195 G2 X-0.2104 Y-0.9481 I1.9445 J0.2185
N200 X-0.2124 Y-0.5857 I20.0295 J0.2968
N205 G1 X-0.2125 Y-0.275
N210 Y-0.1196
N215 X-0.21 Y-0.0679
N220 X-0.1962 Y-0.018
N225 X-0.1725 Y0.0281
N230 X-0.1409 Y0.0691
N235 X-0.1028 Y0.1042
N240 X-0.0599 Y0.1332
N245 X-0.0135 Y0.1562
N250 X0.0352 Y0.1739
N255 X0.0853 Y0.1868
N260 X0.1363 Y0.1959
N265 G2 X0.3428 Y0.21 I0.2204 J-1.7073
N270 X0.7053 Y0.2124 I0.2972 J-17.1027
N275 G1 X0.9642 Y0.2125
N280 X2.1553
N285 X2.8802
N290 X2.932 Y0.2101
N295 X2.9819 Y0.1962
N300 X3.028 Y0.1726
N305 X3.0689 Y0.141
N310 X3.1041 Y0.1029
N315 X3.1331 Y0.06
N320 X3.1562 Y0.0137
N325 X3.1738 Y-0.035
N330 X3.1868 Y-0.0851
N335 X3.1958 Y-0.1361
N340 G2 X3.21 Y-0.3427 I-1.7052 J-0.2204
N345 X3.2124 Y-0.7051 I-17.078 J-0.2972
N350 G1 X3.2125 Y-0.9123
N355 Y-1.1712
N360 X3.2009 Y-1.2217
N365 X3.1792 Y-1.2687
N370 X3.1491 Y-1.3108
N375 X3.1123 Y-1.3472
N380 X3.0703 Y-1.3775
N385 X3.0246 Y-1.4018
N390 X2.9763 Y-1.4205
N395 X2.9264 Y-1.4344
N400 X2.8756 Y-1.4442
N405 G2 X2.6691 Y-1.4597 I-0.2217 J1.5715
N410 X2.3067 Y-1.4624 I-0.2975 J15.4333
N415 G1 X2.0478 Y-1.4625
N420 X1.5817
N425 X0.1835
N430 X0.132 Y-1.4569
N435 X0.0824 Y-1.4422
N440 X0.036 Y-1.4192
N445 X-0.006 Y-1.3889
N450 X-0.043 Y-1.3527
N455 X-0.0746 Y-1.3116
N460 X-0.1007 Y-1.2669
N465 X-0.1216 Y-1.2196
N470 X-0.1379 Y-1.1704
N475 X-0.1501 Y-1.1201
N480 X-0.159 Y-1.0691
N485 X-0.1652 Y-1.0176
N490 G2 X-0.176 Y-0.759 I2.9685 J0.2535
N495 X-0.1774 Y-0.4483 I23.9393 J0.263
N500 G1 X-0.1775 Y-0.2412
N505 X-0.1773 Y-0.1894
N510 X-0.1702 Y-0.1381
N515 X-0.1549 Y-0.0887
N520 X-0.1318 Y-0.0423
N525 X-0.1017 Y-0.0001
N530 G3 X-0.0739 Y0.03 I-0.2331 J0.2435
N535 G2 X-0.0361 Y0.067 I0.2423 J-0.2097
N540 G1 X-0.0061 Y0.0873
N545 X0.0089 Y0.0954
N550 X0.0239 Y0.1022
N555 X0.0253 Y0.1027
N560 X0.0732 Y0.1224
N565 X0.1225 Y0.1382
N570 X0.1729 Y0.1502
N575 G2 X0.3786 Y0.1721 I0.2447 J-1.3211
N580 X0.7411 Y0.1771 I0.2974 J-8.503
N585 G1 X0.8446 Y0.1774
N590 X1.1035 Y0.1775
N595 X2.0357
N600 X2.7606
N605 X2.8124 Y0.1773
N610 X2.8637 Y0.1699
N615 X2.913 Y0.1543
N620 X2.9592 Y0.1309
N625 X3.0013 Y0.1006
N630 X3.0304 Y0.0723
N635 X3.0342 Y0.0688
N640 X3.038 Y0.0654
N645 X3.0421 Y0.0623
N650 G2 X3.077 Y0.0264 I-0.297 J-0.3239
N655 G1 X3.0976 Y-0.0037
N660 G2 X3.1231 Y-0.0647 I-0.2211 J-0.1285
N665 G1 X3.1388 Y-0.114
N670 X3.1505 Y-0.1645
N675 G2 X3.1721 Y-0.3703 I-1.3599 J-0.2468
N680 X3.1771 Y-0.7327 I-8.5214 J-0.2983
N685 G1 X3.1774 Y-0.8363
N690 X3.1775 Y-1.0434
N695 X3.1733 Y-1.0951
N700 X3.1608 Y-1.1453
N705 X3.1402 Y-1.1928
N710 X3.1124 Y-1.2365
N715 G3 X3.0728 Y-1.2814 I11.3293 J-10.0238
N720 G2 X3.0361 Y-1.317 I-0.2812 J0.2534
N725 G1 X3.0061 Y-1.3373
N730 X2.9911 Y-1.3454
N735 X2.9761 Y-1.3522
N740 X2.9747 Y-1.3527
N745 X2.9268 Y-1.3724
N750 X2.8775 Y-1.3882
N755 X2.8271 Y-1.4002
N760 X2.7761 Y-1.4089
N765 G2 X2.5696 Y-1.424 I-0.2368 J1.8197
N770 X2.1554 Y-1.4274 I-0.3404 J16.303
N775 G1 X1.8965 Y-1.4275
N780 X0.9643
N785 X0.2911
N790 X0.2394 Y-1.4255
N795 X0.1884 Y-1.4167
N800 X0.1392 Y-1.4006
N805 X0.0929 Y-1.3774
N810 X0.0846 Y-1.3723
N815 X0.0757 Y-1.3683
N820 X0.0665 Y-1.3654
N825 G2 X-0.0061 Y-1.3373 I0.0545 J0.2487
N830 G1 X-0.036 Y-1.3169
N835 G2 X-0.0769 Y-1.2763 I0.181 J0.223
N840 G1 X-0.0976 Y-1.2463
N845 G2 X-0.1327 Y-1.1115 I0.228 J0.1314
N850 G1 X-0.133 Y-1.0966
N855 X-0.1355 Y-1.0448
N860 X-0.1361 Y-0.9931
N865 G2 X-0.1417 Y-0.2681 I21.7195 J0.5311
N870 G1 X-0.1357 Y-0.2167
N875 X-0.1342 Y-0.2095
N880 X-0.1333 Y-0.2022
N885 X-0.133 Y-0.1949
N890 Y-0.1385
N895 X-0.1319 Y-0.119
N900 X-0.132 Y-0.1185
N905 G2 X-0.1294 Y-0.0498 Z0.4639 I0.1962 J0.027
N910 G1 X-0.1283 Y-0.0455 Z0.4644
N915 X-0.1267 Y-0.0413 Z0.4649
N920 G2 X-0.1213 Y-0.0313 I0.0462 J-0.019
N925 G1 X-0.0538 Y0.0638
N930 G2 X-0.0463 Y0.0721 I0.0408 J-0.0289
N935 G1 X-0.0428 Y0.075 Z0.4644
N940 X-0.0391 Y0.0775 Z0.4639
N945 G2 X0.025 Y0.1026 Z0.4569 I0.1033 J-0.169
N950 G1 X0.0253 Y0.1027
N955 G2 X0.0988 Y0.1207 I0.1021 J-0.258
N960 G1 X0.1288 Y0.1221
N965 X0.1302
N970 G3 X0.337 Y0.1342 I-1.5605 J28.5217
N975 G2 X0.8029 Y0.1419 I0.3892 J-9.4447
N980 G1 X0.9065 Y0.1424
N985 X1.1136 Y0.1425
N990 X2.1493
N995 X2.6671
N1000 X2.7189 Y0.1424
N1005 X2.7705 Y0.138
N1010 X2.8211 Y0.1268
N1015 X2.8298 Y0.1242
N1020 X2.8388 Y0.1226
N1025 X2.8478 Y0.1221
N1030 X2.8712
N1035 X2.8907 Y0.1212
N1040 X2.8919 Y0.1214 Z0.457
N1045 X2.8929 Y0.1221 Z0.4571
N1050 G2 X2.9026 Y0.1307 Z0.4584 I0.1038 J-0.1066
N1055 X2.9615 Y0.1339 Z0.4649 I0.0316 J-0.0387
N1060 G1 X2.9654 Y0.131
N1065 X3.1163 Y0.0103
N1070 X3.12 Y0.0071
N1075 G2 X3.1298 Y-0.051 Z0.4584 I-0.0349 J-0.0359
N1080 G1 X3.1235 Y-0.0624 Z0.4571
N1085 X3.1231 Y-0.0635 Z0.457
N1090 X3.1232 Y-0.0647 Z0.4569
N1095 G2 X3.1328 Y-0.1385 I-0.2707 J-0.073
N1100 G1 X3.133 Y-0.1983
N1105 X3.1355 Y-0.2501
N1110 X3.1387 Y-0.4054
N1115 X3.1412 Y-0.5607
N1120 G2 X3.1421 Y-0.975 I-36.0275 J-0.2828
N1125 G1 X3.1368 Y-1.0265
N1130 G3 X3.133 Y-1.0579 I0.1272 J-0.0315
N1135 G1 Y-1.1115
N1140 X3.1319 Y-1.131
N1145 X3.132 Y-1.1315
N1150 G2 X3.1294 Y-1.2002 Z0.4639 I-0.1962 J-0.027
N1155 G1 X3.1283 Y-1.2045 Z0.4644
N1160 X3.1267 Y-1.2087 Z0.4649
N1165 G2 X3.1213 Y-1.2187 I-0.0462 J0.019
N1170 G1 X3.0538 Y-1.3138
N1175 G2 X3.0463 Y-1.3221 I-0.0408 J0.0289
N1180 G1 X3.0428 Y-1.325 Z0.4644
N1185 X3.0391 Y-1.3275 Z0.4639
N1190 G2 X2.975 Y-1.3526 Z0.4569 I-0.1033 J0.169
N1195 G1 X2.9747 Y-1.3527
N1200 G2 X2.9012 Y-1.3707 I-0.1021 J0.258
N1205 G1 X2.8712 Y-1.3721
N1210 X2.8698
N1215 G3 X2.6631 Y-1.3843 I1.1325 J-20.9577
N1220 G2 X2.1971 Y-1.3919 I-0.3921 J9.7551
N1225 G1 X2.0935 Y-1.3924
N1230 X1.8864 Y-1.3925
N1235 X0.8507
N1240 X0.3847
N1245 X0.3329 Y-1.3917
N1250 X0.2813 Y-1.3865
N1255 X0.2306 Y-1.3761
N1260 X0.2209 Y-1.3739
N1265 X0.2111 Y-1.3726
N1270 X0.2012 Y-1.3721
N1275 X0.1288
N1280 X0.1138 Y-1.3714
N1285 G3 X0.0847 Y-1.3803 I-0.0006 J-0.05
N1290 G1 X0.0801 Y-1.3835 Z0.4572
N1295 X0.0756 Y-1.3866 Z0.4581
N1300 X0.0711 Y-1.3897 Z0.4597
N1305 X0.0669 Y-1.3927 Z0.4618
N1310 X0.0629 Y-1.3955 Z0.4645
N1315 X0.0591 Y-1.3981 Z0.4678
N1320 X0.0557 Y-1.4004 Z0.4715
N1325 X0.0526 Y-1.4026 Z0.4757
N1330 X0.0499 Y-1.4044 Z0.4802
N1335 X0.0477 Y-1.406 Z0.4852
N1340 X0.0459 Y-1.4072 Z0.4903
N1345 X0.0446 Y-1.4081 Z0.4957
N1350 X0.0439 Y-1.4086 Z0.5013
N1355 X0.0436 Y-1.4088 Z0.5069
N1360 G0 Z1.45
N1365 G1 X-0.1672 Y-1.1692 F500.
N1370 G0 Z0.5569
N1375 G1 Z0.5069 F69.
N1380 X-0.1671 Y-1.1689 Z0.5013
N1385 X-0.1666 Y-1.1681 Z0.4957
N1390 X-0.1658 Y-1.1668 Z0.4903
N1395 X-0.1647 Y-1.165 Z0.4852
N1400 X-0.1633 Y-1.1626 Z0.4802
N1405 X-0.1616 Y-1.1598 Z0.4757
N1410 X-0.1597 Y-1.1566 Z0.4715
N1415 X-0.1576 Y-1.153 Z0.4678
N1420 X-0.1553 Y-1.1491 Z0.4645
N1425 X-0.1528 Y-1.1449 Z0.4618
N1430 X-0.1501 Y-1.1404 Z0.4597
N1435 X-0.1474 Y-1.1358 Z0.4581
N1440 X-0.1445 Y-1.131 Z0.4572
N1445 X-0.1417 Y-1.1262 Z0.4569
N1450 G3 X-0.133 Y-1.0966 I-0.0536 J0.0318
N1455 G1 Y-0.1949
N1460 G3 X-0.1432 Y-0.1663 I-0.05 J-0.0017
N1465 G1 X-0.1466 Y-0.1618 Z0.4572
N1470 X-0.15 Y-0.1574 Z0.4581
N1475 X-0.1533 Y-0.1531 Z0.4597
N1480 X-0.1564 Y-0.149 Z0.4618
N1485 X-0.1594 Y-0.1451 Z0.4645
N1490 X-0.1622 Y-0.1415 Z0.4678
N1495 X-0.1647 Y-0.1382 Z0.4715
N1500 X-0.167 Y-0.1352 Z0.4757
N1505 X-0.169 Y-0.1326 Z0.4802
N1510 X-0.1706 Y-0.1305 Z0.4852
N1515 X-0.1719 Y-0.1288 Z0.4903
N1520 X-0.1728 Y-0.1275 Z0.4957
N1525 X-0.1734 Y-0.1268 Z0.5013
N1530 X-0.1736 Y-0.1266 Z0.5069
N1535 G0 Z1.45
N1540 G1 X0.0575 Y0.1564 F500.
N1545 G0 Z0.5569
N1550 G1 Z0.5069 F69.
N1555 X0.0578 Y0.1562 Z0.5013
N1560 X0.0586 Y0.1558 Z0.4957
N1565 X0.0599 Y0.155 Z0.4903
N1570 X0.0618 Y0.1539 Z0.4852
N1575 X0.0641 Y0.1525 Z0.4802
N1580 X0.0669 Y0.1508 Z0.4757
N1585 X0.0701 Y0.1489 Z0.4715
N1590 X0.0737 Y0.1468 Z0.4678
N1595 X0.0776 Y0.1444 Z0.4645
N1600 X0.0819 Y0.1419 Z0.4618
N1605 X0.0863 Y0.1393 Z0.4597
N1610 X0.0909 Y0.1365 Z0.4581
N1615 X0.0957 Y0.1337 Z0.4572
N1620 X0.1005 Y0.1308 Z0.4569
N1625 G3 X0.1302 Y0.1221 I0.0318 J0.0536
N1630 G1 X2.8478
N1635 G3 X2.8765 Y0.1324 I-0.0017 J0.05
N1640 G1 X2.8809 Y0.1358 Z0.4572
N1645 X2.8853 Y0.1392 Z0.4581
N1650 X2.8896 Y0.1424 Z0.4597
N1655 X2.8937 Y0.1456 Z0.4618
N1660 X2.8976 Y0.1486 Z0.4645
N1665 X2.9012 Y0.1513 Z0.4678
N1670 X2.9046 Y0.1539 Z0.4715
N1675 X2.9075 Y0.1562 Z0.4757
N1680 X2.9101 Y0.1581 Z0.4802
N1685 X2.9122 Y0.1598 Z0.4852
N1690 X2.914 Y0.1611 Z0.4903
N1695 X2.9152 Y0.162 Z0.4957
N1700 X2.9159 Y0.1626 Z0.5013
N1705 X2.9162 Y0.1628 Z0.5069
N1710 G0 Z1.45
N1715 G1 X3.1672 Y-0.1257 F500.
N1720 G0 Z0.5569
N1725 G1 Z0.5069 F69.
N1730 X3.1671 Y-0.126 Z0.5013
N1735 X3.1666 Y-0.1268 Z0.4957
N1740 X3.1658 Y-0.1281 Z0.4903
N1745 X3.1647 Y-0.13 Z0.4852
N1750 X3.1633 Y-0.1323 Z0.4802
N1755 X3.1616 Y-0.1351 Z0.4757
N1760 X3.1597 Y-0.1383 Z0.4715
N1765 X3.1576 Y-0.1419 Z0.4678
N1770 X3.1553 Y-0.1458 Z0.4645
N1775 X3.1528 Y-0.15 Z0.4618
N1780 X3.1501 Y-0.1545 Z0.4597
N1785 X3.1474 Y-0.1591 Z0.4581
N1790 X3.1445 Y-0.1639 Z0.4572
N1795 X3.1417 Y-0.1687 Z0.4569
N1800 G3 X3.133 Y-0.1983 I0.0536 J-0.0318
N1805 G1 Y-1.0579
N1810 G3 X3.1432 Y-1.0866 I0.05 J0.0017
N1815 G1 X3.1466 Y-1.091 Z0.4572
N1820 X3.15 Y-1.0954 Z0.4581
N1825 X3.1533 Y-1.0997 Z0.4597
N1830 X3.1564 Y-1.1038 Z0.4618
N1835 X3.1594 Y-1.1077 Z0.4645
N1840 X3.1622 Y-1.1113 Z0.4678
N1845 X3.1647 Y-1.1146 Z0.4715
N1850 X3.167 Y-1.1176 Z0.4757
N1855 X3.169 Y-1.1202 Z0.4802
N1860 X3.1706 Y-1.1223 Z0.4852
N1865 X3.1719 Y-1.124 Z0.4903
N1870 X3.1728 Y-1.1253 Z0.4957
N1875 X3.1734 Y-1.126 Z0.5013
N1880 X3.1736 Y-1.1263 Z0.5069
N1885 G0 Z1.45
N1890 G1 X2.9425 Y-1.4064 F500.
N1895 G0 Z0.5569
N1900 G1 Z0.5069 F69.
N1905 X2.9422 Y-1.4062 Z0.5013
N1910 X2.9414 Y-1.4058 Z0.4957
N1915 X2.9401 Y-1.405 Z0.4903
N1920 X2.9382 Y-1.4039 Z0.4852
N1925 X2.9359 Y-1.4025 Z0.4802
N1930 X2.9331 Y-1.4008 Z0.4757
N1935 X2.9299 Y-1.3989 Z0.4715
N1940 X2.9263 Y-1.3968 Z0.4678
N1945 X2.9224 Y-1.3944 Z0.4645
N1950 X2.9181 Y-1.3919 Z0.4618
N1955 X2.9137 Y-1.3893 Z0.4597
N1960 X2.9091 Y-1.3865 Z0.4581
N1965 X2.9043 Y-1.3837 Z0.4572
N1970 X2.8995 Y-1.3808 Z0.4569
N1975 G3 X2.8698 Y-1.3721 I-0.0318 J-0.0536
N1980 G1 X0.2012
N1985 X0.197 Y-1.3728 Z0.4572
N1990 X0.1929 Y-1.3735 Z0.458
N1995 X0.1889 Y-1.3741 Z0.4595
N2000 X0.1856 Y-1.3756 Z0.4614
N2005 X0.1825 Y-1.3769 Z0.4637
N2010 X0.1798 Y-1.3781 Z0.4665
N2015 X0.1774 Y-1.3791 Z0.4696
N2020 X0.1757 Y-1.3803 Z0.4729
N2025 X0.1743 Y-1.3812 Z0.4764
N2030 X0.1734 Y-1.3819 Z0.4801
N2035 X0.1728 Y-1.3823 Z0.4839
N2040 X0.1726 Y-1.3824 Z0.4878
N2045 G0 Z1.45
N2050 G1 X0.5913 Y0.1938 F500.
N2055 G0 Z0.7343
N2060 G1 Z0.6843 F69.
N2065 X0.5916 Y0.1937 Z0.6787
N2070 X0.5925 Y0.1934 Z0.6732
N2075 X0.594 Y0.1929 Z0.6678
N2080 X0.596 Y0.1923 Z0.6626
N2085 X0.5986 Y0.1914 Z0.6577
N2090 X0.6017 Y0.1904 Z0.6532
N2095 X0.6052 Y0.1893 Z0.649
N2100 X0.6092 Y0.188 Z0.6452
N2105 X0.6136 Y0.1866 Z0.642
N2110 X0.6182 Y0.1851 Z0.6393
N2115 X0.6232 Y0.1835 Z0.6371
N2120 X0.6283 Y0.1818 Z0.6356
N2125 X0.6336 Y0.1801 Z0.6346
N2130 X0.6389 Y0.1784 Z0.6343
N2135 G3 X0.9081 Y0.1221 I0.3942 J1.2141
N2140 G2 X0.983 Y0.1108 I-0.0056 J-0.2919
N2145 G3 X1.1107 Y0.0939 I0.1557 J0.6821
N2150 X1.3177 Y0.0879 I0.2017 J3.4327
N2155 X1.5766 Y0.0872 I0.2288 J34.2245
N2160 G1 X1.8873 Y0.0871
N2165 X1.9306
N2170 X1.95 Y0.0886
N2175 X1.9689 Y0.0929
N2180 X1.9869 Y0.1
N2185 G3 X1.9993 Y0.167 Z0.6423 I-0.0201 J0.0384
N2190 X1.9674 Y0.1817 I-0.0325 J-0.0287
N2195 G1 X0.9993 Y0.1945
N2200 G3 X0.9632 Y0.1761 I-0.0006 J-0.0433
N2205 X0.983 Y0.1108 Z0.6343 I0.0355 J-0.0249
N2210 G1 X0.998 Y0.1056
N2215 X1.0107 Y0.1011
N2220 X1.0175 Y0.0978
N2225 G3 X1.1272 Y0.0693 I0.1511 J0.3556
N2230 X1.2773 Y0.0565 I0.1854 J1.2839
N2235 X1.5879 Y0.0525 I0.2643 J8.5618
N2240 G1 X1.6915 Y0.0522
N2245 X1.8468 Y0.0521
N2250 G3 X1.8999 Y0.0561 I0.0053 J0.288
N2255 G1 X1.9171 Y0.0612
N2260 X1.9334 Y0.0685
N2265 X1.9485 Y0.0779
N2270 G3 X1.9572 Y0.1481 Z0.6423 I-0.0308 J0.0394
N2275 X1.9191 Y0.1673 I-0.0394 J-0.0307
N2280 G1 X1.0421 Y0.1921
N2285 G3 X0.9964 Y0.1653 I-0.0014 J-0.05
N2290 X1.0175 Y0.0978 Z0.6343 I0.0443 J-0.0232
N2295 G2 X1.0455 Y0.0824 I-0.0672 J-0.1548
N2300 G3 X1.122 Y0.0508 I0.1261 J0.1971
N2305 X1.2465 Y0.0296 I0.1822 J0.6947
N2310 X1.4959 Y0.0188 I0.2418 J2.6834
N2315 X1.8104 Y0.0179 I0.1907 J12.5224
N2320 X1.8641 Y0.0247 I-0.0149 J0.3342
N2325 X1.9193 Y0.0556 I-0.0354 J0.1278
N2330 X1.919 Y0.1263 Z0.6423 I-0.0355 J0.0352
N2335 X1.8857 Y0.1408 I-0.0352 J-0.0355
N2340 G1 X1.0781 Y0.1717
N2345 G3 X1.0367 Y0.1525 I-0.0019 J-0.05
N2350 X1.0454 Y0.0823 Z0.6343 I0.0394 J-0.0307
N2355 G1 X1.0729 Y0.0624
N2360 X1.0741 Y0.0614
N2365 G3 X1.1552 Y0.0235 I0.1365 J0.1863
N2370 X1.2651 Y0.0005 I0.1817 J0.5961
N2375 X1.4944 Y-0.0147 I0.245 J1.949
N2380 X1.7612 Y-0.0163 I0.1702 J6.1219
N2385 X1.8407 Y-0.0047 I-0.0139 J0.3732
N2390 X1.8971 Y0.0329 I-0.0459 J0.1299
N2395 X1.9085 Y0.061 Z0.6375 I-0.0385 J0.0319
N2400 X1.8906 Y0.1033 Z0.6423 I-0.0499 J0.0038
N2405 X1.8608 Y0.1148 I-0.0319 J-0.0385
N2410 G1 X1.1102 Y0.1481
N2415 G3 X1.0712 Y0.132 I-0.0022 J-0.05
N2420 X1.0741 Y0.0614 Z0.6343 I0.0368 J-0.0338
N2425 G1 X1.0802 Y0.0562
N2430 X1.0879 Y0.0489
N2435 X1.0931 Y0.0436
N2440 G3 X1.1634 Y0.0026 I0.1329 J0.1471
N2445 X1.2905 Y-0.0296 I0.2021 J0.5298
N2450 X1.5027 Y-0.0479 I0.246 J1.6129
N2455 X1.7198 Y-0.0501 I0.1406 J3.2013
N2460 X1.8121 Y-0.0368 I-0.0181 J0.4521
N2465 X1.8836 Y0.0147 I-0.0369 J0.1268
N2470 X1.8914 Y0.0439 Z0.6375 I-0.0422 J0.0269
N2475 X1.8684 Y0.0837 Z0.6423 I-0.0499 J-0.0024
N2480 X1.844 Y0.0915 I-0.0269 J-0.0421
N2485 G1 X1.1324 Y0.1274
N2490 G3 X1.096 Y0.1142 I-0.0025 J-0.0499
N2495 X1.0931 Y0.0436 Z0.6343 I0.0339 J-0.0367
N2500 G2 X1.1094 Y0.025 I-0.1464 J-0.144
N2505 G3 X1.1412 Y-0.002 I0.0866 J0.0699
N2510 X1.2595 Y-0.0485 I0.1975 J0.3289
N2515 X1.4344 Y-0.0756 I0.2433 J0.9905
N2520 X1.6891 Y-0.0831 I0.1895 J2.1114
N2525 X1.7983 Y-0.0653 I-0.0193 J0.4613
N2530 G1 X1.7993 Y-0.0647
N2535 G3 X1.8703 Y-0.0049 I-0.0427 J0.1227
N2540 X1.8484 Y0.0624 Z0.6423 I-0.0446 J0.0227
N2545 X1.8282 Y0.0677 I-0.0227 J-0.0445
N2550 G1 X1.154 Y0.1018
N2555 G3 X1.1245 Y0.094 I-0.0025 J-0.0499
N2560 X1.1093 Y0.025 Z0.6343 I0.0269 J-0.0421
N2565 G1 X1.1213 Y0.0076
N2570 G3 X1.1796 Y-0.0395 I0.1284 J0.0994
N2575 X1.3006 Y-0.0833 I0.2124 J0.3969
N2580 X1.4945 Y-0.1114 I0.2614 J1.1218
N2585 X1.7006 Y-0.1121 I0.1069 J1.165
N2590 X1.7913 Y-0.0911 I-0.0381 J0.3708
N2595 X1.859 Y-0.0269 I-0.0509 J0.1214
N2600 X1.8621 Y0.0032 Z0.6375 I-0.0459 J0.02
N2605 X1.8332 Y0.0389 Z0.6423 I-0.049 J-0.0101
N2610 X1.8163 Y0.043 I-0.02 J-0.0458
N2615 G1 X1.1666 Y0.0844
N2620 G3 X1.1365 Y0.0766 I-0.0032 J-0.0499
N2625 X1.1213 Y0.0076 Z0.6343 I0.0269 J-0.0421
N2630 G1 X1.1291 Y-0.0037
N2635 X1.1328 Y-0.0105
N2640 G3 X1.1805 Y-0.0567 I0.1161 J0.0722
N2645 X1.2912 Y-0.1057 I0.21 J0.3249
N2650 X1.4712 Y-0.1399 I0.2621 J0.8893
N2655 X1.692 Y-0.1417 I0.1185 J0.9713
N2660 X1.7858 Y-0.1165 I-0.0444 J0.3518
N2665 X1.8527 Y-0.0422 I-0.057 J0.1187
N2670 X1.8526 Y-0.0119 Z0.6375 I-0.0477 J0.015
N2675 X1.8201 Y0.0205 Z0.6423 I-0.0476 J-0.0152
N2680 X1.8081 Y0.0228 I-0.0151 J-0.0477
N2685 G1 X1.181 Y0.0609
N2690 G3 X1.1564 Y0.0561 I-0.003 J-0.0499
N2695 X1.1328 Y-0.0105 Z0.6343 I0.0216 J-0.0451
N2700 G1 X1.1371 Y-0.0187
N2705 X1.142 Y-0.029
N2710 G3 X1.1921 Y-0.0814 I0.1246 J0.0688
N2715 X1.3002 Y-0.133 I0.2158 J0.313
N2720 X1.512 Y-0.1735 I0.2699 J0.8383
N2725 X1.7119 Y-0.1655 I0.0717 J0.7127
N2730 X1.79 Y-0.1364 I-0.0578 J0.2741
N2735 X1.8457 Y-0.0636 I-0.0787 J0.118
N2740 G1 X1.8522 Y-0.0437
N2745 X1.8527 Y-0.0422
N2750 G3 X1.8201 Y0.0205 Z0.6423 I-0.0477 J0.015
N2755 X1.8065 Y0.0228 I-0.0151 J-0.0477
N2760 G1 X1.1893 Y0.041
N2765 G3 X1.1678 Y0.0368 I-0.0015 J-0.05
N2770 X1.142 Y-0.029 Z0.6343 I0.02 J-0.0458
N2775 G1 X1.1443 Y-0.0337
N2780 X1.1478 Y-0.0437
N2785 X1.1483 Y-0.0452
N2790 G3 X1.1842 Y-0.0924 I0.1078 J0.0446
N2795 X1.2889 Y-0.1531 I0.2158 J0.2517
N2800 X1.4617 Y-0.197 I0.259 J0.6579
N2805 X1.6853 Y-0.1973 I0.1129 J0.7249
N2810 X1.7753 Y-0.1673 I-0.0579 J0.3231
N2815 X1.837 Y-0.0973 I-0.0597 J0.1149
N2820 G1 X1.8419 Y-0.0787
N2825 G3 X1.8 Y-0.0218 Z0.6423 I-0.0494 J0.0075
N2830 G1 X1.7958 Y-0.0213
N2835 X1.1997 Y0.0186
N2840 G3 X1.1824 Y0.0167 I-0.0033 J-0.0499
N2845 X1.1483 Y-0.0452 Z0.6343 I0.014 J-0.048
N2850 G1 X1.1544 Y-0.0636
N2855 X1.1547 Y-0.065
N2860 G3 X1.1801 Y-0.1051 I0.0948 J0.0318
N2865 X1.2752 Y-0.1708 I0.2108 J0.2036
N2870 X1.4374 Y-0.221 I0.2586 J0.5481
N2875 X1.6687 Y-0.2267 I0.1325 J0.6837
N2880 X1.7727 Y-0.1923 I-0.0564 J0.3447
N2885 X1.8193 Y-0.1486 I-0.0702 J0.1216
N2890 G1 X1.8283 Y-0.132
N2895 X1.8349 Y-0.1144
N2900 X1.8388 Y-0.096
N2905 G3 X1.7943 Y-0.0411 Z0.6423 I-0.0497 J0.0052
N2910 G1 X1.7922 Y-0.0409
N2915 X1.2067 Y-0.0048
N2920 G3 X1.1933 Y-0.0058 I-0.0031 J-0.0499
N2925 X1.1547 Y-0.065 Z0.6343 I0.0103 J-0.0489
N2930 G1 X1.1581 Y-0.0786
N2935 X1.1583 Y-0.08
N2940 G3 X1.1883 Y-0.131 I0.1047 J0.0271
N2945 X1.2857 Y-0.1995 I0.2188 J0.2078
N2950 X1.4396 Y-0.2488 I0.2509 J0.5184
N2955 X1.6691 Y-0.2528 I0.1258 J0.6261
N2960 X1.7701 Y-0.2172 I-0.0608 J0.3333
N2965 X1.8296 Y-0.1471 I-0.068 J0.118
N2970 G1 X1.8346 Y-0.1289
N2975 X1.837 Y-0.1101
N2980 G3 X1.7902 Y-0.0592 Z0.6421 I-0.05 J0.001
N2985 G1 X1.7881 Y-0.0591 Z0.6423
N2990 X1.2109 Y-0.0226
N2995 G3 X1.2003 Y-0.0231 I-0.0032 J-0.0499
N3000 X1.1583 Y-0.08 Z0.6343 I0.0075 J-0.0494
N3005 G1 X1.1609 Y-0.0936
N3010 X1.1615 Y-0.0979
N3015 G3 X1.189 Y-0.1503 I0.106 J0.0222
N3020 X1.2788 Y-0.2198 I0.2175 J0.1881
N3025 X1.451 Y-0.2777 I0.2592 J0.4856
N3030 X1.6776 Y-0.2769 I0.1111 J0.5757
N3035 X1.778 Y-0.2357 I-0.0672 J0.3072
N3040 X1.8107 Y-0.2042 I-0.0919 J0.1278
N3045 X1.8358 Y-0.1337 I-0.1053 J0.0773
N3050 G1 X1.8366 Y-0.1179
N3055 X1.837 Y-0.1101
N3060 G3 X1.7885 Y-0.0591 Z0.6423 I-0.05 J0.001
N3065 G1 X1.7881
N3070 X1.2126 Y-0.0427
N3075 X1.2093
N3080 X1.206 Y-0.043
N3085 G3 X1.1615 Y-0.0979 Z0.6343 I0.0052 J-0.0497
N3090 G1 X1.1628 Y-0.1077
N3095 X1.1631 Y-0.113
N3100 G3 X1.187 Y-0.1671 I0.1012 J0.0124
N3105 X1.2682 Y-0.2375 I0.2126 J0.1632
N3110 X1.4379 Y-0.3018 I0.2626 J0.4369
N3115 X1.6727 Y-0.3035 I0.1214 J0.5549
N3120 X1.7756 Y-0.2612 I-0.0695 J0.3155
N3125 X1.8303 Y-0.1881 I-0.0758 J0.1138
N3130 G1 X1.8342 Y-0.1698
N3135 X1.8356 Y-0.1512
N3140 Y-0.1385
N3145 X1.8358 Y-0.1337
N3150 G3 X1.7876 Y-0.0829 Z0.6422 I-0.05 J0.0008
N3155 G1 X1.7866 Z0.6423
N3160 X1.2149 Y-0.0621
N3165 X1.214 Y-0.062
N3170 X1.213
N3175 X1.2121
N3180 G3 X1.1631 Y-0.113 Z0.6343 I0.0011 J-0.05
N3185 G1 X1.1637 Y-0.1235
N3190 X1.1641 Y-0.1317
N3195 G3 X1.1898 Y-0.1914 I0.1105 J0.0123
N3200 X1.2718 Y-0.2637 I0.2189 J0.1657
N3205 X1.452 Y-0.3308 I0.2628 J0.4301
N3210 X1.6863 Y-0.3255 I0.1052 J0.5247
N3215 X1.7824 Y-0.2806 I-0.0811 J0.2986
N3220 X1.8138 Y-0.2473 I-0.097 J0.1231
N3225 X1.8356 Y-0.1753 I-0.1089 J0.0722
N3230 G1 Y-0.1512
N3235 G3 X1.7875 Y-0.103 Z0.642 I-0.05 J-0.0017
N3240 G1 X1.7839 Y-0.1029 Z0.6423
N3245 X1.216 Y-0.081
N3250 X1.2151
N3255 X1.2142
N3260 X1.2133
N3265 G3 X1.1641 Y-0.1317 Z0.6343 I0.0008 J-0.05
N3270 G1 X1.1644 Y-0.1385
N3275 Y-0.1502
N3280 G3 X1.1881 Y-0.2107 I0.1098 J0.008
N3285 X1.2658 Y-0.284 I0.2184 J0.1535
N3290 X1.45 Y-0.3565 I0.2664 J0.4068
N3295 X1.6911 Y-0.3493 I0.1055 J0.5086
N3300 X1.7852 Y-0.3028 I-0.0862 J0.2929
N3305 X1.8238 Y-0.2538 I-0.0877 J0.1088
N3310 G1 X1.8303 Y-0.2364
N3315 X1.8342 Y-0.2182
N3320 X1.8356 Y-0.1997
N3325 Y-0.1753
N3330 G3 X1.7878 Y-0.1271 Z0.6419 I-0.05 J-0.0017
N3335 G1 X1.7839 Y-0.1269 Z0.6423
N3340 X1.2166 Y-0.1019
N3345 X1.2161
N3350 G3 X1.1644 Y-0.1502 Z0.6343 I-0.0017 J-0.05
N3355 G1 Y-0.1698
N3360 G3 X1.1899 Y-0.2359 I0.1169 J0.0071
N3365 X1.2693 Y-0.3109 I0.2238 J0.1574
N3370 X1.451 Y-0.3826 I0.2633 J0.4009
N3375 X1.689 Y-0.375 I0.1032 J0.5014
N3380 X1.7894 Y-0.324 I-0.0841 J0.2902
N3385 G1 X1.7903 Y-0.3229
N3390 G3 X1.8356 Y-0.2243 I-0.0847 J0.0986
N3395 G1 Y-0.1997
N3400 G3 X1.7882 Y-0.1515 Z0.6419 I-0.05 J-0.0017
N3405 G1 X1.7839 Y-0.1513 Z0.6423
N3410 X1.217 Y-0.1216
N3415 X1.2161 Y-0.1215
N3420 G3 X1.1644 Y-0.1698 Z0.6343 I-0.0017 J-0.05
N3425 G1 Y-0.1916
N3430 G3 X1.1891 Y-0.2581 I0.1198 J0.0067
N3435 X1.2755 Y-0.3396 I0.232 J0.1592
N3440 X1.4575 Y-0.4096 I0.2588 J0.4015
N3445 X1.701 Y-0.3964 I0.0956 J0.4902
N3450 X1.7862 Y-0.3514 I-0.0981 J0.2888
N3455 X1.824 Y-0.3027 I-0.0877 J0.1073
N3460 G1 X1.8304 Y-0.2854
N3465 X1.8343 Y-0.2675
N3470 X1.8356 Y-0.2491
N3475 Y-0.2243
N3480 G3 X1.7884 Y-0.1761 Z0.6419 I-0.05 J-0.0017
N3485 G1 X1.7839 Y-0.1759 Z0.6423
N3490 X1.2173 Y-0.1434
N3495 X1.2161
N3500 G3 X1.1644 Y-0.1916 Z0.6343 I-0.0017 J-0.05
N3505 G1 Y-0.2147
N3510 G3 X1.1887 Y-0.2813 I0.1223 J0.0069
N3515 X1.2741 Y-0.3636 I0.2339 J0.1572
N3520 X1.4669 Y-0.4368 I0.2612 J0.3978
N3525 X1.7059 Y-0.4198 I0.0858 J0.4818
N3530 X1.7936 Y-0.3701 I-0.0969 J0.2731
N3535 X1.8356 Y-0.2741 I-0.0903 J0.0967
N3540 G1 Y-0.2491
N3545 G3 X1.7886 Y-0.201 Z0.6419 I-0.05 J-0.0017
N3550 G1 X1.7839 Y-0.2007 Z0.6423
N3555 X1.2174 Y-0.1665
N3560 X1.2168
N3565 X1.2161
N3570 G3 X1.1644 Y-0.2147 Z0.6343 I-0.0017 J-0.05
N3575 G1 Y-0.2386
N3580 G3 X1.1886 Y-0.3053 I0.1243 J0.0072
N3585 X1.2735 Y-0.3883 I0.2355 J0.1561
N3590 X1.4635 Y-0.4618 I0.2606 J0.3913
N3595 X1.703 Y-0.4459 I0.0884 J0.4819
N3600 X1.7927 Y-0.3959 I-0.0961 J0.2777
N3605 X1.8343 Y-0.3172 I-0.0903 J0.0982
N3610 G1 X1.8356 Y-0.2991
N3615 Y-0.2741
N3620 G3 X1.7887 Y-0.2259 Z0.6418 I-0.05 J-0.0017
N3625 G1 X1.7839 Y-0.2256 Z0.6423
N3630 X1.2175 Y-0.1904
N3635 X1.2168
N3640 X1.2161 Y-0.1903
N3645 G3 X1.1644 Y-0.2386 Z0.6343 I-0.0017 J-0.05
N3650 G1 Y-0.2628
N3655 G3 X1.1884 Y-0.3296 I0.1257 J0.0074
N3660 X1.2817 Y-0.4187 I0.2422 J0.16
N3665 X1.4607 Y-0.4868 I0.2521 J0.3935
N3670 X1.7008 Y-0.4719 I0.0905 J0.4828
N3675 X1.792 Y-0.4214 I-0.0941 J0.278
N3680 X1.8356 Y-0.3241 I-0.0883 J0.0979
N3685 G1 Y-0.2991
N3690 G3 X1.7888 Y-0.2509 Z0.6418 I-0.05 J-0.0017
N3695 G1 X1.7839 Y-0.2506 Z0.6423
N3700 X1.2176 Y-0.2146
N3705 X1.2169
N3710 X1.2161 Y-0.2145
N3715 G3 X1.1644 Y-0.2628 Z0.6343 I-0.0017 J-0.05
N3720 G1 Y-0.2868
N3725 G3 X1.1914 Y-0.3587 I0.1308 J0.008
N3730 X1.2719 Y-0.4375 I0.2348 J0.1594
N3735 X1.4857 Y-0.5159 I0.2647 J0.3912
N3740 X1.7164 Y-0.4912 I0.0667 J0.4685
N3745 X1.7914 Y-0.447 I-0.1065 J0.2658
N3750 X1.8356 Y-0.3492 I-0.0871 J0.0983
N3755 G1 Y-0.3241
N3760 G3 X1.7888 Y-0.2759 Z0.6418 I-0.05 J-0.0017
N3765 G1 X1.7839 Y-0.2756 Z0.6423
N3770 X1.2177 Y-0.2387
N3775 X1.2169 Y-0.2386
N3780 X1.2161
N3785 G3 X1.1644 Y-0.2868 Z0.6343 I-0.0017 J-0.05
N3790 G1 Y-0.3114
N3795 G3 X1.1912 Y-0.3834 I0.1314 J0.0079
N3800 X1.2713 Y-0.4623 I0.2352 J0.1585
N3805 X1.4836 Y-0.541 I0.2645 J0.388
N3810 X1.715 Y-0.517 I0.0683 J0.4693
N3815 X1.7942 Y-0.4697 I-0.1046 J0.2652
N3820 X1.8356 Y-0.3743 I-0.0905 J0.0959
N3825 G1 Y-0.3492
N3830 G3 X1.7889 Y-0.301 Z0.6418 I-0.05 J-0.0017
N3835 G1 X1.7839 Y-0.3007 Z0.6423
N3840 X1.2177 Y-0.2632
N3845 X1.2169
N3850 X1.2161 Y-0.2631
N3855 G3 X1.1644 Y-0.3114 Z0.6343 I-0.0017 J-0.05
N3860 G1 Y-0.3356
N3865 G3 X1.1908 Y-0.4077 I0.1313 J0.007
N3870 X1.2786 Y-0.4925 I0.2408 J0.1617
N3875 X1.4808 Y-0.566 I0.2572 J0.3925
N3880 X1.7132 Y-0.5429 I0.0705 J0.4714
N3885 X1.7933 Y-0.4957 I-0.1044 J0.2689
N3890 X1.8356 Y-0.3995 I-0.0897 J0.0968
N3895 G1 Y-0.3743
N3900 G3 X1.789 Y-0.3262 Z0.6418 I-0.05 J-0.0017
N3905 G1 X1.7839 Y-0.3259 Z0.6423
N3910 X1.2178 Y-0.2874
N3915 X1.217
N3920 X1.2161 Y-0.2873
N3925 G3 X1.1644 Y-0.3356 Z0.6343 I-0.0017 J-0.05
N3930 G1 Y-0.3617
N3935 G3 X1.1913 Y-0.4337 I0.133 J0.0086
N3940 X1.2712 Y-0.5128 I0.2359 J0.1583
N3945 X1.4821 Y-0.5915 I0.2638 J0.3851
N3950 X1.714 Y-0.5678 I0.0691 J0.4696
N3955 X1.7936 Y-0.5206 I-0.1043 J0.2668
N3960 X1.8356 Y-0.4247 I-0.0899 J0.0965
N3965 G1 Y-0.3995
N3970 G3 X1.7889 Y-0.3513 Z0.6418 I-0.05 J-0.0017
N3975 G1 X1.7839 Y-0.351 Z0.6423
N3980 X1.2177 Y-0.3135
N3985 X1.2169
N3990 X1.2161 Y-0.3134
N3995 G3 X1.1644 Y-0.3617 Z0.6343 I-0.0017 J-0.05
N4000 G1 Y-0.3862
N4005 G3 X1.191 Y-0.4583 I0.1326 J0.0078
N4010 X1.279 Y-0.5433 I0.2415 J0.1621
N4015 X1.4804 Y-0.6166 I0.2564 J0.391
N4020 X1.7129 Y-0.5934 I0.0704 J0.4714
N4025 X1.7933 Y-0.5461 I-0.1042 J0.2689
N4030 X1.8356 Y-0.4499 I-0.0896 J0.0968
N4035 G1 Y-0.4247
N4040 G3 X1.7889 Y-0.3765 Z0.6418 I-0.05 J-0.0017
N4045 G1 X1.7839 Y-0.3762 Z0.6423
N4050 X1.2178 Y-0.3381
N4055 X1.217 Y-0.338
N4060 X1.2161
N4065 G3 X1.1644 Y-0.3862 Z0.6343 I-0.0017 J-0.05
N4070 G1 Y-0.4116
N4075 G3 X1.191 Y-0.4837 I0.133 J0.0081
N4080 X1.2791 Y-0.5687 I0.2417 J0.1622
N4085 X1.4802 Y-0.6419 I0.256 J0.3906
N4090 X1.7128 Y-0.6187 I0.0704 J0.4716
N4095 X1.7933 Y-0.5713 I-0.1042 J0.2691
N4100 X1.8356 Y-0.4751 I-0.0896 J0.0968
N4105 G1 Y-0.4499
N4110 G3 X1.7889 Y-0.4017 Z0.6418 I-0.05 J-0.0017
N4115 G1 X1.7839 Y-0.4014 Z0.6423
N4120 X1.2178 Y-0.3634
N4125 X1.2169
N4130 X1.2161 Y-0.3633
N4135 G3 X1.1644 Y-0.4116 Z0.6343 I-0.0017 J-0.05
N4140 G1 Y-0.4365
N4145 G3 X1.1909 Y-0.5087 I0.1328 J0.0077
N4150 X1.2787 Y-0.5937 I0.2415 J0.1616
N4155 X1.4793 Y-0.667 I0.2561 J0.3894
N4160 X1.7122 Y-0.6442 I0.0712 J0.472
N4165 X1.7931 Y-0.5967 I-0.104 J0.2699
N4170 X1.8356 Y-0.5003 I-0.0895 J0.097
N4175 G1 Y-0.4751
N4180 G3 X1.7889 Y-0.4269 Z0.6418 I-0.05 J-0.0017
N4185 G1 X1.7839 Y-0.4266 Z0.6423
N4190 X1.2178 Y-0.3884
N4195 X1.217 Y-0.3883
N4200 X1.2161
N4205 G3 X1.1644 Y-0.4365 Z0.6343 I-0.0017 J-0.05
N4210 G1 Y-0.4611
N4215 G3 X1.1905 Y-0.5334 I0.1322 J0.0068
N4220 X1.2776 Y-0.6183 I0.241 J0.1601
N4225 X1.4775 Y-0.6921 I0.2566 J0.3874
N4230 X1.711 Y-0.6698 I0.0728 J0.4728
N4235 X1.7928 Y-0.6222 I-0.1035 J0.2715
N4240 X1.8356 Y-0.5255 I-0.0891 J0.0973
N4245 G1 Y-0.5003
N4250 G3 X1.789 Y-0.4521 Z0.6418 I-0.05 J-0.0017
N4255 G1 X1.7839 Y-0.4518 Z0.6423
N4260 X1.2178 Y-0.4129
N4265 X1.217
N4270 X1.2161 Y-0.4128
N4275 G3 X1.1644 Y-0.4611 Z0.6343 I-0.0017 J-0.05
N4280 G1 Y-0.4873
N4285 G3 X1.191 Y-0.5594 I0.1334 J0.0082
N4290 X1.2789 Y-0.6445 I0.2416 J0.1619
N4295 X1.4794 Y-0.7176 I0.2557 J0.3893
N4300 X1.7122 Y-0.6946 I0.0709 J0.4719
N4305 X1.7931 Y-0.6471 I-0.1041 J0.2699
N4310 X1.8356 Y-0.5507 I-0.0895 J0.097
N4315 G1 Y-0.5255
N4320 G3 X1.7889 Y-0.4773 Z0.6418 I-0.05 J-0.0017
N4325 G1 X1.7839 Y-0.477 Z0.6423
N4330 X1.2178 Y-0.4392
N4335 X1.2169 Y-0.4391
N4340 X1.2161
N4345 G3 X1.1644 Y-0.4873 Z0.6343 I-0.0017 J-0.05
N4350 G1 Y-0.5127
N4355 G3 X1.1911 Y-0.5848 I0.1336 J0.0084
N4360 X1.2791 Y-0.6699 I0.2417 J0.1621
N4365 X1.4796 Y-0.743 I0.2555 J0.3894
N4370 X1.7123 Y-0.7198 I0.0705 J0.4718
N4375 X1.7932 Y-0.6722 I-0.1043 J0.2698
N4380 X1.8356 Y-0.5759 I-0.0895 J0.0969
N4385 G1 Y-0.5507
N4390 G3 X1.7889 Y-0.5025 Z0.6418 I-0.05 J-0.0017
N4395 G1 X1.7839 Y-0.5022 Z0.6423
N4400 X1.2177 Y-0.4646
N4405 X1.2169 Y-0.4645
N4410 X1.2161
N4415 G3 X1.1644 Y-0.5127 Z0.6343 I-0.0017 J-0.05
N4420 G1 Y-0.538
N4425 G3 X1.191 Y-0.6101 I0.1335 J0.0083
N4430 X1.279 Y-0.6951 I0.2417 J0.162
N4435 X1.4795 Y-0.7682 I0.2554 J0.3891
N4440 X1.7122 Y-0.7451 I0.0706 J0.4719
N4445 X1.7932 Y-0.6975 I-0.1043 J0.27
N4450 X1.8356 Y-0.6012 I-0.0895 J0.0969
N4455 G1 Y-0.5759
N4460 G3 X1.7889 Y-0.5278 Z0.6418 I-0.05 J-0.0017
N4465 G1 X1.7839 Y-0.5274 Z0.6423
N4470 X1.2177 Y-0.4898
N4475 X1.2169
N4480 X1.2161 Y-0.4897
N4485 G3 X1.1644 Y-0.538 Z0.6343 I-0.0017 J-0.05
N4490 G1 Y-0.5639
N4495 G3 X1.1914 Y-0.6359 I0.1343 J0.0092
N4500 X1.2799 Y-0.721 I0.2422 J0.1633
N4505 X1.4808 Y-0.7937 I0.2548 J0.3904
N4510 X1.7131 Y-0.77 I0.0693 J0.4713
N4515 X1.7934 Y-0.7225 I-0.1047 J0.2688
N4520 X1.8356 Y-0.6264 I-0.0898 J0.0967
N4525 G1 Y-0.6012
N4530 G3 X1.7888 Y-0.553 Z0.6418 I-0.05 J-0.0017
N4535 G1 X1.7839 Y-0.5527 Z0.6423
N4540 X1.2177 Y-0.5158
N4545 X1.2169 Y-0.5157
N4550 X1.2161
N4555 G3 X1.1644 Y-0.5639 Z0.6343 I-0.0017 J-0.05
N4560 G1 Y-0.5876
N4565 G3 X1.1905 Y-0.6599 I0.1324 J0.0069
N4570 X1.2776 Y-0.7447 I0.241 J0.1601
N4575 X1.4912 Y-0.8202 I0.2582 J0.3909
N4580 X1.7196 Y-0.7927 I0.0597 J0.4653
N4585 X1.7927 Y-0.7483 I-0.1103 J0.2646
N4590 X1.8356 Y-0.6516 I-0.0888 J0.0972
N4595 G1 Y-0.6264
N4600 G3 X1.789 Y-0.5783 Z0.6418 I-0.05 J-0.0017
N4605 G1 X1.7839 Y-0.5779 Z0.6423
N4610 X1.2178 Y-0.5394
N4615 X1.217
N4620 X1.2161 Y-0.5393
N4625 G3 X1.1644 Y-0.5876 Z0.6343 I-0.0017 J-0.05
N4630 G1 Y-0.6128
N4635 G3 X1.1905 Y-0.6851 I0.1323 J0.0068
N4640 X1.2775 Y-0.77 I0.2408 J0.1598
N4645 X1.4768 Y-0.8437 I0.2562 J0.3866
N4650 X1.7106 Y-0.8214 I0.0729 J0.4732
N4655 X1.7926 Y-0.7736 I-0.1022 J0.2695
N4660 X1.8356 Y-0.6769 I-0.0885 J0.0972
N4665 G1 Y-0.6516
N4670 G3 X1.789 Y-0.6035 Z0.6418 I-0.05 J-0.0017
N4675 G1 X1.7839 Y-0.6031 Z0.6423
N4680 X1.2178 Y-0.5647
N4685 X1.217 Y-0.5646
N4690 X1.2161
N4695 G3 X1.1644 Y-0.6128 Z0.6343 I-0.0017 J-0.05
N4700 G1 Y-0.6388
N4705 G3 X1.1898 Y-0.7113 I0.1322 J0.0055
N4710 X1.2745 Y-0.795 I0.2383 J0.1563
N4715 X1.4808 Y-0.871 I0.2591 J0.3856
N4720 X1.7114 Y-0.8481 I0.0694 J0.4734
N4725 X1.7903 Y-0.803 I-0.1076 J0.2798
N4730 X1.8356 Y-0.7042 I-0.0863 J0.0993
N4735 G1 Y-0.6769
N4740 G3 X1.7889 Y-0.6287 Z0.6418 I-0.05 J-0.0017
N4745 G1 X1.7839 Y-0.6284 Z0.6423
N4750 X1.2177 Y-0.5906
N4755 X1.2169
N4760 X1.2161 Y-0.5905
N4765 G3 X1.1644 Y-0.6388 Z0.6343 I-0.0017 J-0.05
N4770 G1 Y-0.6661
N4775 G3 X1.1909 Y-0.7382 I0.1333 J0.0079
N4780 X1.2783 Y-0.8229 I0.2407 J0.1611
N4785 X1.4073 Y-0.8814 I0.2412 J0.3603
N4790 X1.4375 Y-0.8793 Z0.6375 I0.0116 J0.0485
N4795 X1.4675 Y-0.8445 Z0.6423 I-0.0186 J0.0464
N4800 X1.4503 Y-0.794 I-0.0486 J0.0116
N4805 G1 X1.2458 Y-0.6289
N4810 G3 X1.2161 Y-0.6178 I-0.0314 J-0.0389
N4815 X1.1644 Y-0.6661 Z0.6343 I-0.0017 J-0.05
N4820 G1 Y-0.691
N4825 G3 X1.1897 Y-0.7636 I0.1315 J0.0051
N4830 X1.2744 Y-0.8473 I0.2377 J0.1558
N4835 X1.3208 Y-0.8749 I0.1877 J0.263
N4840 G2 X1.4159 Y-0.9602 I-0.0985 J-0.2056
N4845 G1 X1.4221 Y-0.9715
N4850 X1.4235 Y-0.9745
N4855 X1.4248 Y-0.9774
N4860 X1.4726 Y-0.9575
N4865 G2 X1.6107 Y-0.9165 I0.5977 J-1.7626
N4870 G3 X1.7394 Y-0.8673 I-0.1916 J0.6935
N4875 X1.7948 Y-0.8282 I-0.1543 J0.2774
N4880 X1.8356 Y-0.7335 I-0.0903 J0.095
N4885 G1 Y-0.7042
N4890 G3 X1.7867 Y-0.656 Z0.642 I-0.05 J-0.0017
N4895 G1 X1.7839 Y-0.6559 Z0.6423
N4900 X1.2161 Y-0.6428
N4905 X1.2156
N4910 G3 X1.1644 Y-0.691 Z0.6343 I-0.0012 J-0.05
N4915 G1 Y-0.7176
N4920 G3 X1.1904 Y-0.7899 I0.1321 J0.0066
N4925 X1.2387 Y-0.8451 I0.207 J0.1326
N4930 G1 X1.2779 Y-0.879
N4935 G2 X1.2967 Y-1.2036 I-0.1482 J-0.1715
N4940 G1 X1.2596 Y-1.2397
N4945 X1.2153 Y-1.2666
N4950 X1.168 Y-1.2877
N4955 X1.1187 Y-1.3036
N4960 X1.0958 Y-1.3088
N4965 X1.079 Y-1.3138
N4970 X1.0631 Y-1.321
N4975 X1.0482 Y-1.3303
N4980 G3 X1.0395 Y-1.4005 Z0.6423 I0.0308 J-0.0394
N4985 X1.0764 Y-1.4197 I0.0394 J0.0307
N4990 G1 X2.0845 Y-1.4718
N4995 G3 X2.1368 Y-1.4267 I0.0026 J0.0499
N5000 X2.0919 Y-1.3721 Z0.6343 I-0.0498 J0.0049
N5005 G2 X2.017 Y-1.3608 I0.0056 J0.2919
N5010 G3 X1.8984 Y-1.3436 I-0.1477 J-0.6002
N5015 G1 X1.8727 Y-1.3406
N5020 G2 X1.7025 Y-1.0244 I0.0367 J0.2237
N5025 G1 X1.7263 Y-0.9784
N5030 G2 X1.7879 Y-0.8986 I11.6559 J-8.9333
N5035 G3 X1.825 Y-0.841 I-0.2903 J0.228
N5040 G1 X1.8308 Y-0.8242
N5045 X1.8343 Y-0.8069
N5050 X1.8356 Y-0.7893
N5055 Y-0.7335
N5060 G3 X1.787 Y-0.6853 Z0.642 I-0.05 J-0.0017
N5065 G1 X1.7839 Y-0.6852 Z0.6423
N5070 X1.2161 Y-0.6694
N5075 X1.2158
N5080 G3 X1.1644 Y-0.7176 Z0.6343 I-0.0014 J-0.05
N5085 G1 Y-0.7435
N5090 G3 X1.1908 Y-0.8157 I0.1326 J0.0075
N5095 G1 X1.2196 Y-0.8588
N5100 X1.2293 Y-0.8828
N5105 X1.2362 Y-0.9078
N5110 X1.2441 Y-0.9589
N5115 X1.2403 Y-1.0106
N5120 X1.2266 Y-1.0605
N5125 X1.2047 Y-1.1074
N5130 X1.1762 Y-1.1507
N5135 G3 X1.1518 Y-1.1942 I0.0991 J-0.0841
N5140 X1.1858 Y-1.2562 Z0.6423 I0.048 J-0.0139
N5145 G1 X1.1877 Y-1.2567
N5150 X1.9868 Y-1.4559
N5155 G3 X2.0455 Y-1.4255 I0.0121 J0.0485
N5160 X2.017 Y-1.3608 Z0.6343 I-0.0466 J0.0181
N5165 G2 X1.957 Y-1.3342 I0.0688 J0.2362
N5170 G1 X1.9271 Y-1.3124
N5175 G2 X1.8915 Y-1.2762 I0.1572 J0.19
N5180 G1 X1.8709 Y-1.2463
N5185 G2 X1.8373 Y-1.1423 I0.2232 J0.1296
N5190 G1 X1.83 Y-1.091
N5195 X1.8296 Y-1.0393
N5200 X1.8349 Y-0.9885
N5205 X1.8352 Y-0.984
N5210 X1.8355 Y-0.9795
N5215 X1.8356 Y-0.975
N5220 G3 X1.7839 Y-0.9268 Z0.6423 I-0.05 J-0.0017
N5225 X1.7356 Y-0.9772 I0.0017 J-0.05
N5230 G1 X1.7372 Y-1.1438
N5235 G3 X1.7882 Y-1.1933 I0.05 J0.0005
N5240 X1.8372 Y-1.1433 Z0.6344 I-0.0011 J0.05
N5245 G1 Y-1.1423 Z0.6343
N5250 X1.8363 Y-1.1265
N5255 X1.8356 Y-1.1115
N5260 Y-0.7893
N5265 G3 X1.7896 Y-0.7412 Z0.6417 I-0.05 J-0.0017
N5270 G1 X1.7839 Y-0.7407 Z0.6423
N5275 X1.2184 Y-0.6954
N5280 X1.2173
N5285 X1.2161 Y-0.6953
N5290 G3 X1.1644 Y-0.7435 Z0.6343 I-0.0017 J-0.05
N5295 G1 Y-0.7697
N5300 X1.1647 Y-0.7757
N5305 X1.1654 Y-0.7817
N5310 X1.1665 Y-0.7876
N5315 X1.1787 Y-0.8379
N5320 X1.1853 Y-0.8892
N5325 X1.1842 Y-0.941
N5330 X1.1764 Y-0.9922
N5335 X1.1685 Y-1.0232
N5340 X1.1662 Y-1.0338
N5345 X1.1649 Y-1.0445
N5350 X1.1644 Y-1.0553
N5355 G3 X1.2161 Y-1.1035 Z0.6423 I0.05 J0.0017
N5360 X1.2644 Y-1.0535 I-0.0017 J0.05
N5365 G1 Y-0.7715
N5370 G3 X1.2161 Y-0.7215 I-0.05 J0.
N5375 X1.1644 Y-0.7697 Z0.6343 I-0.0017 J-0.05
N5380 G1 Y-1.1115
N5385 X1.1637 Y-1.1265
N5390 X1.1634 Y-1.131
N5395 Y-1.1321
N5400 X1.164 Y-1.1363 Z0.6348
N5405 X1.1645 Y-1.1405 Z0.6358
N5410 X1.165 Y-1.1444 Z0.6375
N5415 X1.1663 Y-1.1479 Z0.6396
N5420 X1.1676 Y-1.151 Z0.6422
N5425 X1.1687 Y-1.1537 Z0.6452
N5430 X1.1696 Y-1.1561 Z0.6486
N5435 X1.1707 Y-1.1578 Z0.6525
N5440 X1.1715 Y-1.1591 Z0.6566
N5445 X1.172 Y-1.1599 Z0.6609
N5450 X1.1721 Y-1.1602 Z0.6652
N5455 G0 Z1.45
N5460 G1 X-0.1166 Y-1.4961 F500.
N5465 G0 Z0.9331
N5470 G1 Z0.8831 F69.
N5475 Y-1.4958 Z0.8775
N5480 X-0.1165 Y-1.4948 Z0.872
N5485 X-0.1164 Y-1.4933 Z0.8666
N5490 X-0.1163 Y-1.4911 Z0.8614
N5495 X-0.1161 Y-1.4884 Z0.8565
N5500 X-0.1159 Y-1.4852 Z0.8519
N5505 X-0.1156 Y-1.4815 Z0.8477
N5510 X-0.1154 Y-1.4773 Z0.844
N5515 X-0.1151 Y-1.4727 Z0.8408
N5520 X-0.1147 Y-1.4678 Z0.8381
N5525 X-0.1144 Y-1.4627 Z0.8359
N5530 X-0.114 Y-1.4573 Z0.8344
N5535 X-0.1137 Y-1.4518 Z0.8334
N5540 X-0.1133 Y-1.4462 Z0.8331
N5545 G3 X-0.1247 Y-1.1714 I-1.2737 J0.0845
N5550 G2 X-0.1311 Y-1.1115 I0.3025 J0.0626
N5555 G1 Y-0.1385
N5560 G2 X-0.126 Y-0.0851 I0.315 J-0.0032
N5565 G3 X-0.1308 Y-0.055 I-0.0494 J0.0074
N5570 G1 X-0.1333 Y-0.0501 Z0.8334
N5575 X-0.1358 Y-0.0451 Z0.8344
N5580 X-0.1383 Y-0.0403 Z0.8359
N5585 X-0.1406 Y-0.0357 Z0.8381
N5590 X-0.1428 Y-0.0313 Z0.8408
N5595 X-0.1449 Y-0.0272 Z0.844
N5600 X-0.1468 Y-0.0235 Z0.8477
N5605 X-0.1485 Y-0.0202 Z0.8519
N5610 X-0.1499 Y-0.0173 Z0.8565
N5615 X-0.1511 Y-0.0149 Z0.8614
N5620 X-0.1521 Y-0.0129 Z0.8666
N5625 X-0.1528 Y-0.0116 Z0.872
N5630 X-0.1532 Y-0.0107 Z0.8775
N5635 X-0.1534 Y-0.0104 Z0.8831
N5640 G0 Z1.45
N5645 G1 X1.0876 Y0.285 F500.
N5650 G0 Z0.9331
N5655 G1 Z0.8831 F69.
N5660 Y0.2847 Z0.8775
N5665 X1.0877 Y0.2837 Z0.872
N5670 X1.0878 Y0.2822 Z0.8666
N5675 X1.088 Y0.28 Z0.8614
N5680 X1.0882 Y0.2773 Z0.8565
N5685 X1.0885 Y0.2741 Z0.8519
N5690 X1.0888 Y0.2704 Z0.8477
N5695 X1.0891 Y0.2662 Z0.844
N5700 X1.0895 Y0.2616 Z0.8408
N5705 X1.0899 Y0.2567 Z0.8381
N5710 X1.0903 Y0.2516 Z0.8359
N5715 X1.0907 Y0.2462 Z0.8344
N5720 X1.0912 Y0.2407 Z0.8334
N5725 X1.0916 Y0.2351 Z0.8331
N5730 G3 X1.143 Y-0.035 I1.2724 J0.1019
N5735 G2 X1.1626 Y-0.1385 I-0.2654 J-0.1041
N5740 G1 Y-1.1115
N5745 G2 X1.1488 Y-1.1981 I-0.2789 J0.
N5750 G3 X1.1495 Y-1.2284 Z0.8362 I0.0479 J-0.0139
N5755 X1.1827 Y-1.26 Z0.8411 I0.0473 J0.0163
N5760 X1.1953 Y-1.262 I0.014 J0.048
N5765 G1 X1.8078 Y-1.2795
N5770 G3 X1.8238 Y-1.2774 I0.0014 J0.05
N5775 X1.857 Y-1.215 Z0.8331 I-0.0146 J0.0478
N5780 G2 X1.8374 Y-1.1115 I0.2654 J0.1041
N5785 G1 Y-0.1385
N5790 G2 X1.8425 Y-0.0847 I0.3143 J-0.0031
N5795 G3 X1.8378 Y-0.0547 I-0.0494 J0.0074
N5800 G1 X1.8353 Y-0.0497 Z0.8334
N5805 X1.8328 Y-0.0447 Z0.8344
N5810 X1.8303 Y-0.0399 Z0.8359
N5815 X1.828 Y-0.0353 Z0.8381
N5820 X1.8258 Y-0.0309 Z0.8408
N5825 X1.8237 Y-0.0268 Z0.844
N5830 X1.8218 Y-0.0231 Z0.8477
N5835 X1.8201 Y-0.0198 Z0.8519
N5840 X1.8187 Y-0.0169 Z0.8565
N5845 X1.8174 Y-0.0145 Z0.8614
N5850 X1.8165 Y-0.0126 Z0.8666
N5855 X1.8158 Y-0.0112 Z0.872
N5860 X1.8153 Y-0.0103 Z0.8775
N5865 X1.8152 Y-0.0101 Z0.8831
N5870 G0 Z1.45
N5875 G1 X3.1166 Y0.2461 F500.
N5880 G0 Z0.9331
N5885 G1 Z0.8831 F69.
N5890 Y0.2458 Z0.8775
N5895 X3.1165 Y0.2448 Z0.872
N5900 X3.1164 Y0.2433 Z0.8666
N5905 X3.1163 Y0.2411 Z0.8614
N5910 X3.1161 Y0.2384 Z0.8565
N5915 X3.1159 Y0.2352 Z0.8519
N5920 X3.1156 Y0.2315 Z0.8477
N5925 X3.1154 Y0.2273 Z0.844
N5930 X3.1151 Y0.2227 Z0.8408
N5935 X3.1147 Y0.2178 Z0.8381
N5940 X3.1144 Y0.2127 Z0.8359
N5945 X3.114 Y0.2073 Z0.8344
N5950 X3.1137 Y0.2018 Z0.8334
N5955 X3.1133 Y0.1962 Z0.8331
N5960 G3 X3.1247 Y-0.0786 I1.2737 J-0.0845
N5965 G2 X3.1311 Y-0.1385 I-0.3026 J-0.0626
N5970 G1 Y-1.1115
N5975 G2 X3.126 Y-1.1649 I-0.315 J0.0032
N5980 G3 X3.1308 Y-1.195 I0.0494 J-0.0074
N5985 G1 X3.1333 Y-1.1999 Z0.8334
N5990 X3.1358 Y-1.2049 Z0.8344
N5995 X3.1383 Y-1.2097 Z0.8359
N6000 X3.1406 Y-1.2143 Z0.8381
N6005 X3.1428 Y-1.2187 Z0.8408
N6010 X3.1449 Y-1.2228 Z0.844
N6015 X3.1468 Y-1.2265 Z0.8477
N6020 X3.1485 Y-1.2298 Z0.8519
N6025 X3.1499 Y-1.2327 Z0.8565
N6030 X3.1511 Y-1.2351 Z0.8614
N6035 X3.1521 Y-1.2371 Z0.8666
N6040 X3.1528 Y-1.2384 Z0.872
N6045 X3.1532 Y-1.2393 Z0.8775
N6050 X3.1534 Y-1.2396 Z0.8831
N6055 G0 Z1.45
N6060 G1 X2.9936 Y0.4192 F500.
N6065 G0 Z0.9331
N6070 G1 Z0.8831 F69.
N6075 Y0.4188 Z0.8775
N6080 X2.9935 Y0.4179 Z0.872
N6085 X2.9934 Y0.4164 Z0.8666
N6090 X2.9932 Y0.4142 Z0.8614
N6095 X2.993 Y0.4115 Z0.8565
N6100 X2.9927 Y0.4083 Z0.8519
N6105 X2.9924 Y0.4046 Z0.8477
N6110 X2.9921 Y0.4004 Z0.844
N6115 X2.9917 Y0.3958 Z0.8408
N6120 X2.9913 Y0.3909 Z0.8381
N6125 X2.9909 Y0.3858 Z0.8359
N6130 X2.9905 Y0.3804 Z0.8344
N6135 X2.9901 Y0.3749 Z0.8334
N6140 X2.9896 Y0.3693 Z0.8331
N6145 G3 X2.9975 Y0.0944 I1.2725 J-0.1011
N6150 G1 X2.9978 Y0.0926
N6155 X2.9987 Y0.091
N6160 X3.0002 Y0.0897
N6165 G3 X3.03 Y0.0838 I0.0243 J0.0437
N6170 G1 X3.0356 Y0.0844 Z0.8334
N6175 X3.041 Y0.085 Z0.8344
N6180 X3.0464 Y0.0856 Z0.8359
N6185 X3.0515 Y0.0862 Z0.8381
N6190 X3.0564 Y0.0867 Z0.8408
N6195 X3.061 Y0.0872 Z0.844
N6200 X3.0651 Y0.0877 Z0.8477
N6205 X3.0688 Y0.0881 Z0.8519
N6210 X3.0721 Y0.0885 Z0.8565
N6215 X3.0748 Y0.0888 Z0.8614
N6220 X3.0769 Y0.089 Z0.8666
N6225 X3.0784 Y0.0892 Z0.872
N6230 X3.0794 Y0.0893 Z0.8775
N6235 X3.0797 Z0.8831
N6240 G0 Z1.45
N6245 G1 X1.7897 Y0.0013 F500.
N6250 G0 Z0.9331
N6255 G1 Z0.8831 F69.
N6260 X1.79 Z0.8775
N6265 X1.791 Y0.0012 Z0.872
N6270 X1.7925 Y0.0011 Z0.8666
N6275 X1.7946 Y0.0009 Z0.8614
N6280 X1.7973 Y0.0007 Z0.8565
N6285 X1.8006 Y0.0004 Z0.8519
N6290 X1.8043 Y0. Z0.8477
N6295 X1.8085 Y-0.0003 Z0.844
N6300 X1.813 Y-0.0007 Z0.8408
N6305 X1.8179 Y-0.0012 Z0.8381
N6310 X1.8231 Y-0.0016 Z0.8359
N6315 X1.8284 Y-0.0021 Z0.8344
N6320 X1.8339 Y-0.0026 Z0.8334
N6325 X1.8395 Y-0.0031 Z0.8331
N6330 G3 X1.8704 Y-0.0025 I0.0127 J0.143
N6335 G1 X1.8723 Y-0.0022
N6340 X1.874 Y-0.0013
N6345 X1.8753 Y0.0001
N6350 X1.8771 Y0.0039 Z0.8334
N6355 X1.8789 Y0.0077 Z0.8343
N6360 X1.8806 Y0.0114 Z0.8358
N6365 X1.8813 Y0.0149 Z0.8376
N6370 X1.8819 Y0.0182 Z0.84
N6375 X1.8824 Y0.0211 Z0.8428
N6380 X1.8829 Y0.0237 Z0.8459
N6385 X1.883 Y0.0253 Z0.8485
N6390 Y0.0268 Z0.8513
N6395 Y0.0283 Z0.8554
N6400 Y0.0292 Z0.8597
N6405 X1.8829 Y0.0295 Z0.864
N6410 G0 Z1.45
N6415 G1 X0.8156 Y0.3134 F500.
N6420 G0 Z0.9581
N6425 G1 Z0.9081 F69.
N6430 X0.8158 Y0.3131 Z0.9025
N6435 X0.8164 Y0.3124 Z0.897
N6440 X0.8174 Y0.3112 Z0.8916
N6445 X0.8188 Y0.3095 Z0.8864
N6450 X0.8205 Y0.3074 Z0.8815
N6455 X0.8225 Y0.3049 Z0.8769
N6460 X0.8249 Y0.302 Z0.8727
N6465 X0.8275 Y0.2988 Z0.869
N6470 X0.8304 Y0.2952 Z0.8658
N6475 X0.8335 Y0.2914 Z0.8631
N6480 X0.8368 Y0.2874 Z0.8609
N6485 X0.8402 Y0.2832 Z0.8594
N6490 X0.8437 Y0.279 Z0.8584
N6495 X0.8472 Y0.2746 Z0.8581
N6500 G3 X1.0429 Y0.0814 I0.9894 J0.8066
N6505 G1 X1.0604 Y0.0685
N6510 X1.0729 Y0.0592
N6515 X1.077 Y0.055
N6520 X1.1029 Y0.028
N6525 G2 X1.1595 Y-0.1235 I-0.2009 J-0.1614
N6530 G1 X1.1602 Y-0.1385
N6535 Y-1.1115
N6540 G2 X1.1399 Y-1.2163 I-0.2825 J0.0003
N6545 X1.1029 Y-1.278 I-0.2684 J0.1189
N6550 G1 X1.0879 Y-1.2936
N6555 X1.0876 Y-1.294 Z0.8582
N6560 G2 X1.0416 Y-1.3569 Z0.8661 I-0.5605 J0.3611
N6565 X0.9303 Y-1.4639 I-0.5145 J0.424
N6570 X0.902 Y-1.474 I-0.0302 J0.0398
N6575 G1 X0.1956 Y-1.5017
N6580 G2 X0.1667 Y-1.4938 I-0.002 J0.05
N6585 X0.0471 Y-1.3956 I0.3605 J0.5609
N6590 X-0.0034 Y-1.3367 Z0.8582 I0.48 J0.4627
N6595 G1 X-0.004 Y-1.3361 Z0.8581
N6600 X-0.036 Y-1.3135
N6605 G2 X-0.0726 Y-1.2762 I0.1588 J0.1924
N6610 G1 X-0.0933 Y-1.2463
N6615 G2 X-0.128 Y-1.1265 I0.2185 J0.1281
N6620 G1 X-0.1287 Y-1.1115
N6625 Y-0.1385
N6630 G2 X-0.1237 Y-0.0853 I0.3049 J-0.002
N6635 G3 X-0.1284 Y-0.0553 I-0.0493 J0.0074
N6640 G1 X-0.1309 Y-0.0503 Z0.8584
N6645 X-0.1334 Y-0.0453 Z0.8594
N6650 X-0.1358 Y-0.0405 Z0.8609
N6655 X-0.1382 Y-0.0359 Z0.8631
N6660 X-0.1404 Y-0.0315 Z0.8658
N6665 X-0.1425 Y-0.0275 Z0.869
N6670 X-0.1443 Y-0.0237 Z0.8727
N6675 X-0.146 Y-0.0204 Z0.8769
N6680 X-0.1475 Y-0.0175 Z0.8815
N6685 X-0.1487 Y-0.0151 Z0.8864
N6690 X-0.1497 Y-0.0132 Z0.8916
N6695 X-0.1504 Y-0.0118 Z0.897
N6700 X-0.1508 Y-0.0109 Z0.9025
N6705 X-0.151 Y-0.0107 Z0.9081
N6710 G0 Z1.45
N6715 G1 X2.1844 Y-1.5634 F500.
N6720 G0 Z0.9581
N6725 G1 Z0.9081 F69.
N6730 X2.1842 Y-1.5631 Z0.9025
N6735 X2.1836 Y-1.5624 Z0.897
N6740 X2.1826 Y-1.5612 Z0.8916
N6745 X2.1812 Y-1.5595 Z0.8864
N6750 X2.1795 Y-1.5574 Z0.8815
N6755 X2.1775 Y-1.5549 Z0.8769
N6760 X2.1751 Y-1.552 Z0.8727
N6765 X2.1725 Y-1.5488 Z0.869
N6770 X2.1696 Y-1.5452 Z0.8658
N6775 X2.1665 Y-1.5414 Z0.8631
N6780 X2.1632 Y-1.5374 Z0.8609
N6785 X2.1598 Y-1.5332 Z0.8594
N6790 X2.1563 Y-1.529 Z0.8584
N6795 X2.1528 Y-1.5246 Z0.8581
N6800 G3 X1.9571 Y-1.3314 I-0.9894 J-0.8066
N6805 G1 X1.9396 Y-1.3185
N6810 X1.9271 Y-1.3092
N6815 X1.923 Y-1.305
N6820 X1.8971 Y-1.278
N6825 G2 X1.8405 Y-1.1265 I0.2009 J0.1614
N6830 G1 X1.8398 Y-1.1115
N6835 Y-0.1385
N6840 G2 X1.8601 Y-0.0337 I0.2825 J-0.0003
N6845 X1.8971 Y0.028 I0.2684 J-0.1189
N6850 G1 X1.9121 Y0.0436
N6855 X1.9124 Y0.044 Z0.8582
N6860 G2 X1.9584 Y0.1069 Z0.8661 I0.5605 J-0.3611
N6865 X2.0697 Y0.2139 I0.5145 J-0.424
N6870 X2.098 Y0.224 I0.0302 J-0.0398
N6875 G1 X2.8044 Y0.2517
N6880 G2 X2.8333 Y0.2438 I0.002 J-0.05
N6885 X2.9529 Y0.1456 I-0.3605 J-0.5609
N6890 X3.0034 Y0.0867 Z0.8582 I-0.48 J-0.4627
N6895 G1 X3.004 Y0.0861 Z0.8581
N6900 X3.036 Y0.0635
N6905 G2 X3.0726 Y0.0262 I-0.1588 J-0.1924
N6910 G1 X3.0933 Y-0.0037
N6915 G2 X3.128 Y-0.1235 I-0.2185 J-0.1281
N6920 G1 X3.1287 Y-0.1385
N6925 Y-1.1115
N6930 G2 X3.1237 Y-1.1647 I-0.3049 J0.002
N6935 G3 X3.1284 Y-1.1947 I0.0493 J-0.0074
N6940 G1 X3.1309 Y-1.1997 Z0.8584
N6945 X3.1334 Y-1.2047 Z0.8594
N6950 X3.1358 Y-1.2095 Z0.8609
N6955 X3.1382 Y-1.2141 Z0.8631
N6960 X3.1404 Y-1.2185 Z0.8658
N6965 X3.1425 Y-1.2225 Z0.869
N6970 X3.1443 Y-1.2263 Z0.8727
N6975 X3.146 Y-1.2296 Z0.8769
N6980 X3.1475 Y-1.2325 Z0.8815
N6985 X3.1487 Y-1.2349 Z0.8864
N6990 X3.1497 Y-1.2368 Z0.8916
N6995 X3.1504 Y-1.2382 Z0.897
N7000 X3.1508 Y-1.2391 Z0.9025
N7005 X3.151 Y-1.2393 Z0.9081
N7010 G0 Z1.45
N7015 G1 X1.7413 Y-1.3183 F500.
N7020 G0 Z0.9581
N7025 G1 Z0.9081 F69.
N7030 X1.7416 Y-1.3184 Z0.9025
N7035 X1.7425 Y-1.3186 Z0.897
N7040 X1.7441 Y-1.319 Z0.8916
N7045 X1.7461 Y-1.3195 Z0.8864
N7050 X1.7488 Y-1.3202 Z0.8815
N7055 X1.7519 Y-1.321 Z0.8769
N7060 X1.7555 Y-1.3219 Z0.8727
N7065 X1.7596 Y-1.323 Z0.869
N7070 X1.764 Y-1.3241 Z0.8658
N7075 X1.7688 Y-1.3253 Z0.8631
N7080 X1.7738 Y-1.3266 Z0.8609
N7085 X1.779 Y-1.3279 Z0.8594
N7090 X1.7843 Y-1.3293 Z0.8584
N7095 X1.7898 Y-1.3307 Z0.8581
N7100 G3 X2.062 Y-1.3699 I0.3167 J1.2366
N7105 G1 X2.0634
N7110 X2.0632 Y-1.3697
N7115 X2.063
N7120 X2.0605 Y-1.3696 Z0.8582
N7125 X2.0562 Y-1.3702 Z0.8589
N7130 X2.052 Y-1.3707 Z0.8602
N7135 X2.0481 Y-1.3712 Z0.862
N7140 X2.0452 Y-1.3723 Z0.864
N7145 X2.0426 Y-1.3734 Z0.8663
N7150 X2.0402 Y-1.3743 Z0.869
N7155 X2.0382 Y-1.3751 Z0.8719
N7160 X2.0364 Y-1.3758 Z0.8751
N7165 X2.0352 Y-1.3765 Z0.8784
N7170 X2.0343 Y-1.377 Z0.8819
N7175 X2.0338 Y-1.3773 Z0.8854
N7180 X2.0336 Y-1.3775 Z0.889
N7185 G0 Z1.45
N7190 G1 X-0.0494 Y-1.5361 F500.
N7195 G0 Z0.9831
N7200 G1 Z0.9331 F69.
N7205 Y-1.5358 Z0.9275
N7210 X-0.0495 Y-1.5349 Z0.922
N7215 X-0.0496 Y-1.5333 Z0.9166
N7220 X-0.0498 Y-1.5312 Z0.9114
N7225 X-0.05 Y-1.5285 Z0.9065
N7230 X-0.0503 Y-1.5252 Z0.9019
N7235 X-0.0506 Y-1.5215 Z0.8977
N7240 X-0.051 Y-1.5174 Z0.894
N7245 X-0.0514 Y-1.5128 Z0.8908
N7250 X-0.0518 Y-1.5079 Z0.8881
N7255 X-0.0522 Y-1.5027 Z0.8859
N7260 X-0.0526 Y-1.4974 Z0.8844
N7265 X-0.0531 Y-1.4919 Z0.8834
N7270 X-0.0536 Y-1.4863 Z0.8831
N7275 G3 X-0.106 Y-1.2163 I-1.272 J-0.107
N7280 G2 X-0.1262 Y-1.1115 I0.2636 J0.1051
N7285 G1 Y-0.1385
N7290 G2 X-0.1122 Y-0.0514 I0.272 J0.001
N7295 G3 X-0.1129 Y-0.021 I-0.0479 J0.0139
N7300 G1 X-0.1148 Y-0.0157 Z0.8834
N7305 X-0.1166 Y-0.0105 Z0.8844
N7310 X-0.1184 Y-0.0054 Z0.8859
N7315 X-0.1201 Y-0.0005 Z0.8881
N7320 X-0.1217 Y0.0041 Z0.8908
N7325 X-0.1232 Y0.0085 Z0.894
N7330 X-0.1246 Y0.0124 Z0.8977
N7335 X-0.1258 Y0.0159 Z0.9019
N7340 X-0.1269 Y0.019 Z0.9065
N7345 X-0.1278 Y0.0216 Z0.9114
N7350 X-0.1285 Y0.0236 Z0.9166
N7355 X-0.129 Y0.025 Z0.922
N7360 X-0.1293 Y0.0259 Z0.9275
N7365 X-0.1294 Y0.0262 Z0.9331
N7370 G0 Z1.45
N7375 G1 X1.1229 Y0.2597 F500.
N7380 G0 Z0.9831
N7385 G1 Z0.9331 F69.
N7390 Y0.2593 Z0.9275
N7395 Y0.2584 Z0.922
N7400 X1.1228 Y0.2568 Z0.9166
N7405 Y0.2547 Z0.9114
N7410 Y0.252 Z0.9065
N7415 X1.1227 Y0.2487 Z0.9019
N7420 Y0.245 Z0.8977
N7425 X1.1226 Y0.2408 Z0.894
N7430 X1.1225 Y0.2363 Z0.8908
N7435 Y0.2313 Z0.8881
N7440 X1.1224 Y0.2262 Z0.8859
N7445 X1.1223 Y0.2208 Z0.8844
N7450 X1.1222 Y0.2153 Z0.8834
N7455 Y0.2097 Z0.8831
N7460 G3 X1.1478 Y-0.0641 I1.2764 J-0.0184
N7465 G2 X1.1577 Y-0.1385 I-0.2875 J-0.076
N7470 G1 Y-1.1115
N7475 G2 X1.1373 Y-1.2164 I-0.2766 J-0.0004
N7480 G1 X1.1299 Y-1.2313
N7485 G3 X1.155 Y-1.2974 Z0.8911 I0.0456 J-0.0205
N7490 X1.1799 Y-1.3016 I0.0205 J0.0456
N7495 G1 X1.8076 Y-1.2457
N7500 X1.8104 Y-1.2453
N7505 X1.8132 Y-1.2448
N7510 G3 X1.8522 Y-1.1859 Z0.8831 I-0.01 J0.049
N7515 G2 X1.8423 Y-1.1115 I0.2875 J0.076
N7520 G1 Y-0.1385
N7525 G2 X1.8627 Y-0.0336 I0.2766 J0.0004
N7530 G1 X1.8701 Y-0.0187
N7535 G3 X1.8736 Y0.0115 I-0.0456 J0.0205
N7540 G1 X1.8725 Y0.017 Z0.8834
N7545 X1.8714 Y0.0225 Z0.8844
N7550 X1.8703 Y0.0277 Z0.8859
N7555 X1.8693 Y0.0328 Z0.8881
N7560 X1.8684 Y0.0376 Z0.8908
N7565 X1.8675 Y0.0421 Z0.894
N7570 X1.8666 Y0.0462 Z0.8977
N7575 X1.8659 Y0.0499 Z0.9019
N7580 X1.8653 Y0.0531 Z0.9065
N7585 X1.8648 Y0.0557 Z0.9114
N7590 X1.8643 Y0.0578 Z0.9166
N7595 X1.864 Y0.0593 Z0.922
N7600 X1.8638 Y0.0603 Z0.9275
N7605 Y0.0606 Z0.9331
N7610 G0 Z1.45
N7615 G1 X3.0494 Y0.2861 F500.
N7620 G0 Z0.9831
N7625 G1 Z0.9331 F69.
N7630 Y0.2858 Z0.9275
N7635 X3.0495 Y0.2849 Z0.922
N7640 X3.0496 Y0.2833 Z0.9166
N7645 X3.0498 Y0.2812 Z0.9114
N7650 X3.05 Y0.2785 Z0.9065
N7655 X3.0503 Y0.2752 Z0.9019
N7660 X3.0506 Y0.2715 Z0.8977
N7665 X3.051 Y0.2674 Z0.894
N7670 X3.0514 Y0.2628 Z0.8908
N7675 X3.0518 Y0.2579 Z0.8881
N7680 X3.0522 Y0.2527 Z0.8859
N7685 X3.0526 Y0.2474 Z0.8844
N7690 X3.0531 Y0.2419 Z0.8834
N7695 X3.0536 Y0.2363 Z0.8831
N7700 G3 X3.106 Y-0.0337 I1.272 J0.107
N7705 G2 X3.1262 Y-0.1385 I-0.2636 J-0.1051
N7710 G1 Y-1.1115
N7715 G2 X3.1122 Y-1.1986 I-0.272 J-0.001
N7720 G3 X3.1129 Y-1.229 I0.0479 J-0.0139
N7725 G1 X3.1148 Y-1.2343 Z0.8834
N7730 X3.1166 Y-1.2395 Z0.8844
N7735 X3.1184 Y-1.2446 Z0.8859
N7740 X3.1201 Y-1.2495 Z0.8881
N7745 X3.1217 Y-1.2541 Z0.8908
N7750 X3.1232 Y-1.2585 Z0.894
N7755 X3.1246 Y-1.2624 Z0.8977
N7760 X3.1258 Y-1.2659 Z0.9019
N7765 X3.1269 Y-1.269 Z0.9065
N7770 X3.1278 Y-1.2716 Z0.9114
N7775 X3.1285 Y-1.2736 Z0.9166
N7780 X3.129 Y-1.275 Z0.922
N7785 X3.1293 Y-1.2759 Z0.9275
N7790 X3.1294 Y-1.2762 Z0.9331
N7795 G0 Z1.45
N7800 G1 X-0.0353 Y-1.4115 F500.
N7805 G0 Z0.9831
N7810 G1 Z0.9331 F69.
N7815 X-0.0351 Y-1.4113 Z0.9275
N7820 X-0.0345 Y-1.4105 Z0.922
N7825 X-0.0336 Y-1.4093 Z0.9166
N7830 X-0.0323 Y-1.4076 Z0.9114
N7835 X-0.0307 Y-1.4054 Z0.9065
N7840 X-0.0287 Y-1.4028 Z0.9019
N7845 X-0.0265 Y-1.3998 Z0.8977
N7850 X-0.024 Y-1.3965 Z0.894
N7855 X-0.0212 Y-1.3929 Z0.8908
N7860 X-0.0183 Y-1.3889 Z0.8881
N7865 X-0.0151 Y-1.3848 Z0.8859
N7870 X-0.0119 Y-1.3805 Z0.8844
N7875 X-0.0086 Y-1.3761 Z0.8834
N7880 X-0.0052 Y-1.3716 Z0.8831
N7885 G3 X0.0025 Y-1.3417 I-0.0322 J0.0243
N7890 G1 X0.0022 Y-1.3398
N7895 X0.0012 Y-1.3381
N7900 X-0.0003 Y-1.3369
N7905 G3 X-0.0303 Y-1.3318 I-0.0229 J-0.0444
N7910 G1 X-0.0359 Y-1.3326 Z0.8834
N7915 X-0.0413 Y-1.3334 Z0.8844
N7920 X-0.0467 Y-1.3342 Z0.8859
N7925 X-0.0518 Y-1.3349 Z0.8881
N7930 X-0.0566 Y-1.3356 Z0.8908
N7935 X-0.0612 Y-1.3362 Z0.894
N7940 X-0.0653 Y-1.3368 Z0.8977
N7945 X-0.069 Y-1.3374 Z0.9019
N7950 X-0.0722 Y-1.3378 Z0.9065
N7955 X-0.0749 Y-1.3382 Z0.9114
N7960 X-0.077 Y-1.3385 Z0.9166
N7965 X-0.0786 Y-1.3387 Z0.922
N7970 X-0.0795 Y-1.3389 Z0.9275
N7975 X-0.0798 Z0.9331
N7980 G0 Z1.45
N7985 G1 X3.0353 Y0.1615 F500.
N7990 G0 Z0.9831
N7995 G1 Z0.9331 F69.
N8000 X3.0351 Y0.1613 Z0.9275
N8005 X3.0345 Y0.1605 Z0.922
N8010 X3.0336 Y0.1593 Z0.9166
N8015 X3.0323 Y0.1576 Z0.9114
N8020 X3.0307 Y0.1554 Z0.9065
N8025 X3.0287 Y0.1528 Z0.9019
N8030 X3.0265 Y0.1498 Z0.8977
N8035 X3.024 Y0.1465 Z0.894
N8040 X3.0212 Y0.1429 Z0.8908
N8045 X3.0183 Y0.1389 Z0.8881
N8050 X3.0151 Y0.1348 Z0.8859
N8055 X3.0119 Y0.1305 Z0.8844
N8060 X3.0086 Y0.1261 Z0.8834
N8065 X3.0052 Y0.1216 Z0.8831
N8070 G3 X2.9975 Y0.0917 I0.0322 J-0.0243
N8075 G1 X2.9978 Y0.0898
N8080 X2.9988 Y0.0881
N8085 X3.0003 Y0.0869
N8090 G3 X3.0303 Y0.0818 I0.0229 J0.0444
N8095 G1 X3.0359 Y0.0826 Z0.8834
N8100 X3.0413 Y0.0834 Z0.8844
N8105 X3.0467 Y0.0842 Z0.8859
N8110 X3.0518 Y0.0849 Z0.8881
N8115 X3.0566 Y0.0856 Z0.8908
N8120 X3.0612 Y0.0862 Z0.894
N8125 X3.0653 Y0.0868 Z0.8977
N8130 X3.069 Y0.0874 Z0.9019
N8135 X3.0722 Y0.0878 Z0.9065
N8140 X3.0749 Y0.0882 Z0.9114
N8145 X3.077 Y0.0885 Z0.9166
N8150 X3.0786 Y0.0887 Z0.922
N8155 X3.0795 Y0.0889 Z0.9275
N8160 X3.0798 Z0.9331
N8165 G0 Z1.45
N8170 G1 X-0.027 Y-1.3628 F500.
N8175 G0 Z0.9831
N8180 G1 Z0.9331 F69.
N8185 X-0.0267 Y-1.3627 Z0.9275
N8190 X-0.0258 Z0.922
N8195 X-0.0242 Z0.9166
N8200 X-0.0221 Y-1.3626 Z0.9114
N8205 X-0.0193 Y-1.3625 Z0.9065
N8210 X-0.0161 Y-1.3624 Z0.9019
N8215 X-0.0124 Y-1.3622 Z0.8977
N8220 X-0.0082 Y-1.3621 Z0.894
N8225 X-0.0036 Y-1.3619 Z0.8908
N8230 X0.0013 Y-1.3618 Z0.8881
N8235 X0.0065 Y-1.3616 Z0.8859
N8240 X0.0118 Y-1.3614 Z0.8844
N8245 X0.0174 Y-1.3612 Z0.8834
N8250 X0.023 Y-1.361 Z0.8831
N8255 G2 X0.0539 I0.0155 J-0.4428
N8260 G1 X0.0552
N8265 X0.0549 Y-1.3607
N8270 X0.0545 Y-1.3605
N8275 X0.0541 Y-1.3603
N8280 G3 X0.0237 Y-1.3625 I-0.0118 J-0.0486
N8285 G1 X0.0185 Y-1.3646 Z0.8834
N8290 X0.0134 Y-1.3666 Z0.8844
N8295 X0.0084 Y-1.3686 Z0.8859
N8300 X0.0036 Y-1.3705 Z0.8881
N8305 X-0.001 Y-1.3723 Z0.8908
N8310 X-0.0052 Y-1.374 Z0.894
N8315 X-0.0091 Y-1.3756 Z0.8977
N8320 X-0.0126 Y-1.377 Z0.9019
N8325 X-0.0156 Y-1.3782 Z0.9065
N8330 X-0.0181 Y-1.3792 Z0.9114
N8335 X-0.0201 Y-1.38 Z0.9166
N8340 X-0.0215 Y-1.3805 Z0.922
N8345 X-0.0224 Y-1.3809 Z0.9275
N8350 X-0.0227 Y-1.381 Z0.9331
N8355 G0 Z1.45
N8360 G1 X1.6964 Y-1.3078 F500.
N8365 G0 Z0.9831
N8370 G1 Z0.9331 F69.
N8375 X1.6967 Y-1.3079 Z0.9275
N8380 X1.6976 Y-1.3081 Z0.922
N8385 X1.6991 Y-1.3085 Z0.9166
N8390 X1.7012 Y-1.3091 Z0.9114
N8395 X1.7038 Y-1.3097 Z0.9065
N8400 X1.707 Y-1.3105 Z0.9019
N8405 X1.7106 Y-1.3115 Z0.8977
N8410 X1.7146 Y-1.3125 Z0.894
N8415 X1.7191 Y-1.3136 Z0.8908
N8420 X1.7238 Y-1.3149 Z0.8881
N8425 X1.7288 Y-1.3161 Z0.8859
N8430 X1.734 Y-1.3175 Z0.8844
N8435 X1.7394 Y-1.3188 Z0.8834
N8440 X1.7448 Y-1.3202 Z0.8831
N8445 G3 X2.017 Y-1.3594 I0.3167 J1.2366
N8450 G1 X2.0183
N8455 X2.018 Y-1.3591
N8460 X2.0176 Y-1.3588
N8465 X2.0172 Y-1.3586
N8470 X2.0129 Y-1.3581 Z0.8834
N8475 X2.0088 Y-1.3575 Z0.8843
N8480 X2.0048 Y-1.357 Z0.8858
N8485 X2.0045 Z0.8859
N8490 X2.0009 Y-1.3574 Z0.8879
N8495 X1.9976 Y-1.3579 Z0.8903
N8500 X1.9946 Y-1.3582 Z0.8931
N8505 X1.9921 Y-1.3586 Z0.8963
N8510 X1.9902 Y-1.3591 Z0.8995
N8515 X1.9887 Y-1.3596 Z0.903
N8520 X1.9876 Y-1.36 Z0.9066
N8525 X1.987 Y-1.3602 Z0.9103
N8530 X1.9868 Z0.914
N8535 G0 Z1.45
N8540 G1 X0.4436 Y-1.4518 F500.
N8545 G0 Z1.0081
N8550 G1 Z0.9581 F69.
N8555 X0.4433 Y-1.4517 Z0.9525
N8560 X0.4424 Y-1.4514 Z0.947
N8565 X0.4409 Y-1.4509 Z0.9416
N8570 X0.4389 Y-1.4502 Z0.9364
N8575 X0.4364 Y-1.4492 Z0.9315
N8580 X0.4333 Y-1.4482 Z0.9269
N8585 X0.4298 Y-1.4469 Z0.9227
N8590 X0.4258 Y-1.4455 Z0.919
N8595 X0.4215 Y-1.444 Z0.9158
N8600 X0.4169 Y-1.4424 Z0.9131
N8605 X0.412 Y-1.4406 Z0.9109
N8610 X0.4069 Y-1.4388 Z0.9094
N8615 X0.4017 Y-1.437 Z0.9084
N8620 X0.3964 Y-1.4351 Z0.9081
N8625 G3 X0.1288 Y-1.372 I-0.4253 J-1.2035
N8630 G2 X0.0045 Y-1.3362 I0.0092 J0.2657
N8635 X-0.0511 Y-1.2907 I0.1295 J0.2151
N8640 G1 X-0.0647 Y-1.2762
N8645 G2 X-0.1199 Y-1.1265 I0.2043 J0.1603
N8650 G1 X-0.1205 Y-1.1115
N8655 Y-0.1385
N8660 G2 X-0.1001 Y-0.0337 I0.2787 J0.0002
N8665 G1 X-0.0927 Y-0.0187
N8670 X-0.0925 Y-0.0182 Z0.9082
N8675 G2 X-0.0663 Y0.0552 Z0.9161 I0.5086 J-0.14
N8680 X0.0143 Y0.1836 I0.4824 J-0.2134
N8685 X0.045 Y0.2006 I0.0381 J-0.0324
N8690 G1 X0.6668 Y0.293
N8695 G2 X0.7011 Y0.2856 I0.0073 J-0.0495
N8700 X0.8172 Y0.1843 I-0.2851 J-0.4438
N8705 X0.862 Y0.1236 Z0.9084 I-0.4012 J-0.3425
N8710 G1 X0.8626 Y0.1228 Z0.9083
N8715 X0.8635 Y0.1223 Z0.9082
N8720 X0.8645 Y0.1221 Z0.9081
N8725 G2 X0.938 Y0.1185 I0.0159 J-0.4212
N8730 X1.1168 Y-0.0037 I-0.042 J-0.2533
N8735 G1 X1.1328 Y-0.0365
N8740 G2 X1.152 Y-0.1385 I-0.258 J-0.1012
N8745 G1 Y-1.1115
N8750 G2 X1.1467 Y-1.166 I-0.3158 J0.0033
N8755 G3 X1.1514 Y-1.1959 Z0.9112 I0.0494 J-0.0074
N8760 X1.1832 Y-1.2218 Z0.9155 I0.0447 J0.0224
N8765 G1 X1.1885 Y-1.2232 Z0.9161
N8770 X2.1208 Y-1.4704
N8775 G3 X2.1836 Y-1.424 I0.0128 J0.0483
N8780 X2.1355 Y-1.3721 Z0.9081 I-0.05 J0.0019
N8785 G2 X2.062 Y-1.3685 I-0.0159 J0.4212
N8790 X1.8832 Y-1.2463 I0.042 J0.2533
N8795 G1 X1.8672 Y-1.2135
N8800 G2 X1.848 Y-1.1115 I0.258 J0.1012
N8805 G1 Y-0.1385
N8810 G2 X1.8533 Y-0.084 I0.3158 J-0.0033
N8815 G1 X1.8534 Y-0.0835 Z0.9082
N8820 G2 X1.8586 Y-0.0058 Z0.9161 I0.528 J0.0039
N8825 X1.9222 Y0.181 I0.5228 J-0.0739
N8830 X1.9557 Y0.2053 I0.0435 J-0.0247
N8835 G1 X2.6614 Y0.3494
N8840 G2 X2.7017 Y0.3402 I0.01 J-0.049
N8845 X2.8349 Y0.191 I-0.3202 J-0.4198
N8850 X2.8687 Y0.1238 Z0.9084 I-0.4534 J-0.2706
N8855 G1 X2.8693 Y0.1229 Z0.9083
N8860 X2.8702 Y0.1223 Z0.9082
N8865 X2.8712 Y0.122 Z0.9081
N8870 G2 X2.9955 Y0.0862 I-0.0092 J-0.2657
N8875 X3.0511 Y0.0407 I-0.1295 J-0.2151
N8880 G1 X3.0647 Y0.0262
N8885 G2 X3.1199 Y-0.1235 I-0.2043 J-0.1603
N8890 G1 X3.1205 Y-0.1385
N8895 Y-1.1115
N8900 G2 X3.1001 Y-1.2163 I-0.2787 J-0.0002
N8905 G1 X3.0927 Y-1.2313
N8910 X3.0925 Y-1.2318 Z0.9082
N8915 G2 X3.069 Y-1.3061 Z0.9161 I-0.9876 J0.2718
N8920 X2.9885 Y-1.4781 I-0.964 J0.3462
N8925 X2.9458 Y-1.5028 I-0.0431 J0.0253
N8930 G1 X1.2741 Y-1.518
N8935 G2 X1.231 Y-1.4941 I-0.0005 J0.05
N8940 X1.146 Y-1.32 I0.874 J0.5342
N8945 X1.1225 Y-1.2497 Z0.9085 I0.9589 J0.36
N8950 G1 X1.122 Y-1.2487 Z0.9084
N8955 X1.1212 Y-1.248 Z0.9083
N8960 X1.1202 Y-1.2475 Z0.9082
N8965 X1.1192 Z0.9081
N8970 X1.1172 Y-1.2478
N8975 X1.1155 Y-1.2488
N8980 X1.1142 Y-1.2502
N8985 G3 X1.1318 Y-1.3187 Z0.9161 I0.043 J-0.0255
N8990 X1.2025 Y-1.297 I0.0255 J0.043
N8995 G1 X1.8005 Y-0.0317
N9000 G2 X1.8076 Y-0.0207 I0.0452 J-0.0214
N9005 X1.8499 Y-0.0032 Z0.9113 I0.0381 J-0.0324
N9010 G1 X1.8502 Y-0.0033 Z0.9112
N9015 G3 X1.8808 Y-0.0025 Z0.9081 I0.0118 J0.143
N9020 G1 X1.8828 Y-0.0022
N9025 X1.8845 Y-0.0012
N9030 X1.8858 Y0.0002
N9035 X1.8875 Y0.0041 Z0.9084
N9040 X1.8891 Y0.008 Z0.9093
N9045 X1.8907 Y0.0117 Z0.9108
N9050 X1.8913 Y0.0152 Z0.9126
N9055 X1.8918 Y0.0185 Z0.915
N9060 X1.8923 Y0.0214 Z0.9178
N9065 X1.8927 Y0.024 Z0.9209
N9070 Y0.0257 Z0.9234
N9075 Y0.0275 Z0.9271
N9080 X1.8926 Y0.0288 Z0.931
N9085 Y0.0296 Z0.935
N9090 Y0.0299 Z0.939
N9095 G0 Z1.45
N9100 G1 X0.4415 Y-1.4593 F500.
N9105 G0 Z1.0331
N9110 G1 Z0.9831 F69.
N9115 X0.4412 Y-1.4592 Z0.9775
N9120 X0.4403 Y-1.4588 Z0.972
N9125 X0.4389 Y-1.4583 Z0.9666
N9130 X0.4369 Y-1.4575 Z0.9614
N9135 X0.4343 Y-1.4565 Z0.9565
N9140 X0.4313 Y-1.4554 Z0.9519
N9145 X0.4278 Y-1.4541 Z0.9477
N9150 X0.4239 Y-1.4526 Z0.944
N9155 X0.4196 Y-1.4509 Z0.9408
N9160 X0.4151 Y-1.4492 Z0.9381
N9165 X0.4102 Y-1.4473 Z0.9359
N9170 X0.4052 Y-1.4454 Z0.9344
N9175 X0.4 Y-1.4434 Z0.9334
N9180 X0.3948 Y-1.4414 Z0.9331
N9185 G3 X0.1288 Y-1.3716 I-0.4553 J-1.1925
N9190 G2 X-0.0361 Y-1.2993 I0.0156 J0.2597
N9195 X-0.0777 Y-1.2463 I0.1901 J0.1921
N9200 G1 X-0.0924 Y-1.2163
N9205 G2 X-0.1065 Y-1.1714 I0.1737 J0.0793
N9210 G1 X-0.111 Y-1.1475
N9215 X-0.1121 Y-1.1265
N9220 X-0.1129 Y-1.1115
N9225 Y-0.1385
N9230 X-0.1121 Y-0.1235
N9235 X-0.111 Y-0.1025
N9240 X-0.1078 Y-0.0853
N9245 G0 Z1.45
N9250 G1 X0.5976 Y0.2167 F500.
N9255 G0 Z1.0331
N9260 G1 Z0.9831 F69.
N9265 X0.5979 Y0.2166 Z0.9775
N9270 X0.5988 Y0.2162 Z0.972
N9275 X0.6002 Y0.2156 Z0.9666
N9280 X0.6022 Y0.2148 Z0.9614
N9285 X0.6047 Y0.2138 Z0.9565
N9290 X0.6077 Y0.2126 Z0.9519
N9295 X0.6112 Y0.2111 Z0.9477
N9300 X0.615 Y0.2095 Z0.944
N9305 X0.6193 Y0.2078 Z0.9408
N9310 X0.6238 Y0.206 Z0.9381
N9315 X0.6286 Y0.204 Z0.9359
N9320 X0.6336 Y0.2019 Z0.9344
N9325 X0.6387 Y0.1998 Z0.9334
N9330 X0.6439 Y0.1977 Z0.9331
N9335 G3 X0.9081 Y0.1213 I0.4846 J1.1809
N9340 G1 X0.938 Y0.1171
N9345 G2 X1.088 Y0.027 I-0.0517 J-0.2559
N9350 G1 X1.1029 Y0.0061
N9355 G2 X1.1409 Y-0.0935 I-0.2185 J-0.1406
N9360 G1 X1.1428 Y-0.1085
N9365 X1.1436 Y-0.1235
N9370 X1.1444 Y-0.1385
N9375 Y-1.1115
N9380 G2 X1.1344 Y-1.1864 I-0.2903 J0.0005
N9385 G1 X1.1309 Y-1.1966
N9390 G3 X1.165 Y-1.2586 Z0.9411 I0.048 J-0.0139
N9395 G1 X1.1676 Y-1.2593
N9400 X2.072 Y-1.4693
N9405 G3 X2.1326 Y-1.4292 I0.0113 J0.0487
N9410 X2.0919 Y-1.3713 Z0.9331 I-0.0493 J0.0086
N9415 G1 X2.062 Y-1.3671
N9420 G2 X1.912 Y-1.277 I0.0517 J0.2559
N9425 G1 X1.8971 Y-1.2561
N9430 G2 X1.8591 Y-1.1565 I0.2185 J0.1406
N9435 G1 X1.8572 Y-1.1415
N9440 X1.8564 Y-1.1265
N9445 X1.8556 Y-1.1115
N9450 Y-0.1385
N9455 G2 X1.8656 Y-0.0636 I0.2903 J-0.0005
N9460 G1 X1.8691 Y-0.0534
N9465 X1.8692 Y-0.0529 Z0.9332
N9470 G2 X1.8846 Y0.0235 Z0.9411 I0.5271 J-0.0666
N9475 X1.9467 Y0.1636 I0.5117 J-0.143
N9480 X1.9803 Y0.1862 I0.0423 J-0.0266
N9485 G1 X2.6827 Y0.31
N9490 G2 X2.7221 Y0.3002 I0.0087 J-0.0492
N9495 X2.8297 Y0.1878 I-0.3258 J-0.4197
N9500 X2.8689 Y0.1232 Z0.9334 I-0.4334 J-0.3073
N9505 G1 X2.8695 Y0.1225 Z0.9333
N9510 X2.8703 Y0.1219 Z0.9332
N9515 X2.8712 Y0.1216 Z0.9331
N9520 G2 X3.0361 Y0.0493 I-0.0156 J-0.2596
N9525 X3.0777 Y-0.0037 I-0.1901 J-0.192
N9530 G1 X3.0924 Y-0.0337
N9535 G2 X3.1065 Y-0.0786 I-0.1737 J-0.0792
N9540 G1 X3.111 Y-0.1025
N9545 X3.1121 Y-0.1235
N9550 X3.1129 Y-0.1385
N9555 Y-1.1115
N9560 X3.1121 Y-1.1265
N9565 X3.111 Y-1.1475
N9570 X3.1078 Y-1.1647
N9575 X3.1075 Y-1.1684 Z0.9333
N9580 X3.1072 Y-1.1721 Z0.934
N9585 X3.1076 Y-1.1755 Z0.9351
N9590 X3.108 Y-1.1787 Z0.9365
N9595 X3.1084 Y-1.1817 Z0.9383
N9600 X3.1088 Y-1.1845 Z0.9404
N9605 X3.1097 Y-1.1871 Z0.9431
N9610 X3.1106 Y-1.1894 Z0.9461
N9615 X3.1113 Y-1.1913 Z0.9493
N9620 X3.1118 Y-1.1928 Z0.9528
N9625 X3.1123 Y-1.1938 Z0.9564
N9630 X3.1125 Y-1.1945 Z0.9602
N9635 X3.1126 Y-1.1947 Z0.964
N9640 G0 Z1.45
N9645 G1 X0.4938 Y-1.4275 F500.
N9650 G0 Z1.0581
N9655 G1 Z1.0081 F69.
N9660 X0.4935 Y-1.4274 Z1.0025
N9665 X0.4926 Y-1.4271 Z0.997
N9670 X0.4911 Y-1.4267 Z0.9916
N9675 X0.489 Y-1.4262 Z0.9864
N9680 X0.4864 Y-1.4255 Z0.9815
N9685 X0.4832 Y-1.4246 Z0.9769
N9690 X0.4796 Y-1.4237 Z0.9727
N9695 X0.4756 Y-1.4226 Z0.969
N9700 X0.4712 Y-1.4214 Z0.9658
N9705 X0.4664 Y-1.4201 Z0.9631
N9710 X0.4614 Y-1.4188 Z0.9609
N9715 X0.4562 Y-1.4174 Z0.9594
N9720 X0.4509 Y-1.4159 Z0.9584
N9725 X0.4455 Y-1.4145 Z0.9581
N9730 G3 X0.1738 Y-1.3721 I-0.3313 J-1.2327
N9735 G2 X0.0957 Y-1.3662 I-0.0105 J0.3772
N9740 X-0.0494 Y-1.2763 I0.0581 J0.2559
N9745 G1 X-0.066 Y-1.253
N9750 X-0.0701 Y-1.2463
N9755 X-0.0848 Y-1.2163
N9760 G2 X-0.1046 Y-1.1265 I0.2307 J0.098
N9765 G1 X-0.1053 Y-1.1115
N9770 Y-0.1385
N9775 G2 X-0.0961 Y-0.0659 I0.3007 J-0.0013
N9780 X-0.0661 Y0.003 I0.2825 J-0.0821
N9785 G1 X-0.0551 Y0.0181
N9790 X-0.0548 Y0.0185 Z0.9582
N9795 G2 X-0.0171 Y0.0868 Z0.9661 I0.4897 J-0.2261
N9800 X0.0866 Y0.2043 I0.452 J-0.2943
N9805 X0.1132 Y0.2158 I0.0323 J-0.0382
N9810 G1 X0.6526 Y0.2775
N9815 G2 X0.6811 Y0.2723 I0.0057 J-0.0497
N9820 X0.8102 Y0.1798 I-0.2462 J-0.4799
N9825 X0.8608 Y0.1233 Z0.9584 I-0.3754 J-0.3873
N9830 G1 X0.8618 Y0.1225 Z0.9582
N9835 X0.8631 Y0.1221 Z0.9581
N9840 G2 X0.9381 Y0.1157 I0.0075 J-0.3517
N9845 X1.0113 Y0.0863 I-0.0634 J-0.2638
N9850 G1 X1.0339 Y0.0711
N9855 G2 X1.0807 Y0.0262 I-0.1407 J-0.1931
N9860 G1 X1.1029 Y-0.0059
N9865 X1.1179 Y-0.0368
N9870 G2 X1.1368 Y-0.1385 I-0.2603 J-0.1011
N9875 G1 Y-1.1115
N9880 G2 X1.1177 Y-1.2131 I-0.2735 J-0.0013
N9885 G1 X1.1029 Y-1.2441
N9890 X1.091 Y-1.2612
N9895 G3 X1.106 Y-1.3303 Z0.9661 I0.0421 J-0.0271
N9900 X1.1264 Y-1.3379 I0.0271 J0.042
N9905 G1 X2.1277 Y-1.4716
N9910 G3 X2.1843 Y-1.4246 I0.0066 J0.0496
N9915 X2.1369 Y-1.3721 Z0.9581 I-0.0499 J0.0025
N9920 G2 X2.0619 Y-1.3657 I-0.0075 J0.3517
N9925 X1.9887 Y-1.3363 I0.0634 J0.2638
N9930 G1 X1.9661 Y-1.3211
N9935 G2 X1.9193 Y-1.2762 I0.1407 J0.1931
N9940 G1 X1.8971 Y-1.2441
N9945 X1.8821 Y-1.2132
N9950 G2 X1.8632 Y-1.1115 I0.2603 J0.1011
N9955 G1 Y-0.1385
N9960 G2 X1.8823 Y-0.0369 I0.2735 J0.0013
N9965 G1 X1.8971 Y-0.0059
N9970 X1.909 Y0.0112
N9975 X1.9092 Y0.0117 Z0.9582
N9980 G2 X1.9457 Y0.0805 Z0.9661 I0.4905 J-0.2159
N9985 X2.0464 Y0.1987 I0.454 J-0.2847
N9990 X2.0733 Y0.2108 I0.033 J-0.0376
N9995 G1 X2.6168 Y0.2771
N10000 G2 X2.6458 Y0.2719 I0.0061 J-0.0496
N10005 X2.7735 Y0.1799 I-0.246 J-0.4761
N10010 X2.8239 Y0.1233 Z0.9584 I-0.3738 J-0.3841
N10015 G1 X2.825 Y0.1225 Z0.9582
N10020 X2.8262 Y0.1221 Z0.9581
N10025 G2 X2.9043 Y0.1162 I0.0105 J-0.3772
N10030 X3.0494 Y0.0263 I-0.0581 J-0.2559
N10035 G1 X3.066 Y0.003
N10040 X3.0701 Y-0.0037
N10045 X3.0848 Y-0.0337
N10050 G2 X3.1046 Y-0.1235 I-0.2307 J-0.098
N10055 G1 X3.1053 Y-0.1385
N10060 Y-1.1115
N10065 G2 X3.0961 Y-1.1841 I-0.3007 J0.0013
N10070 X3.0661 Y-1.253 I-0.2825 J0.0821
N10075 G1 X3.0551 Y-1.2681
N10080 X3.0532 Y-1.2719 Z0.9584
N10085 X3.0513 Y-1.2757 Z0.9593
N10090 X3.0495 Y-1.2793 Z0.9608
N10095 X3.0487 Y-1.2828 Z0.9626
N10100 X3.048 Y-1.2861 Z0.965
N10105 X3.0474 Y-1.289 Z0.9678
N10110 X3.0468 Y-1.2915 Z0.9709
N10115 Y-1.2933 Z0.9737
N10120 X3.0467 Y-1.2948 Z0.9766
N10125 X3.0466 Y-1.2959 Z0.9797
N10130 X3.0467 Y-1.2967 Z0.9827
N10135 Y-1.2972 Z0.9859
N10140 Y-1.2974 Z0.989
N10145 G0 Z1.45
N10150 G1 X0.4927 Y-1.4331 F500.
N10155 G0 Z1.0831
N10160 G1 Z1.0331 F69.
N10165 X0.4924 Y-1.433 Z1.0275
N10170 X0.4915 Y-1.4328 Z1.022
N10175 X0.49 Y-1.4323 Z1.0166
N10180 X0.488 Y-1.4317 Z1.0114
N10185 X0.4854 Y-1.431 Z1.0065
N10190 X0.4823 Y-1.4301 Z1.0019
N10195 X0.4787 Y-1.4291 Z0.9977
N10200 X0.4746 Y-1.4279 Z0.994
N10205 X0.4703 Y-1.4266 Z0.9908
N10210 X0.4655 Y-1.4253 Z0.9881
N10215 X0.4606 Y-1.4239 Z0.9859
N10220 X0.4554 Y-1.4224 Z0.9844
N10225 X0.4501 Y-1.4208 Z0.9834
N10230 X0.4447 Y-1.4193 Z0.9831
N10235 G3 X0.1738 Y-1.3721 I-0.3531 J-1.2267
N10240 G2 X0.0988 Y-1.3641 I-0.0027 J0.3283
N10245 G1 X0.0689 Y-1.3545
N10250 G2 X0.0314 Y-1.3362 I0.1015 J0.2558
N10255 G1 X0.0014 Y-1.3157
N10260 X-0.0023 Y-1.3127
N10265 X-0.0061 Y-1.3092
N10270 X-0.0306 Y-1.2849
N10275 X-0.0335 Y-1.2818
N10280 X-0.036 Y-1.2786
N10285 X-0.0585 Y-1.2463
N10290 G2 X-0.0933 Y-1.1265 I0.2231 J0.1297
N10295 G1 X-0.094 Y-1.1115
N10300 Y-0.1385
N10305 G2 X-0.08 Y-0.0514 I0.2774 J0.0002
N10310 G1 X-0.0798 Y-0.0509 Z0.9832
N10315 G2 X-0.064 Y0.0254 Z0.9911 I0.4981 J-0.0631
N10320 X0.0185 Y0.1897 I0.4824 J-0.1394
N10325 X0.0492 Y0.2086 I0.0398 J-0.0302
N10330 G1 X0.647 Y0.3196
N10335 G2 X0.6825 Y0.313 I0.0091 J-0.0492
N10340 X0.8201 Y0.1872 I-0.2641 J-0.427
N10345 X0.8606 Y0.1237 Z0.9834 I-0.4017 J-0.3013
N10350 G1 X0.8612 Y0.1229 Z0.9833
N10355 X0.8621 Y0.1224 Z0.9832
N10360 X0.8631 Y0.1221 Z0.9831
N10365 G2 X0.9831 Y0.0958 I0.0024 J-0.2755
N10370 X1.058 Y0.0396 I-0.1333 J-0.2557
N10375 G1 X1.0694 Y0.0262
N10380 X1.09 Y-0.0037
N10385 G2 X1.1248 Y-0.1235 I-0.2187 J-0.1283
N10390 G1 X1.1255 Y-0.1385
N10395 Y-1.1115
N10400 G2 X1.1117 Y-1.1984 I-0.2755 J-0.0007
N10405 G1 X1.1105 Y-1.2034 Z0.9836
N10410 X1.1098 Y-1.2084 Z0.9841
N10415 X1.1096 Y-1.2135 Z0.9847
N10420 X1.1099 Y-1.2186 Z0.9852
N10425 X1.1108 Y-1.2237 Z0.9857
N10430 X1.1122 Y-1.2286 Z0.9862
N10435 G3 X1.1455 Y-1.2603 Z0.9911 I0.0473 J0.0163
N10440 G1 X1.1489 Y-1.2612
N10445 X2.1228 Y-1.4709
N10450 G3 X2.1832 Y-1.4255 I0.0105 J0.0489
N10455 X2.1369 Y-1.3721 Z0.9831 I-0.0499 J0.0035
N10460 G2 X2.0169 Y-1.3458 I-0.0024 J0.2755
N10465 X1.942 Y-1.2896 I0.1333 J0.2557
N10470 G1 X1.9306 Y-1.2762
N10475 X1.91 Y-1.2463
N10480 G2 X1.8752 Y-1.1265 I0.2187 J0.1283
N10485 G1 X1.8745 Y-1.1115
N10490 Y-0.1385
N10495 G2 X1.8883 Y-0.0516 I0.2755 J0.0007
N10500 G1 X1.8886 Y-0.0512 Z0.9832
N10505 G2 X1.9044 Y0.0251 Z0.9911 I0.4956 J-0.0628
N10510 X1.9864 Y0.1882 I0.4799 J-0.1391
N10515 X2.0171 Y0.2071 I0.0398 J-0.0302
N10520 G1 X2.6106 Y0.3182
N10525 G2 X2.646 Y0.3116 I0.0092 J-0.0491
N10530 X2.783 Y0.1871 I-0.2617 J-0.4256
N10535 X2.8237 Y0.1237 Z0.9834 I-0.3987 J-0.3011
N10540 G1 X2.8244 Y0.1229 Z0.9833
N10545 X2.8252 Y0.1224 Z0.9832
N10550 X2.8262 Y0.1221 Z0.9831
N10555 G2 X2.9012 Y0.1141 I0.0027 J-0.3283
N10560 G1 X2.9311 Y0.1045
N10565 G2 X2.9686 Y0.0862 I-0.1015 J-0.2558
N10570 G1 X2.9986 Y0.0657
N10575 X3.0023 Y0.0627
N10580 X3.0061 Y0.0592
N10585 X3.0306 Y0.0349
N10590 X3.0335 Y0.0318
N10595 X3.036 Y0.0286
N10600 X3.0585 Y-0.0037
N10605 G2 X3.0933 Y-0.1235 I-0.2231 J-0.1297
N10610 G1 X3.094 Y-0.1385
N10615 Y-1.1115
N10620 G2 X3.08 Y-1.1986 I-0.2774 J-0.0001
N10625 G1 X3.0798 Y-1.1991 Z0.9832
N10630 G2 X3.067 Y-1.276 Z0.9911 I-0.9959 J0.1261
N10635 X3.0132 Y-1.4525 I-0.9831 J0.2031
N10640 X2.9682 Y-1.4836 I-0.0463 J0.0189
N10645 G1 X1.2219 Y-1.5284
N10650 G2 X1.1753 Y-1.4997 I-0.0013 J0.05
N10655 X1.1115 Y-1.3221 I0.9086 J0.4268
N10660 X1.0958 Y-1.25 Z0.9836 I0.9724 J0.2492
N10665 G1 X1.0954 Y-1.2489 Z0.9835
N10670 X1.0946 Y-1.2481 Z0.9833
N10675 X1.0936 Y-1.2476 Z0.9832
N10680 X1.0924 Y-1.2475 Z0.9831
N10685 X1.0905 Y-1.2478
N10690 X1.0887 Y-1.2487
N10695 X1.0874 Y-1.2501
N10700 G3 X1.1025 Y-1.3192 Z0.9911 I0.0421 J-0.027
N10705 X1.1739 Y-1.3 I0.027 J0.0421
N10710 G1 X1.8277 Y-0.03
N10715 G2 X1.8343 Y-0.0203 I0.0445 J-0.0229
N10720 X1.8767 Y-0.0031 Z0.9863 I0.0379 J-0.0326
N10725 G1 X1.8769 Z0.9862
N10730 G3 X1.9076 Y-0.0025 Z0.9831 I0.0126 J0.143
N10735 G1 X1.9095 Y-0.0022
N10740 X1.9113 Y-0.0013
N10745 X1.9126 Y0.0001
N10750 X1.9145 Y0.004 Z0.9834
N10755 X1.9163 Y0.0078 Z0.9843
N10760 X1.918 Y0.0114 Z0.9858
N10765 X1.9187 Y0.015 Z0.9876
N10770 X1.9193 Y0.0182 Z0.99
N10775 X1.9199 Y0.0211 Z0.9928
N10780 X1.9204 Y0.0237 Z0.9959
N10785 X1.9205 Y0.0256 Z0.9988
N10790 Y0.0271 Z1.002
N10795 Y0.0284 Z1.0059
N10800 Y0.0293 Z1.0099
N10805 Y0.0295 Z1.014
N10810 G0 Z1.45
N10815 G1 X0.4905 Y-1.4437 F500.
N10820 G0 Z1.1081
N10825 G1 Z1.0581 F69.
N10830 X0.4902 Y-1.4436 Z1.0525
N10835 X0.4893 Y-1.4434 Z1.047
N10840 X0.4878 Y-1.4429 Z1.0416
N10845 X0.4858 Y-1.4422 Z1.0364
N10850 X0.4832 Y-1.4414 Z1.0315
N10855 X0.4801 Y-1.4404 Z1.0269
N10860 X0.4766 Y-1.4392 Z1.0227
N10865 X0.4726 Y-1.4379 Z1.019
N10870 X0.4682 Y-1.4365 Z1.0158
N10875 X0.4636 Y-1.435 Z1.0131
N10880 X0.4586 Y-1.4334 Z1.0109
N10885 X0.4535 Y-1.4317 Z1.0094
N10890 X0.4483 Y-1.43 Z1.0084
N10895 X0.4429 Y-1.4283 Z1.0081
N10900 G3 X0.1738 Y-1.372 I-0.3943 J-1.2141
N10905 G2 X0.0388 Y-1.3329 I0.0044 J0.2675
N10910 G1 X0.0228 Y-1.3211
N10915 X0.0089 Y-1.3108
N10920 X0.0037 Y-1.3062
N10925 X-0.0211 Y-1.2802
N10930 G2 X-0.0799 Y-1.1265 I0.1963 J0.1633
N10935 G1 X-0.0806 Y-1.1115
N10940 Y-0.1385
N10945 G2 X-0.0601 Y-0.0337 I0.2768 J0.0002
N10950 G1 X-0.0527 Y-0.0187
N10955 X-0.0526 Y-0.0182 Z1.0082
N10960 G2 X-0.0262 Y0.0551 Z1.0161 I0.4738 J-0.1292
N10965 X0.0755 Y0.2013 I0.4473 J-0.2025
N10970 X0.1028 Y0.2152 I0.0352 J-0.0355
N10975 G1 X0.6101 Y0.2966
N10980 G2 X0.6404 Y0.292 I0.0079 J-0.0494
N10985 X0.7843 Y0.1831 I-0.2192 J-0.4394
N10990 X0.8307 Y0.1235 Z1.0084 I-0.3631 J-0.3306
N10995 G1 X0.8314 Y0.1228 Z1.0083
N11000 X0.8322 Y0.1223 Z1.0082
N11005 X0.8331 Y0.1221 Z1.0081
N11010 G2 X0.9081 Y0.1165 I0.0115 J-0.3463
N11015 X1.0768 Y-0.0037 I-0.0518 J-0.2514
N11020 G1 X1.0916 Y-0.0337
N11025 G2 X1.1113 Y-0.1235 I-0.2228 J-0.0961
N11030 G1 X1.1121 Y-0.1385
N11035 Y-1.1115
N11040 G2 X1.0978 Y-1.2014 I-0.2956 J0.0011
N11045 G1 X1.0916 Y-1.2163
N11050 X1.0842 Y-1.2313
N11055 G3 X1.1093 Y-1.2974 Z1.0161 I0.0456 J-0.0205
N11060 X1.1217 Y-1.3011 I0.0205 J0.0456
N11065 G1 X2.1565 Y-1.4714
N11070 G3 X2.2145 Y-1.4243 I0.0081 J0.0493
N11075 X2.1669 Y-1.3721 Z1.0081 I-0.05 J0.0022
N11080 G2 X2.0919 Y-1.3665 I-0.0115 J0.3463
N11085 X1.9232 Y-1.2463 I0.0518 J0.2514
N11090 G1 X1.9084 Y-1.2163
N11095 G2 X1.8887 Y-1.1265 I0.2228 J0.0961
N11100 G1 X1.8879 Y-1.1115
N11105 Y-0.1385
N11110 G2 X1.9022 Y-0.0486 I0.2956 J-0.0011
N11115 G1 X1.9084 Y-0.0337
N11120 X1.9158 Y-0.0187
N11125 X1.9159 Y-0.0182 Z1.0082
N11130 G2 X1.9421 Y0.0552 Z1.0161 I0.4856 J-0.132
N11135 X2.0172 Y0.1746 I0.4594 J-0.2054
N11140 X2.0477 Y0.1918 I0.0382 J-0.0323
N11145 G1 X2.6345 Y0.2833
N11150 G2 X2.6687 Y0.2763 I0.0077 J-0.0494
N11155 X2.7782 Y0.1836 I-0.2672 J-0.4265
N11160 X2.824 Y0.1234 Z1.0084 I-0.3766 J-0.3339
N11165 G1 X2.8249 Y0.1225 Z1.0082
N11170 X2.8262 Y0.122 Z1.0081
N11175 G2 X2.9612 Y0.0829 I-0.0044 J-0.2675
N11180 G1 X2.9772 Y0.0711
N11185 X2.9911 Y0.0608
N11190 X2.9963 Y0.0562
N11195 X3.0211 Y0.0302
N11200 G2 X3.0799 Y-0.1235 I-0.1963 J-0.1633
N11205 G1 X3.0806 Y-0.1385
N11210 Y-1.1115
N11215 G2 X3.0601 Y-1.2163 I-0.2768 J-0.0002
N11220 G1 X3.0527 Y-1.2313
N11225 X3.0515 Y-1.2354 Z1.0084
N11230 X3.0503 Y-1.2394 Z1.0093
N11235 X3.0491 Y-1.2432 Z1.0108
N11240 X3.0488 Y-1.2463 Z1.0123
N11245 X3.0486 Y-1.2492 Z1.0143
N11250 X3.0483 Y-1.2518 Z1.0165
N11255 X3.0486 Y-1.2547 Z1.0196
N11260 X3.0488 Y-1.2571 Z1.023
N11265 X3.049 Y-1.259 Z1.0267
N11270 X3.0492 Y-1.2604 Z1.0307
N11275 Y-1.2612 Z1.0348
N11280 X3.0493 Y-1.2615 Z1.039
N11285 G0 Z1.45
N11290 G1 X0.5378 Y-1.4247 F500.
N11295 G0 Z1.1331
N11300 G1 Z1.0831 F69.
N11305 X0.5375 Z1.0775
N11310 X0.5366 Y-1.4244 Z1.072
N11315 X0.5351 Y-1.424 Z1.0666
N11320 X0.533 Y-1.4235 Z1.0614
N11325 X0.5304 Y-1.4228 Z1.0565
N11330 X0.5273 Y-1.422 Z1.0519
N11335 X0.5236 Y-1.4211 Z1.0477
N11340 X0.5196 Y-1.42 Z1.044
N11345 X0.5152 Y-1.4189 Z1.0408
N11350 X0.5104 Y-1.4176 Z1.0381
N11355 X0.5054 Y-1.4163 Z1.0359
N11360 X0.5002 Y-1.415 Z1.0344
N11365 X0.4948 Y-1.4136 Z1.0334
N11370 X0.4894 Y-1.4122 Z1.0331
N11375 G3 X0.2173 Y-1.3721 I-0.3209 J-1.2355
N11380 G2 X0.1438 Y-1.3678 I-0.0143 J0.3865
N11385 X0.0689 Y-1.3421 I0.0488 J0.2639
N11390 G1 X0.0389 Y-1.3238
N11395 G2 X-0.0319 Y-1.2462 I0.1526 J0.2103
N11400 G1 X-0.0467 Y-1.2163
N11405 G2 X-0.0673 Y-1.1115 I0.2535 J0.1041
N11410 G1 Y-0.1385
N11415 G2 X-0.0468 Y-0.0337 I0.2751 J0.0006
N11420 G1 X-0.0394 Y-0.0187
N11425 X-0.0392 Y-0.0182 Z1.0332
N11430 G2 X-0.0128 Y0.0551 Z1.0411 I0.4672 J-0.127
N11435 X0.0869 Y0.1984 I0.4408 J-0.2003
N11440 X0.1141 Y0.2122 I0.0352 J-0.0355
N11445 G1 X0.6123 Y0.2934
N11450 G2 X0.6425 Y0.2889 I0.008 J-0.0493
N11455 X0.784 Y0.1829 I-0.2145 J-0.434
N11460 X0.8308 Y0.1235 Z1.0334 I-0.356 J-0.3281
N11465 G1 X0.8314 Y0.1228 Z1.0333
N11470 X0.8322 Y0.1223 Z1.0332
N11475 X0.8331 Y0.1221 Z1.0331
N11480 G2 X0.9081 Y0.1133 I0.0046 J-0.2851
N11485 X0.968 Y0.0893 I-0.0687 J-0.2579
N11490 G1 X0.998 Y0.0697
N11495 G2 X1.0426 Y0.0263 I-0.1537 J-0.2022
N11500 G1 X1.0633 Y-0.0037
N11505 G2 X1.0988 Y-0.1385 I-0.2327 J-0.1333
N11510 G1 Y-1.1115
N11515 G2 X1.0632 Y-1.2462 I-0.2669 J-0.0016
N11520 G1 X1.0529 Y-1.2612
N11525 G3 X1.0678 Y-1.3303 Z1.0411 I0.042 J-0.0271
N11530 X1.0887 Y-1.3379 I0.0271 J0.042
N11535 G1 X2.1571 Y-1.4716
N11540 G3 X2.2132 Y-1.4255 I0.0062 J0.0496
N11545 X2.1669 Y-1.3721 Z1.0331 I-0.0499 J0.0035
N11550 G2 X2.0919 Y-1.3633 I-0.0046 J0.2851
N11555 X2.032 Y-1.3393 I0.0687 J0.2579
N11560 G1 X2.002 Y-1.3197
N11565 G2 X1.9574 Y-1.2763 I0.1537 J0.2022
N11570 G1 X1.9367 Y-1.2463
N11575 G2 X1.9012 Y-1.1115 I0.2327 J0.1333
N11580 G1 Y-0.1385
N11585 G2 X1.9368 Y-0.0038 I0.2669 J0.0016
N11590 G1 X1.9471 Y0.0112
N11595 X1.9473 Y0.0117 Z1.0332
N11600 G2 X1.9843 Y0.0803 Z1.0411 I0.4506 J-0.1986
N11605 X2.107 Y0.2104 I0.4136 J-0.2672
N11610 X2.1299 Y0.2196 I0.0295 J-0.0403
N11615 G1 X2.5495 Y0.2758
N11620 G2 X2.574 Y0.2729 I0.0066 J-0.0496
N11625 X2.7282 Y0.1783 I-0.1761 J-0.4599
N11630 X2.7804 Y0.1233 Z1.0334 I-0.3303 J-0.3652
N11635 G1 X2.7814 Y0.1224 Z1.0332
N11640 X2.7827 Y0.1221 Z1.0331
N11645 G2 X2.8562 Y0.1178 I0.0143 J-0.3865
N11650 X2.9311 Y0.0921 I-0.0488 J-0.2639
N11655 G1 X2.9611 Y0.0738
N11660 G2 X3.0319 Y-0.0038 I-0.1526 J-0.2103
N11665 G1 X3.0467 Y-0.0337
N11670 G2 X3.0673 Y-0.1385 I-0.2535 J-0.1041
N11675 G1 Y-1.1115
N11680 G2 X3.0468 Y-1.2163 I-0.2751 J-0.0006
N11685 G1 X3.0394 Y-1.2313
N11690 X3.0381 Y-1.2354 Z1.0334
N11695 X3.0369 Y-1.2394 Z1.0343
N11700 X3.0357 Y-1.2432 Z1.0358
N11705 X3.0354 Y-1.2463 Z1.0373
N11710 X3.0352 Y-1.2492 Z1.0392
N11715 X3.035 Y-1.2518 Z1.0414
N11720 X3.0352 Y-1.2547 Z1.0445
N11725 X3.0355 Y-1.2571 Z1.048
N11730 X3.0357 Y-1.259 Z1.0517
N11735 X3.0358 Y-1.2604 Z1.0557
N11740 X3.0359 Y-1.2613 Z1.0598
N11745 Y-1.2615 Z1.064
N11750 G0 Z1.45
N11755 G1 X0.5383 Y-1.4299 F500.
N11760 G0 Z1.1581
N11765 G1 Z1.1081 F69.
N11770 X0.538 Y-1.4298 Z1.1025
N11775 X0.5371 Y-1.4296 Z1.097
N11780 X0.5356 Y-1.4291 Z1.0916
N11785 X0.5335 Y-1.4286 Z1.0864
N11790 X0.5309 Y-1.4278 Z1.0815
N11795 X0.5278 Y-1.427 Z1.0769
N11800 X0.5242 Y-1.426 Z1.0727
N11805 X0.5201 Y-1.4249 Z1.069
N11810 X0.5157 Y-1.4236 Z1.0658
N11815 X0.511 Y-1.4223 Z1.0631
N11820 X0.506 Y-1.421 Z1.0609
N11825 X0.5008 Y-1.4195 Z1.0594
N11830 X0.4955 Y-1.418 Z1.0584
N11835 X0.4901 Y-1.4165 Z1.0581
N11840 G3 X0.2187 Y-1.3721 I-0.3407 J-1.2302
N11845 G2 X0.107 Y-1.351 I-0.0053 J0.2781
N11850 X0.0539 Y-1.3192 I0.0874 J0.2062
N11855 X0.009 Y-1.2765 I0.1189 J0.1701
N11860 G1 X-0.012 Y-1.2463
N11865 G2 X-0.0468 Y-1.1265 I0.221 J0.1292
N11870 G1 X-0.0476 Y-1.1115
N11875 Y-0.1385
N11880 G2 X-0.0342 Y-0.0534 I0.2779 J0.
N11885 G1 X-0.034 Y-0.053 Z1.0582
N11890 G2 X-0.0174 Y0.0231 Z1.0661 I0.4416 J-0.0562
N11895 X0.0781 Y0.1901 I0.425 J-0.1323
N11900 X0.1046 Y0.2054 I0.037 J-0.0336
N11905 G1 X0.5545 Y0.3021
N11910 G2 X0.5849 Y0.2991 I0.0105 J-0.0489
N11915 X0.7423 Y0.1843 I-0.1773 J-0.4083
N11920 X0.787 Y0.1236 Z1.0584 I-0.3347 J-0.2935
N11925 G1 X0.7877 Y0.1228 Z1.0583
N11930 X0.7886 Y0.1223 Z1.0582
N11935 X0.7895 Y0.1221 Z1.0581
N11940 X0.8181 Y0.122
N11945 G2 X0.9946 Y0.0561 I0.0027 J-0.2618
N11950 G1 X1.013 Y0.037
N11955 X1.023 Y0.0262
N11960 G2 X1.0784 Y-0.1235 I-0.2026 J-0.1601
N11965 G1 X1.079 Y-0.1385
N11970 Y-1.1115
N11975 G2 X1.0609 Y-1.2103 I-0.2743 J-0.0005
N11980 G3 X1.0602 Y-1.2405 Z1.0612 I0.0472 J-0.016
N11985 X1.092 Y-1.2736 Z1.0661 I0.0479 J0.0142
N11990 G1 X1.0956 Y-1.2747
N11995 X1.0994 Y-1.2755
N12000 X2.1998 Y-1.4713
N12005 G3 X2.2585 Y-1.4239 I0.0088 J0.0492
N12010 X2.2105 Y-1.3721 Z1.0581 I-0.05 J0.0019
N12015 G1 X2.1819 Y-1.372
N12020 G2 X2.0054 Y-1.3061 I-0.0027 J0.2618
N12025 G1 X1.987 Y-1.287
N12030 X1.977 Y-1.2762
N12035 G2 X1.9216 Y-1.1265 I0.2026 J0.1601
N12040 G1 X1.921 Y-1.1115
N12045 Y-0.1385
N12050 G2 X1.9391 Y-0.0397 I0.2743 J0.0005
N12055 G1 X1.9394 Y-0.0393 Z1.0582
N12060 G2 X1.959 Y0.0361 Z1.0661 I0.4506 J-0.0774
N12065 X2.0384 Y0.1756 I0.4309 J-0.1528
N12070 X2.0673 Y0.1927 I0.0384 J-0.032
N12075 G1 X2.5734 Y0.2909
N12080 G2 X2.6066 Y0.2858 I0.0095 J-0.0491
N12085 X2.734 Y0.1843 I-0.2167 J-0.4025
N12090 X2.7788 Y0.1236 Z1.0584 I-0.3441 J-0.301
N12095 G1 X2.7795 Y0.1228 Z1.0583
N12100 X2.7803 Y0.1223 Z1.0582
N12105 X2.7813 Y0.1221 Z1.0581
N12110 G2 X2.893 Y0.101 I0.0053 J-0.2781
N12115 X2.9461 Y0.0692 I-0.0874 J-0.2062
N12120 X2.991 Y0.0265 I-0.1189 J-0.1701
N12125 G1 X3.012 Y-0.0037
N12130 G2 X3.0468 Y-0.1235 I-0.221 J-0.1292
N12135 G1 X3.0476 Y-0.1385
N12140 Y-1.1115
N12145 G2 X3.0342 Y-1.1966 I-0.2779 J0.
N12150 G1 X3.0335 Y-1.2008 Z1.0584
N12155 X3.0328 Y-1.2049 Z1.0593
N12160 X3.0321 Y-1.2088 Z1.0608
N12165 Y-1.2105 Z1.0615
N12170 X3.0326 Y-1.2142 Z1.0638
N12175 X3.033 Y-1.2175 Z1.0666
N12180 X3.0333 Y-1.2205 Z1.0698
N12185 X3.0336 Y-1.2229 Z1.0734
N12190 X3.0342 Y-1.2246 Z1.0771
N12195 X3.0346 Y-1.2259 Z1.0809
N12200 X3.0348 Y-1.2267 Z1.0849
N12205 X3.0349 Y-1.2269 Z1.089
N12210 G0 Z1.45
N12215 G1 X0.5683 Y-1.4296 F500.
N12220 G0 Z1.1831
N12225 G1 Z1.1331 F69.
N12230 X0.568 Y-1.4295 Z1.1275
N12235 X0.5671 Y-1.4292 Z1.122
N12240 X0.5656 Y-1.4288 Z1.1166
N12245 X0.5636 Y-1.4282 Z1.1114
N12250 X0.5609 Y-1.4275 Z1.1065
N12255 X0.5578 Y-1.4267 Z1.1019
N12260 X0.5542 Y-1.4257 Z1.0977
N12265 X0.5502 Y-1.4246 Z1.094
N12270 X0.5458 Y-1.4233 Z1.0908
N12275 X0.541 Y-1.422 Z1.0881
N12280 X0.536 Y-1.4207 Z1.0859
N12285 X0.5308 Y-1.4192 Z1.0844
N12290 X0.5255 Y-1.4178 Z1.0834
N12295 X0.5201 Y-1.4163 Z1.0831
N12300 G3 X0.2487 Y-1.3721 I-0.3394 J-1.2305
N12305 G2 X0.1748 Y-1.3661 I-0.0071 J0.3671
N12310 G1 X0.1438 Y-1.3574
N12315 G2 X0.0576 Y-1.3063 I0.0953 J0.2591
N12320 X0.0084 Y-1.2463 I0.1848 J0.2018
N12325 G1 X-0.0064 Y-1.2163
N12330 G2 X-0.0264 Y-1.1265 I0.2329 J0.0988
N12335 G1 X-0.027 Y-1.1115
N12340 Y-0.1385
N12345 G2 X-0.017 Y-0.0636 I0.2893 J-0.0005
N12350 G1 X-0.0129 Y-0.0514
N12355 X-0.0128 Y-0.0509 Z1.0832
N12360 G2 X0.004 Y0.0252 Z1.0911 I0.4303 J-0.0547
N12365 X0.0964 Y0.186 I0.4136 J-0.1308
N12370 X0.1228 Y0.2012 I0.037 J-0.0336
N12375 G1 X0.5574 Y0.2962
N12380 G2 X0.5877 Y0.2933 I0.0107 J-0.0488
N12385 X0.7404 Y0.1839 I-0.1702 J-0.399
N12390 X0.7858 Y0.1236 Z1.0834 I-0.3229 J-0.2896
N12395 G1 X0.7864 Y0.1228 Z1.0833
N12400 X0.7872 Y0.1223 Z1.0832
N12405 X0.7882 Y0.1221 Z1.0831
N12410 G2 X0.8631 Y0.1146 I0.004 J-0.3366
N12415 X0.923 Y0.0919 I-0.0715 J-0.2788
N12420 X0.9681 Y0.0617 I-0.218 J-0.3737
N12425 G1 X0.9891 Y0.0412
N12430 X0.998 Y0.0316
N12435 X1.0021 Y0.0262
N12440 X1.023 Y-0.0037
N12445 G2 X1.0585 Y-0.1385 I-0.2294 J-0.1326
N12450 G1 Y-1.1115
N12455 X1.0581 Y-1.1265
N12460 G3 X1.0951 Y-1.1744 Z1.0897 I0.05 J0.0004
N12465 G1 X1.1082 Y-1.1779 Z1.0911
N12470 X2.1957 Y-1.4703
N12475 G3 X2.2586 Y-1.4251 I0.013 J0.0483
N12480 X2.2118 Y-1.3721 Z1.0831 I-0.0499 J0.0031
N12485 G2 X2.1369 Y-1.3646 I-0.004 J0.3366
N12490 X2.077 Y-1.3419 I0.0715 J0.2788
N12495 X2.0319 Y-1.3117 I0.2181 J0.3737
N12500 G1 X2.0109 Y-1.2912
N12505 X2.002 Y-1.2816
N12510 X1.9979 Y-1.2762
N12515 X1.977 Y-1.2463
N12520 G2 X1.9415 Y-1.1115 I0.2294 J0.1326
N12525 G1 Y-0.1385
N12530 X1.9419 Y-0.1235
N12535 G3 X1.9324 Y-0.0946 I-0.05 J-0.0004
N12540 G1 X1.9291 Y-0.09 Z1.0834
N12545 X1.9258 Y-0.0856 Z1.0844
N12550 X1.9227 Y-0.0812 Z1.0859
N12555 X1.9196 Y-0.077 Z1.0881
N12560 X1.9168 Y-0.073 Z1.0908
N12565 X1.9141 Y-0.0693 Z1.094
N12570 X1.9116 Y-0.0659 Z1.0977
N12575 X1.9094 Y-0.0629 Z1.1019
N12580 X1.9075 Y-0.0603 Z1.1065
N12585 X1.906 Y-0.0581 Z1.1114
N12590 X1.9047 Y-0.0564 Z1.1166
N12595 X1.9038 Y-0.0551 Z1.122
N12600 X1.9032 Y-0.0543 Z1.1275
N12605 X1.903 Y-0.0541 Z1.1331
N12610 G0 Z1.45
N12615 G1 X2.4317 Y0.1796 F500.
N12620 G0 Z1.1831
N12625 G1 Z1.1331 F69.
N12630 X2.432 Y0.1795 Z1.1275
N12635 X2.4329 Y0.1792 Z1.122
N12640 X2.4344 Y0.1788 Z1.1166
N12645 X2.4364 Y0.1782 Z1.1114
N12650 X2.4391 Y0.1775 Z1.1065
N12655 X2.4422 Y0.1767 Z1.1019
N12660 X2.4458 Y0.1757 Z1.0977
N12665 X2.4498 Y0.1746 Z1.094
N12670 X2.4542 Y0.1733 Z1.0908
N12675 X2.459 Y0.172 Z1.0881
N12680 X2.464 Y0.1707 Z1.0859
N12685 X2.4692 Y0.1692 Z1.0844
N12690 X2.4745 Y0.1678 Z1.0834
N12695 X2.4799 Y0.1663 Z1.0831
N12700 G3 X2.7513 Y0.1221 I0.3394 J1.2305
N12705 G2 X2.8252 Y0.1161 I0.0071 J-0.3671
N12710 G1 X2.8562 Y0.1074
N12715 G2 X2.9424 Y0.0563 I-0.0953 J-0.2591
N12720 X2.9916 Y-0.0037 I-0.1848 J-0.2018
N12725 G1 X3.0064 Y-0.0337
N12730 G2 X3.0264 Y-0.1235 I-0.2329 J-0.0988
N12735 G1 X3.027 Y-0.1385
N12740 Y-1.1115
N12745 G2 X3.017 Y-1.1864 I-0.2893 J0.0005
N12750 G1 X3.0129 Y-1.1986
N12755 G3 X3.0194 Y-1.2405 I0.048 J-0.014
N12760 G1 X3.0334 Y-1.2613
N12765 G2 X2.9931 Y-1.2683 I-0.0186 J-0.0125
N12770 G3 X2.9975 Y-1.2377 I-0.139 J0.0356
N12775 G1 Y-1.2345
N12780 G3 X2.994 Y-1.2647 I0.0456 J-0.0205
N12785 G1 X2.9951 Y-1.2702 Z1.0834
N12790 X2.9962 Y-1.2756 Z1.0844
N12795 X2.9972 Y-1.2809 Z1.0859
N12800 X2.9982 Y-1.286 Z1.0881
N12805 X2.9992 Y-1.2908 Z1.0908
N12810 X3.0001 Y-1.2953 Z1.094
N12815 X3.0009 Y-1.2994 Z1.0977
N12820 X3.0016 Y-1.303 Z1.1019
N12825 X3.0023 Y-1.3062 Z1.1065
N12830 X3.0028 Y-1.3089 Z1.1114
N12835 X3.0032 Y-1.311 Z1.1166
N12840 X3.0035 Y-1.3125 Z1.122
N12845 X3.0037 Y-1.3134 Z1.1275
N12850 Y-1.3137 Z1.1331
N12855 G0 Z1.45
N12860 G1 X0.0193 Y0.0668 F500.
N12865 G0 Z1.1831
N12870 G1 Z1.1331 F69.
N12875 X0.0192 Y0.0665 Z1.1275
N12880 X0.019 Y0.0655 Z1.122
N12885 X0.0186 Y0.064 Z1.1166
N12890 X0.0181 Y0.062 Z1.1114
N12895 X0.0174 Y0.0593 Z1.1065
N12900 X0.0166 Y0.0562 Z1.1019
N12905 X0.0157 Y0.0526 Z1.0977
N12910 X0.0146 Y0.0485 Z1.094
N12915 X0.0135 Y0.0441 Z1.0908
N12920 X0.0123 Y0.0393 Z1.0881
N12925 X0.011 Y0.0343 Z1.0859
N12930 X0.0097 Y0.0291 Z1.0844
N12935 X0.0083 Y0.0237 Z1.0834
N12940 X0.0069 Y0.0183 Z1.0831
N12945 G3 X0.0025 Y-0.0123 I0.139 J-0.0356
N12950 G1 Y-0.0155
N12955 X0.0038 Y-0.0115 Z1.0834
N12960 X0.005 Y-0.0075 Z1.0843
N12965 X0.0062 Y-0.0036 Z1.0858
N12970 X0.0064 Y-0.0005 Z1.0873
N12975 X0.0067 Y0.0023 Z1.0892
N12980 X0.0069 Y0.005 Z1.0915
N12985 X0.0066 Y0.0078 Z1.0946
N12990 X0.0064 Y0.0102 Z1.098
N12995 X0.0062 Y0.0122 Z1.1017
N13000 X0.0061 Y0.0136 Z1.1057
N13005 X0.006 Y0.0144 Z1.1098
N13010 Y0.0147 Z1.114
N13015 G0 Z1.45
N13020 G1 X0.599 Y-1.4253 F500.
N13025 G0 Z1.2081
N13030 G1 Z1.1581 F69.
N13035 X0.5987 Y-1.4252 Z1.1525
N13040 X0.5978 Y-1.4249 Z1.147
N13045 X0.5963 Y-1.4246 Z1.1416
N13050 X0.5942 Y-1.424 Z1.1364
N13055 X0.5916 Y-1.4233 Z1.1315
N13060 X0.5885 Y-1.4225 Z1.1269
N13065 X0.5849 Y-1.4216 Z1.1227
N13070 X0.5808 Y-1.4205 Z1.119
N13075 X0.5764 Y-1.4193 Z1.1158
N13080 X0.5716 Y-1.4181 Z1.1131
N13085 X0.5666 Y-1.4168 Z1.1109
N13090 X0.5614 Y-1.4154 Z1.1094
N13095 X0.5561 Y-1.414 Z1.1084
N13100 X0.5507 Y-1.4126 Z1.1081
N13105 G3 X0.2787 Y-1.3721 I-0.323 J-1.235
N13110 G1 X0.2487 Y-1.3719
N13115 G2 X0.084 Y-1.3069 I0.0074 J0.2598
N13120 X0.0539 Y-1.2756 I0.6478 J0.653
N13125 X-0.0012 Y-1.1265 I0.2043 J0.1602
N13130 G1 X-0.0018 Y-1.1115
N13135 Y-0.1385
N13140 G2 X0.0188 Y-0.0337 I0.2747 J0.0004
N13145 G1 X0.0262 Y-0.0187
N13150 X0.0264 Y-0.0182 Z1.1082
N13155 G2 X0.0541 Y0.0546 Z1.1161 I0.3926 J-0.1074
N13160 X0.159 Y0.1875 I0.3649 J-0.1803
N13165 X0.1812 Y0.1981 I0.0319 J-0.0385
N13170 G1 X0.5153 Y0.2642
N13175 G2 X0.5399 Y0.2629 I0.0097 J-0.049
N13180 X0.6892 Y0.1786 I-0.1209 J-0.3886
N13185 X0.7409 Y0.1233 Z1.1084 I-0.2703 J-0.3043
N13190 G1 X0.7419 Y0.1225 Z1.1082
N13195 X0.7432 Y0.1221 Z1.1081
N13200 X0.7582
N13205 X0.7882 Y0.1217
N13210 G2 X0.8931 Y0.0941 I-0.0128 J-0.2622
N13215 G1 X0.923 Y0.0763
N13220 G2 X0.998 Y-0.0039 I-0.1527 J-0.2179
N13225 G1 X1.013 Y-0.0343
N13230 G2 X1.0325 Y-0.1235 I-0.2263 J-0.0964
N13235 G1 X1.0333 Y-0.1385
N13240 Y-1.1115
N13245 G2 X1.0132 Y-1.2158 I-0.2758 J-0.0008
N13250 G1 X1.0053 Y-1.2313
N13255 G3 X1.0302 Y-1.2974 Z1.1161 I0.0456 J-0.0206
N13260 X1.0438 Y-1.3014 I0.0206 J0.0456
N13265 G1 X2.2465 Y-1.4716
N13270 G3 X2.3035 Y-1.424 I0.007 J0.0495
N13275 X2.2554 Y-1.3721 Z1.1081 I-0.05 J0.0019
N13280 G1 X2.2418
N13285 X2.2118 Y-1.3717
N13290 G2 X2.1069 Y-1.3441 I0.0128 J0.2622
N13295 G1 X2.077 Y-1.3263
N13300 G2 X2.002 Y-1.2461 I0.1527 J0.2179
N13305 G1 X1.987 Y-1.2157
N13310 G2 X1.9675 Y-1.1265 I0.2263 J0.0964
N13315 G1 X1.9667 Y-1.1115
N13320 Y-0.1385
N13325 G2 X1.9868 Y-0.0342 I0.2758 J0.0008
N13330 G1 X1.9947 Y-0.0187
N13335 X1.9949 Y-0.0182 Z1.1082
N13340 G2 X2.0225 Y0.0546 Z1.1161 I0.3971 J-0.1087
N13345 X2.1291 Y0.1899 I0.3696 J-0.1816
N13350 X2.1514 Y0.2005 I0.0319 J-0.0385
N13355 G1 X2.4917 Y0.267
N13360 G2 X2.5163 Y0.2656 I0.0096 J-0.0491
N13365 X2.6677 Y0.1789 I-0.1243 J-0.3925
N13370 X2.719 Y0.1233 Z1.1084 I-0.2756 J-0.3059
N13375 G1 X2.72 Y0.1224 Z1.1082
N13380 X2.7213 Y0.1221 Z1.1081
N13385 X2.7513 Y0.1219
N13390 G2 X2.916 Y0.0569 I-0.0074 J-0.2598
N13395 X2.9461 Y0.0256 I-0.6475 J-0.6527
N13400 X3.0012 Y-0.1235 I-0.2043 J-0.1602
N13405 G1 X3.0018 Y-0.1385
N13410 Y-1.1115
N13415 G2 X2.9812 Y-1.2163 I-0.2747 J-0.0004
N13420 G1 X2.9738 Y-1.2313
N13425 X2.9725 Y-1.2354 Z1.1084
N13430 X2.9713 Y-1.2394 Z1.1093
N13435 X2.9701 Y-1.2432 Z1.1108
N13440 X2.9698 Y-1.2463 Z1.1123
N13445 X2.9696 Y-1.2492 Z1.1143
N13450 X2.9693 Y-1.2519 Z1.1165
N13455 X2.9696 Y-1.2547 Z1.1196
N13460 X2.9698 Y-1.2571 Z1.123
N13465 X2.97 Y-1.259 Z1.1268
N13470 X2.9702 Y-1.2604 Z1.1307
N13475 Y-1.2612 Z1.1348
N13480 X2.9703 Y-1.2615 Z1.139
N13485 G0 Z1.45
N13490 G1 X0.6134 Y-1.4291 F500.
N13495 G0 Z1.2331
N13500 G1 Z1.1831 F69.
N13505 X0.6131 Y-1.429 Z1.1775
N13510 X0.6122 Y-1.4288 Z1.172
N13515 X0.6107 Y-1.4284 Z1.1666
N13520 X0.6086 Y-1.4278 Z1.1614
N13525 X0.606 Y-1.4271 Z1.1565
N13530 X0.6028 Y-1.4262 Z1.1519
N13535 X0.5992 Y-1.4252 Z1.1477
N13540 X0.5952 Y-1.4241 Z1.144
N13545 X0.5908 Y-1.4229 Z1.1408
N13550 X0.5861 Y-1.4216 Z1.1381
N13555 X0.5811 Y-1.4203 Z1.1359
N13560 X0.5759 Y-1.4188 Z1.1344
N13565 X0.5705 Y-1.4174 Z1.1334
N13570 X0.5651 Y-1.4159 Z1.1331
N13575 G3 X0.2936 Y-1.3721 I-0.3377 J-1.231
N13580 G2 X0.1542 Y-1.3361 I-0.0062 J0.2636
N13585 X0.0981 Y-1.2913 I0.1793 J0.2824
N13590 G1 X0.0852 Y-1.2762
N13595 X0.0643 Y-1.2463
N13600 G2 X0.0294 Y-1.1265 I0.2184 J0.1286
N13605 G1 X0.0286 Y-1.1115
N13610 Y-0.1385
N13615 G2 X0.0427 Y-0.0513 I0.276 J0.0002
N13620 G1 X0.0429 Y-0.0509
N13625 X0.0443 Y-0.0433
N13630 G2 X0.0475 Y-0.0334 I0.0489 J-0.0106
N13635 G1 X0.0489 Y-0.0303
N13640 X0.0541 Y-0.0189
N13645 G2 X0.0593 Y-0.0099 I0.0456 J-0.0206
N13650 G1 X0.0642 Y-0.0039
N13655 X0.0643 Y-0.0037
N13660 X0.0775 Y0.0152
N13665 X0.0777 Y0.0156 Z1.1332
N13670 G2 X0.1164 Y0.0832 Z1.1411 I0.3523 J-0.1563
N13675 X0.2607 Y0.2055 I0.3137 J-0.224
N13680 X0.2743 Y0.2099 I0.022 J-0.0449
N13685 G1 X0.4615 Y0.2417
N13690 G2 X0.4758 Y0.242 I0.0084 J-0.0493
N13695 X0.6539 Y0.1731 I-0.0457 J-0.3827
N13700 X0.7111 Y0.1231 Z1.1333 I-0.2238 J-0.3138
N13705 G1 X0.7121 Y0.1224 Z1.1332
N13710 X0.7132 Y0.1221 Z1.1331
N13715 G2 X0.7882 Y0.1186 I0.0168 J-0.4383
N13720 X0.9381 Y0.0354 I-0.0426 J-0.2535
N13725 G1 X0.9467 Y0.0262
N13730 X0.953 Y0.0175
N13735 G2 X1.0021 Y-0.1235 I-0.2017 J-0.1492
N13740 G1 X1.0029 Y-0.1385
N13745 Y-1.1115
N13750 G2 X0.9888 Y-1.1987 I-0.276 J-0.0002
N13755 G3 X0.9894 Y-1.2289 Z1.1362 I0.0479 J-0.014
N13760 X1.0226 Y-1.2606 Z1.1411 I0.0473 J0.0162
N13765 G1 X1.0255 Y-1.2614
N13770 X1.0284 Y-1.2619
N13775 X2.2752 Y-1.4714
N13780 G3 X2.3334 Y-1.424 I0.0083 J0.0493
N13785 X2.2854 Y-1.3721 Z1.1331 I-0.05 J0.0019
N13790 G2 X2.2118 Y-1.3686 I-0.0161 J0.4294
N13795 X2.0619 Y-1.2854 I0.0425 J0.2534
N13800 G1 X2.0533 Y-1.2762
N13805 X2.047 Y-1.2675
N13810 G2 X1.9979 Y-1.1265 I0.2017 J0.1492
N13815 G1 X1.9971 Y-1.1115
N13820 Y-0.1385
N13825 G2 X2.0112 Y-0.0513 I0.276 J0.0002
N13830 G1 X2.0114 Y-0.0509 Z1.1332
N13835 G2 X2.0291 Y0.0249 Z1.1411 I0.3805 J-0.0487
N13840 X2.1317 Y0.1823 I0.3628 J-0.1245
N13845 X2.1535 Y0.194 I0.0339 J-0.0367
N13850 G1 X2.463 Y0.2719
N13855 G2 X2.4876 Y0.2718 I0.0122 J-0.0485
N13860 X2.6542 Y0.1803 I-0.0957 J-0.3714
N13865 X2.704 Y0.1234 Z1.1334 I-0.2623 J-0.2799
N13870 G1 X2.705 Y0.1225 Z1.1332
N13875 X2.7064 Y0.1221 Z1.1331
N13880 G2 X2.8458 Y0.0861 I0.0062 J-0.2636
N13885 X2.9019 Y0.0413 I-0.1793 J-0.2824
N13890 G1 X2.9148 Y0.0262
N13895 X2.9357 Y-0.0037
N13900 G2 X2.9706 Y-0.1235 I-0.2184 J-0.1286
N13905 G1 X2.9714 Y-0.1385
N13910 Y-1.1115
N13915 G2 X2.9573 Y-1.1987 I-0.276 J-0.0002
N13920 G1 X2.9571 Y-1.1991
N13925 X2.9565 Y-1.2029
N13930 X2.9557 Y-1.2067
N13935 G2 X2.9525 Y-1.2166 I-0.0489 J0.0106
N13940 G1 X2.9511 Y-1.2197
N13945 X2.9459 Y-1.2311
N13950 G2 X2.9407 Y-1.2401 I-0.0456 J0.0206
N13955 G1 X2.9358 Y-1.2461
N13960 X2.9357 Y-1.2463
N13965 X2.9225 Y-1.2652
N13970 X2.9206 Y-1.269 Z1.1334
N13975 X2.9188 Y-1.2728 Z1.1343
N13980 X2.9171 Y-1.2764 Z1.1358
N13985 X2.9164 Y-1.28 Z1.1376
N13990 X2.9157 Y-1.2832 Z1.14
N13995 X2.9151 Y-1.2861 Z1.1428
N14000 X2.9146 Y-1.2887 Z1.1459
N14005 X2.9145 Y-1.2907 Z1.1491
N14010 Y-1.2924 Z1.1526
N14015 Y-1.2936 Z1.1563
N14020 Y-1.2943 Z1.1601
N14025 Y-1.2945 Z1.164
N14030 G0 Z1.45
N14035 G1 X0.6591 Y-1.4247 F500.
N14040 G0 Z1.2581
N14045 G1 Z1.2081 F69.
N14050 X0.6588 Y-1.4246 Z1.2025
N14055 X0.6579 Y-1.4244 Z1.197
N14060 X0.6564 Y-1.424 Z1.1916
N14065 X0.6543 Y-1.4235 Z1.1864
N14070 X0.6517 Y-1.4228 Z1.1815
N14075 X0.6485 Y-1.422 Z1.1769
N14080 X0.6449 Y-1.421 Z1.1727
N14085 X0.6408 Y-1.42 Z1.169
N14090 X0.6364 Y-1.4188 Z1.1658
N14095 X0.6317 Y-1.4176 Z1.1631
N14100 X0.6267 Y-1.4163 Z1.1609
N14105 X0.6214 Y-1.4149 Z1.1594
N14110 X0.6161 Y-1.4135 Z1.1584
N14115 X0.6107 Y-1.4121 Z1.1581
N14120 G3 X0.3386 Y-1.3721 I-0.3208 J-1.2355
N14125 G2 X0.1886 Y-1.3331 I-0.0098 J0.2705
N14130 G1 X0.1588 Y-1.3118
N14135 G2 X0.1238 Y-1.2763 I0.1694 J0.2015
N14140 G1 X0.1029 Y-1.2463
N14145 G2 X0.0678 Y-1.1265 I0.2172 J0.1287
N14150 G1 X0.0671 Y-1.1115
N14155 Y-0.1385
N14160 G2 X0.0772 Y-0.0636 I0.2824 J-0.0002
N14165 G1 X0.0813 Y-0.0514
N14170 X0.0814 Y-0.0509 Z1.1582
N14175 G2 X0.1003 Y0.0246 Z1.1661 I0.331 J-0.0427
N14180 X0.2323 Y0.1874 I0.3121 J-0.1182
N14185 X0.245 Y0.1932 I0.027 J-0.0421
N14190 G1 X0.3956 Y0.238
N14195 G2 X0.4094 Y0.2401 I0.0143 J-0.0479
N14200 X0.6106 Y0.1749 I0.003 J-0.3337
N14205 X0.6661 Y0.1232 Z1.1584 I-0.1982 J-0.2684
N14210 G1 X0.6671 Y0.1224 Z1.1582
N14215 X0.6683 Y0.1221 Z1.1581
N14220 X0.6833
N14225 G2 X0.7582 Y0.1165 I0.0142 J-0.317
N14230 X0.8779 Y0.0571 I-0.0527 J-0.2564
N14235 G1 X0.8936 Y0.0412
N14240 X0.9081 Y0.0261
N14245 G2 X0.9495 Y-0.0486 I-0.2077 J-0.1639
N14250 X0.9644 Y-0.1385 I-0.2626 J-0.0899
N14255 G1 Y-1.1115
N14260 G2 X0.9439 Y-1.2163 I-0.2799 J0.0004
N14265 X0.908 Y-1.2762 I-0.27 J0.1215
N14270 G1 X0.8887 Y-1.2962
N14275 X0.8781 Y-1.3072
N14280 X0.8631 Y-1.3187
N14285 X0.8563 Y-1.3237
N14290 G3 X0.8478 Y-1.3939 Z1.1661 I0.0309 J-0.0393
N14295 X0.8851 Y-1.413 I0.0393 J0.0309
N14300 G1 X2.3264 Y-1.472
N14305 G3 X2.3784 Y-1.4239 I0.002 J0.05
N14310 X2.3347 Y-1.3725 Z1.1585 I-0.05 J0.0018
N14315 G1 X2.3303 Y-1.3721 Z1.1581
N14320 X2.3167
N14325 G2 X2.2418 Y-1.3665 I-0.0142 J0.317
N14330 X2.1221 Y-1.3071 I0.0527 J0.2564
N14335 G1 X2.1064 Y-1.2912
N14340 X2.0919 Y-1.2761
N14345 G2 X2.0505 Y-1.2014 I0.2077 J0.1639
N14350 X2.0356 Y-1.1115 I0.2626 J0.0899
N14355 G1 Y-0.1385
N14360 G2 X2.0561 Y-0.0337 I0.2799 J-0.0004
N14365 X2.092 Y0.0262 I0.27 J-0.1215
N14370 G1 X2.1113 Y0.0462
N14375 X2.1219 Y0.0572
N14380 X2.1369 Y0.0687
N14385 X2.1437 Y0.0737
N14390 X2.1444 Y0.0744 Z1.1582
N14395 G2 X2.1946 Y0.1333 Z1.1661 I0.2773 J-0.1858
N14400 X2.3011 Y0.1999 I0.2271 J-0.2447
N14405 X2.3145 Y0.203 I0.0181 J-0.0466
N14410 G1 X2.4682 Y0.2175
N14415 G2 X2.4819 Y0.2169 I0.0047 J-0.0498
N14420 X2.6001 Y0.1707 I-0.0602 J-0.3283
N14425 X2.6593 Y0.123 Z1.1583 I-0.1784 J-0.2821
N14430 G1 X2.6603 Y0.1224 Z1.1582
N14435 X2.6614 Y0.1221 Z1.1581
N14440 G2 X2.8114 Y0.0831 I0.0098 J-0.2705
N14445 G1 X2.8412 Y0.0618
N14450 G2 X2.8762 Y0.0263 I-0.1694 J-0.2015
N14455 G1 X2.8971 Y-0.0037
N14460 G2 X2.9322 Y-0.1235 I-0.2172 J-0.1287
N14465 G1 X2.9329 Y-0.1385
N14470 Y-1.1115
N14475 G2 X2.9228 Y-1.1864 I-0.2824 J0.0002
N14480 G1 X2.9187 Y-1.1986
N14485 X2.918 Y-1.2028 Z1.1584
N14490 X2.9173 Y-1.207 Z1.1593
N14495 X2.9167 Y-1.2109 Z1.1608
N14500 Y-1.2127 Z1.1616
N14505 X2.9171 Y-1.2164 Z1.1639
N14510 X2.9176 Y-1.2197 Z1.1667
N14515 X2.9179 Y-1.2226 Z1.1699
N14520 X2.9182 Y-1.2251 Z1.1736
N14525 X2.9187 Y-1.2268 Z1.1772
N14530 X2.9191 Y-1.228 Z1.181
N14535 X2.9193 Y-1.2288 Z1.185
N14540 X2.9194 Y-1.229 Z1.189
N14545 G0 Z1.45
N14550 G1 X0.7031 Y-1.4302 F500.
N14555 G0 Z1.2831
N14560 G1 Z1.2331 F69.
N14565 X0.7028 Y-1.4301 Z1.2275
N14570 X0.7019 Y-1.4299 Z1.222
N14575 X0.7004 Y-1.4295 Z1.2166
N14580 X0.6983 Y-1.4289 Z1.2114
N14585 X0.6957 Y-1.4282 Z1.2065
N14590 X0.6926 Y-1.4273 Z1.2019
N14595 X0.689 Y-1.4263 Z1.1977
N14600 X0.6849 Y-1.4252 Z1.194
N14605 X0.6805 Y-1.4239 Z1.1908
N14610 X0.6758 Y-1.4226 Z1.1881
N14615 X0.6708 Y-1.4212 Z1.1859
N14620 X0.6656 Y-1.4198 Z1.1844
N14625 X0.6603 Y-1.4183 Z1.1834
N14630 X0.6549 Y-1.4168 Z1.1831
N14635 G3 X0.3836 Y-1.3721 I-0.3419 J-1.2299
N14640 G2 X0.2336 Y-1.3313 I-0.0038 J0.2822
N14645 G1 X0.2187 Y-1.3205
N14650 X0.2037 Y-1.3095
N14655 X0.2 Y-1.3062
N14660 X0.1738 Y-1.2791
N14665 G2 X0.1159 Y-1.1401 I0.1948 J0.1627
N14670 X0.1041 Y-0.9334 I1.854 J0.2094
N14675 X0.1021 Y-0.6227 I17.0009 J0.2617
N14680 G1 Y-0.4156
N14685 Y-0.2602
N14690 X0.1023 Y-0.2084
N14695 X0.1117 Y-0.1637
N14700 X0.1132 Y-0.1553
N14705 X0.1141 Y-0.1469
N14710 X0.1143 Y-0.1385
N14715 G2 X0.1287 Y-0.0509 I0.2739 J0.0002
N14720 G1 X0.1289 Y-0.05 Z1.1832
N14725 G2 X0.1374 Y0.0269 Z1.1911 I0.2805 J0.0078
N14730 X0.2231 Y0.1677 I0.272 J-0.069
N14735 X0.2401 Y0.1776 I0.0332 J-0.0374
N14740 G1 X0.4087 Y0.2352
N14745 G2 X0.4282 Y0.2378 I0.0162 J-0.0473
N14750 X0.5836 Y0.1778 I-0.0188 J-0.2799
N14755 X0.6359 Y0.1234 Z1.1834 I-0.1742 J-0.2199
N14760 G1 X0.637 Y0.1225 Z1.1832
N14765 X0.6383 Y0.1221 Z1.1831
N14770 G2 X0.7732 Y0.095 I0.0105 J-0.2974
N14775 X0.8332 Y0.0547 I-0.1439 J-0.2786
N14780 X0.8814 Y-0.0037 I-0.184 J-0.2012
N14785 G1 X0.8963 Y-0.0337
N14790 G2 X0.9156 Y-0.1099 I-0.2175 J-0.0955
N14795 G1 X0.9211 Y-0.1614
N14800 G2 X0.9286 Y-0.4201 I-3.7766 J-0.239
N14805 G1 X0.929 Y-0.4719
N14810 X0.9292 Y-0.5237
N14815 X0.9294 Y-0.6273
N14820 Y-0.8344
N14825 Y-0.9898
N14830 X0.9292 Y-1.0416
N14835 X0.9198 Y-1.0863
N14840 X0.9183 Y-1.0947
N14845 X0.9174 Y-1.1031
N14850 X0.9172 Y-1.1115
N14855 G2 X0.9027 Y-1.2014 I-0.2939 J0.0013
N14860 G1 X0.8963 Y-1.2163
N14865 X0.8889 Y-1.2313
N14870 X0.8886 Y-1.232
N14875 G2 X0.8862 Y-1.2425 I-0.1212 J0.0224
N14880 X0.8776 Y-1.2597 I-0.0482 J0.0133
N14885 G1 X0.8754 Y-1.2624
N14890 X0.8324 Y-1.3107
N14895 X0.8316 Y-1.3115
N14900 X0.8309 Y-1.3123
N14905 X0.8301 Y-1.3131
N14910 G2 X0.8138 Y-1.3238 I-0.0351 J0.0356
N14915 X0.8037 Y-1.3274 I-0.0464 J0.1142
N14920 G1 X0.8032 Y-1.3276
N14925 G2 X0.6744 Y-1.3709 I-0.1471 J0.2246
N14930 G3 X0.6468 Y-1.3838 I0.0063 J-0.0497
N14935 G1 X0.6427 Y-1.3876 Z1.1834
N14940 X0.6386 Y-1.3913 Z1.1844
N14945 X0.6347 Y-1.395 Z1.1859
N14950 X0.6309 Y-1.3985 Z1.1881
N14955 X0.6272 Y-1.4018 Z1.1908
N14960 X0.6239 Y-1.4049 Z1.194
N14965 X0.6208 Y-1.4078 Z1.1977
N14970 X0.6181 Y-1.4103 Z1.2019
N14975 X0.6157 Y-1.4125 Z1.2065
N14980 X0.6137 Y-1.4143 Z1.2114
N14985 X0.6121 Y-1.4158 Z1.2166
N14990 X0.611 Y-1.4168 Z1.222
N14995 X0.6103 Y-1.4175 Z1.2275
N15000 X0.61 Y-1.4177 Z1.2331
N15005 G0 Z1.45
N15010 G1 X0.0857 Y-1.2146 F500.
N15015 G0 Z1.2831
N15020 G1 Z1.2331 F69.
N15025 X0.0859 Y-1.2143 Z1.2275
N15030 X0.0863 Y-1.2134 Z1.222
N15035 X0.087 Y-1.2121 Z1.2166
N15040 X0.088 Y-1.2102 Z1.2114
N15045 X0.0893 Y-1.2078 Z1.2065
N15050 X0.0908 Y-1.2049 Z1.2019
N15055 X0.0925 Y-1.2016 Z1.1977
N15060 X0.0944 Y-1.1979 Z1.194
N15065 X0.0965 Y-1.1938 Z1.1908
N15070 X0.0988 Y-1.1895 Z1.1881
N15075 X0.1012 Y-1.1849 Z1.1859
N15080 X0.1037 Y-1.1801 Z1.1844
N15085 X0.1062 Y-1.1752 Z1.1834
N15090 X0.1088 Y-1.1702 Z1.1831
N15095 G3 X0.1159 Y-1.1401 I-0.0552 J0.0288
N15100 G1 X0.1151 Y-1.1265
N15105 X0.1143 Y-1.1115
N15110 Y-0.1385
N15115 G3 X0.1041 Y-0.1098 I-0.05 J-0.0017
N15120 G1 X0.1007 Y-0.1054 Z1.1834
N15125 X0.0973 Y-0.101 Z1.1844
N15130 X0.094 Y-0.0967 Z1.1859
N15135 X0.0909 Y-0.0926 Z1.1881
N15140 X0.0879 Y-0.0887 Z1.1908
N15145 X0.0851 Y-0.0851 Z1.194
N15150 X0.0826 Y-0.0817 Z1.1977
N15155 X0.0803 Y-0.0788 Z1.2019
N15160 X0.0783 Y-0.0762 Z1.2065
N15165 X0.0767 Y-0.074 Z1.2114
N15170 X0.0754 Y-0.0723 Z1.2166
N15175 X0.0744 Y-0.0711 Z1.222
N15180 X0.0739 Y-0.0704 Z1.2275
N15185 X0.0737 Y-0.0701 Z1.2331
N15190 G0 Z1.45
N15195 G1 X0.9458 Y-0.0354 F500.
N15200 G0 Z1.2831
N15205 G1 Z1.2331 F69.
N15210 X0.9456 Y-0.0357 Z1.2275
N15215 X0.9452 Y-0.0366 Z1.222
N15220 X0.9445 Y-0.0379 Z1.2166
N15225 X0.9435 Y-0.0398 Z1.2114
N15230 X0.9422 Y-0.0422 Z1.2065
N15235 X0.9407 Y-0.0451 Z1.2019
N15240 X0.939 Y-0.0484 Z1.1977
N15245 X0.9371 Y-0.0521 Z1.194
N15250 X0.935 Y-0.0562 Z1.1908
N15255 X0.9327 Y-0.0605 Z1.1881
N15260 X0.9303 Y-0.0651 Z1.1859
N15265 X0.9278 Y-0.0699 Z1.1844
N15270 X0.9253 Y-0.0748 Z1.1834
N15275 X0.9227 Y-0.0798 Z1.1831
N15280 G3 X0.9156 Y-0.1099 I0.0552 J-0.0288
N15285 G1 X0.9164 Y-0.1235
N15290 X0.9172 Y-0.1385
N15295 Y-1.1115
N15300 G3 X0.9274 Y-1.1402 I0.05 J0.0017
N15305 G1 X0.9308 Y-1.1446 Z1.1834
N15310 X0.9342 Y-1.149 Z1.1844
N15315 X0.9375 Y-1.1533 Z1.1859
N15320 X0.9406 Y-1.1574 Z1.1881
N15325 X0.9436 Y-1.1613 Z1.1908
N15330 X0.9464 Y-1.1649 Z1.194
N15335 X0.9489 Y-1.1683 Z1.1977
N15340 X0.9512 Y-1.1712 Z1.2019
N15345 X0.9532 Y-1.1738 Z1.2065
N15350 X0.9548 Y-1.176 Z1.2114
N15355 X0.9561 Y-1.1777 Z1.2166
N15360 X0.957 Y-1.1789 Z1.222
N15365 X0.9576 Y-1.1796 Z1.2275
N15370 X0.9578 Y-1.1799 Z1.2331
N15375 G0 Z1.45
N15380 G1 X2.6821 Y-1.4247 F500.
N15385 G0 Z1.2831
N15390 G1 Z1.2331 F69.
N15395 X2.6818 Z1.2275
N15400 X2.6809 Y-1.4244 Z1.222
N15405 X2.6794 Y-1.424 Z1.2166
N15410 X2.6774 Y-1.4235 Z1.2114
N15415 X2.6747 Y-1.4228 Z1.2065
N15420 X2.6716 Y-1.422 Z1.2019
N15425 X2.668 Y-1.4211 Z1.1977
N15430 X2.6639 Y-1.42 Z1.194
N15435 X2.6595 Y-1.4189 Z1.1908
N15440 X2.6547 Y-1.4176 Z1.1881
N15445 X2.6497 Y-1.4163 Z1.1859
N15450 X2.6445 Y-1.415 Z1.1844
N15455 X2.6392 Y-1.4136 Z1.1834
N15460 X2.6337 Y-1.4122 Z1.1831
N15465 G3 X2.3617 Y-1.3721 I-0.3208 J-1.2355
N15470 G2 X2.2268 Y-1.345 I-0.0105 J0.2974
N15475 X2.1668 Y-1.3047 I0.1439 J0.2786
N15480 X2.1186 Y-1.2463 I0.184 J0.2012
N15485 G1 X2.1037 Y-1.2163
N15490 G2 X2.0844 Y-1.1401 I0.2175 J0.0955
N15495 G1 X2.0789 Y-1.0886
N15500 G2 X2.0714 Y-0.8299 I3.7766 J0.239
N15505 G1 X2.071 Y-0.7781
N15510 X2.0708 Y-0.7263
N15515 X2.0706 Y-0.6227
N15520 Y-0.4156
N15525 Y-0.2602
N15530 X2.0708 Y-0.2084
N15535 X2.0802 Y-0.1637
N15540 X2.0817 Y-0.1553
N15545 X2.0826 Y-0.1469
N15550 X2.0828 Y-0.1385
N15555 G2 X2.0973 Y-0.0486 I0.2939 J-0.0013
N15560 G1 X2.1037 Y-0.0337
N15565 X2.1111 Y-0.0187
N15570 X2.1114 Y-0.018
N15575 X2.1138 Y-0.0075
N15580 G2 X2.1224 Y0.0097 I0.0482 J-0.0133
N15585 G1 X2.1246 Y0.0124
N15590 X2.1676 Y0.0607
N15595 X2.1684 Y0.0615
N15600 X2.1691 Y0.0623
N15605 X2.1699 Y0.0631
N15610 G2 X2.1862 Y0.0738 I0.0351 J-0.0356
N15615 G1 X2.1963 Y0.0774
N15620 X2.1968 Y0.0776
N15625 G2 X2.3256 Y0.1209 I0.1471 J-0.2246
N15630 G1 X2.3261 Y0.1211 Z1.1832
N15635 G2 X2.3554 Y0.1287 Z1.1862 I0.1469 J-0.5054
N15640 G1 X2.3707 Y0.132 Z1.1878
N15645 X2.3754 Y0.1327 Z1.1883
N15650 X2.3802 Y0.1329 Z1.1888
N15655 X2.4027 Y0.133 Z1.1911
N15660 X2.5392 Y0.1335
N15665 X2.5616 Y0.1336 Z1.1888
N15670 X2.5663 Y0.1334 Z1.1883
N15675 X2.5711 Y0.1328 Z1.1879
N15680 X2.5866 Y0.1296 Z1.1862
N15685 G2 X2.6158 Y0.1222 Z1.1832 I-0.1137 J-0.5139
N15690 G1 X2.6164 Y0.1221 Z1.1831
N15695 G2 X2.7664 Y0.0813 I0.0038 J-0.2822
N15700 G1 X2.7813 Y0.0705
N15705 X2.7963 Y0.0595
N15710 X2.8 Y0.0562
N15715 X2.8262 Y0.0291
N15720 G2 X2.8841 Y-0.1099 I-0.1948 J-0.1627
N15725 X2.8959 Y-0.3166 I-1.854 J-0.2094
N15730 X2.8979 Y-0.6273 I-17.0003 J-0.2616
N15735 G1 Y-0.8344
N15740 Y-0.9898
N15745 X2.8977 Y-1.0416
N15750 X2.8883 Y-1.0863
N15755 X2.8868 Y-1.0947
N15760 X2.8859 Y-1.1031
N15765 X2.8857 Y-1.1115
N15770 G2 X2.8713 Y-1.1991 I-0.2739 J-0.0002
N15775 G3 X2.8719 Y-1.2295 I0.0478 J-0.0141
N15780 G1 X2.8737 Y-1.2348 Z1.1834
N15785 X2.8755 Y-1.24 Z1.1844
N15790 X2.8773 Y-1.2451 Z1.1859
N15795 X2.879 Y-1.25 Z1.1881
N15800 X2.8806 Y-1.2547 Z1.1908
N15805 X2.8821 Y-1.259 Z1.194
N15810 X2.8834 Y-1.2629 Z1.1977
N15815 X2.8846 Y-1.2665 Z1.2019
N15820 X2.8857 Y-1.2695 Z1.2065
N15825 X2.8866 Y-1.2721 Z1.2114
N15830 X2.8873 Y-1.2741 Z1.2166
N15835 X2.8878 Y-1.2756 Z1.222
N15840 X2.8881 Y-1.2765 Z1.2275
N15845 X2.8882 Y-1.2768 Z1.2331
N15850 G0 Z1.45
N15855 G1 X2.0542 Y-1.2146 F500.
N15860 G0 Z1.2831
N15865 G1 Z1.2331 F69.
N15870 X2.0544 Y-1.2143 Z1.2275
N15875 X2.0548 Y-1.2134 Z1.222
N15880 X2.0555 Y-1.2121 Z1.2166
N15885 X2.0565 Y-1.2102 Z1.2114
