%
O01002
(Using high feed G1 F500. instead of G0.)
(T1 D=0.5 CR=0. - ZMIN=0.7362 - flat end mill)
N10 G90 G17
N15 G20
N20 G53 G0 Z0.

(Adaptive1 2)
N25 T1 M6
N30 S5000 M3
N35 G54
N40 G17 G90
N45 M8
N50 G1 X3.4479 Y-1.1662 F500.
N55 G0 G43 Z1.8081 H1
N60 G0 Z0.8412
N65 G1 Z0.7912 F69.
N70 X3.4475 Y-1.1661 Z0.7856
N75 X3.4466 Y-1.1659 Z0.7801
N80 X3.4451 Y-1.1655 Z0.7747
N85 X3.4431 Y-1.1649 Z0.7695
N90 X3.4404 Y-1.1643 Z0.7646
N95 X3.4373 Y-1.1635 Z0.76
N100 X3.4337 Y-1.1625 Z0.7559
N105 X3.4296 Y-1.1615 Z0.7521
N110 X3.4252 Y-1.1604 Z0.7489
N115 X3.4204 Y-1.1592 Z0.7462
N120 X3.4154 Y-1.1579 Z0.744
N125 X3.4102 Y-1.1565 Z0.7425
N130 X3.4048 Y-1.1552 Z0.7415
N135 X3.3994 Y-1.1538 Z0.7412
N140 G3 X3.1272 Y-1.1146 I-0.3167 J-1.2366
N145 G1 X3.124
N150 X3.0976 Y-1.1592
N155 X3.0636 Y-1.1983
N160 X3.0238 Y-1.2314
N165 X2.9796 Y-1.2584
N170 X2.9324 Y-1.2797
N175 X2.8832 Y-1.2957
N180 X2.8327 Y-1.3072
N185 X2.7815 Y-1.3153
N190 G2 X2.5749 Y-1.3275 I-0.2185 J1.9445
N195 X2.2124 Y-1.3296 I-0.2968 J20.0309
N200 G1 X1.9017
N205 X1.2285
N210 X-0.0143
N215 X-0.0659 Y-1.3244
N220 X-0.115 Y-1.3081
N225 X-0.16 Y-1.2825
N230 X-0.1997 Y-1.2492
N235 X-0.2334 Y-1.2099
N240 X-0.261 Y-1.1661
N245 X-0.2828 Y-1.1191
N250 X-0.2993 Y-1.07
N255 X-0.3112 Y-1.0197
N260 X-0.3196 Y-0.9685
N265 G2 X-0.3323 Y-0.7619 I1.8706 J0.2191
N270 G1 X-0.3333 Y-0.7101
N275 G2 X-0.3345 Y-0.3994 I28.8632 J0.2688
N280 G1 Y-0.0887
N285 Y0.0148
N290 X-0.3317 Y0.0666
N295 X-0.3175 Y0.1164
N300 X-0.2936 Y0.1623
N305 X-0.2617 Y0.2031
N310 X-0.2235 Y0.238
N315 X-0.1805 Y0.2668
N320 X-0.134 Y0.2897
N325 X-0.0853 Y0.3072
N330 X-0.0351 Y0.32
N335 X0.0159 Y0.329
N340 G2 X0.2225 Y0.3429 I0.2202 J-1.7279
N345 X0.5849 Y0.3453 I0.2972 J-17.3561
N350 G1 X0.7921 Y0.3454
N355 X2.7599
N360 X2.8116 Y0.3425
N365 X2.8614 Y0.3284
N370 X2.9073 Y0.3045
N375 X2.9481 Y0.2726
N380 X2.9831 Y0.2344
N385 X3.0119 Y0.1913
N390 X3.0348 Y0.1449
N395 X3.0523 Y0.0962
N400 X3.0651 Y0.046
N405 X3.074 Y-0.005
N410 G2 X3.088 Y-0.2116 I-1.7271 J-0.2202
N415 X3.0904 Y-0.574 I-17.346 J-0.2972
N420 G1 Y-0.833
N425 X3.0905 Y-0.9365
N430 X3.0842 Y-0.9879
N435 X3.069 Y-1.0374
N440 X3.0455 Y-1.0836
N445 X3.0148 Y-1.1253
N450 X2.9782 Y-1.1619
N455 X2.9369 Y-1.1932
N460 X2.892 Y-1.219
N465 X2.8445 Y-1.2397
N470 X2.7953 Y-1.2557
N475 X2.7449 Y-1.2678
N480 X2.6939 Y-1.2765
N485 X2.6425 Y-1.2826
N490 G2 X2.3838 Y-1.2932 I-0.2534 J3.0275
N495 X2.0731 Y-1.2946 I-0.263 J24.4356
N500 G1 X1.8142
N505 X0.6232
N510 X0.1053
N515 X0.0536 Y-1.2933
N520 X0.0026 Y-1.284
N525 X-0.0461 Y-1.2664
N530 X-0.0914 Y-1.2413
N535 X-0.1323 Y-1.2096
N540 X-0.1683 Y-1.1724
N545 X-0.1989 Y-1.1306
N550 X-0.2243 Y-1.0855
N555 X-0.2447 Y-1.0379
N560 X-0.2606 Y-0.9886
N565 X-0.2725 Y-0.9382
N570 G2 X-0.2943 Y-0.7324 I1.3214 J0.2438
N575 X-0.2991 Y-0.37 I8.6192 J0.2968
N580 G1 X-0.2995 Y-0.2664
N585 Y-0.1111
N590 X-0.2994 Y-0.0593
N595 X-0.2927 Y-0.0079
N600 X-0.2778 Y0.0417
N605 X-0.2551 Y0.0882
N610 X-0.2254 Y0.1306
N615 X-0.1898 Y0.1682
N620 X-0.1494 Y0.2006
N625 X-0.1052 Y0.2276
N630 X-0.0583 Y0.2496
N635 X-0.0095 Y0.2668
N640 X0.0406 Y0.2799
N645 X0.0915 Y0.2896
N650 G2 X0.2978 Y0.3065 I0.2384 J-1.6418
N655 X0.712 Y0.3103 I0.3404 J-14.4382
N660 G1 X0.9192 Y0.3104
N665 X1.5924
N670 X2.6281
N675 X2.6798 Y0.3103
N680 X2.7313 Y0.3046
N685 X2.7812 Y0.2907
N690 X2.8281 Y0.2689
N695 X2.8711 Y0.2399
N700 X2.9093 Y0.205
N705 X2.9422 Y0.165
N710 X2.9699 Y0.1212
N715 X2.9924 Y0.0746
N720 X3.0101 Y0.0259
N725 X3.0237 Y-0.024
N730 X3.0337 Y-0.0749
N735 G2 X3.0513 Y-0.2811 I-1.579 J-0.2391
N740 G1 X3.0529 Y-0.3329
N745 X3.0539 Y-0.3846
N750 X3.0544 Y-0.4364
N755 X3.0552 Y-0.5745
N760 X3.0554 Y-0.7126
N765 X3.0552 Y-0.8507
N770 X3.0501 Y-0.9022
N775 X3.0378 Y-0.9525
N780 X3.0182 Y-1.0004
N785 X2.9917 Y-1.0449
N790 X2.9592 Y-1.0853
N795 X2.9216 Y-1.1209
N800 X2.8799 Y-1.1516
N805 X2.835 Y-1.1773
N810 X2.7876 Y-1.1982
N815 X2.7385 Y-1.2148
N820 X2.6884 Y-1.2276
N825 X2.6375 Y-1.2372
N830 G2 X2.4312 Y-1.2549 I-0.2478 J1.6753
N835 X2.0688 Y-1.2592 I-0.3032 J10.2625
N840 G1 X1.9652 Y-1.2595
N845 X1.7581 Y-1.2596
N850 X1.6545
N855 X0.2045
N860 X0.1528 Y-1.2593
N865 X0.1012 Y-1.254
N870 X0.0509 Y-1.2419
N875 X0.0028 Y-1.2228
N880 X-0.0421 Y-1.197
N885 X-0.083 Y-1.1652
N890 X-0.1193 Y-1.1282
N895 X-0.1506 Y-1.087
N900 X-0.1771 Y-1.0425
N905 X-0.1988 Y-0.9955
N910 X-0.2162 Y-0.9467
N915 X-0.2297 Y-0.8967
N920 X-0.24 Y-0.846
N925 G2 X-0.2592 Y-0.6399 I1.5853 J0.2521
N930 X-0.2641 Y-0.2257 I10.5922 J0.3319
N935 G1 X-0.2644 Y-0.1739
N940 X-0.2627 Y-0.1221
N945 X-0.2551 Y-0.0709
N950 X-0.2403 Y-0.0213
N955 X-0.2185 Y0.0257
N960 X-0.1903 Y0.0691
N965 X-0.1564 Y0.1083
N970 X-0.1176 Y0.1427
N975 X-0.0751 Y0.1721
N980 X-0.0295 Y0.1968
N985 X0.0182 Y0.2168
N990 X0.0675 Y0.2327
N995 X0.1178 Y0.2449
N1000 G2 X0.3234 Y0.2686 I0.2574 J-1.3282
N1005 X0.6858 Y0.2748 I0.3063 J-7.2861
N1010 G1 X0.7376 Y0.2752
N1015 X0.8412 Y0.2753
N1020 X1.1001 Y0.2754
N1025 X2.5501
N1030 X2.6018 Y0.2749
N1035 X2.6534 Y0.2699
N1040 X2.7038 Y0.258
N1045 X2.752 Y0.239
N1050 X2.7969 Y0.2133
N1055 X2.8379 Y0.1816
N1060 X2.8742 Y0.1448
N1065 X2.9058 Y0.1037
N1070 X2.9324 Y0.0593
N1075 X2.9543 Y0.0124
N1080 X2.9717 Y-0.0364
N1085 X2.9853 Y-0.0864
N1090 X2.9957 Y-0.1371
N1095 G2 X3.0151 Y-0.3432 I-1.5618 J-0.2514
N1100 X3.02 Y-0.7056 I-9.1817 J-0.3049
N1105 G1 X3.0202 Y-0.7574
N1110 X3.0178 Y-0.8091
N1115 X3.0098 Y-0.8603
N1120 X2.9953 Y-0.91
N1125 X2.9742 Y-0.9573
N1130 X2.947 Y-1.0013
N1135 X2.9141 Y-1.0414
N1140 X2.8765 Y-1.077
N1145 X2.8349 Y-1.1078
N1150 X2.7902 Y-1.134
N1155 X2.7432 Y-1.1557
N1160 X2.6945 Y-1.1732
N1165 X2.6446 Y-1.187
N1170 X2.5939 Y-1.1976
N1175 G2 X2.3879 Y-1.2183 I-0.2609 J1.5606
N1180 G1 X2.3362 Y-1.2204
N1185 G2 X1.8702 Y-1.2245 I-0.3868 J17.3921
N1190 G1 X1.663 Y-1.2246
N1195 X0.3166
N1200 X0.2648
N1205 X0.2131 Y-1.2234
N1210 X0.1616 Y-1.2178
N1215 X0.1111 Y-1.2062
N1220 X0.0626 Y-1.188
N1225 X0.017 Y-1.1635
N1230 X-0.025 Y-1.1333
N1235 X-0.0628 Y-1.0979
N1240 X-0.0961 Y-1.0582
N1245 X-0.1248 Y-1.0151
N1250 X-0.1488 Y-0.9692
N1255 X-0.1685 Y-0.9213
N1260 G3 X-0.1946 Y-0.8663 I-0.1494 J-0.037
N1265 G1 X-0.2005 Y-0.8589
N1270 X-0.2056 Y-0.852
N1275 X-0.2059 Y-0.8516
N1280 G2 X-0.2148 Y-0.8427 I0.0973 J0.1061
N1285 X-0.2242 Y-0.8279 I0.0369 J0.0338
N1290 G1 X-0.2243 Y-0.8277
N1295 X-0.2486 Y-0.7682
N1300 X-0.2488 Y-0.7678
N1305 G2 X-0.2525 Y-0.7506 I0.0463 J0.0189
N1310 X-0.2524 Y-0.7381 I0.1438 J0.0051
N1315 G1 Y-0.7378
N1320 X-0.2547 Y-0.7092
N1325 G2 Y-0.2751 I35.2459 J0.2227
N1330 G1 X-0.2523 Y-0.2451
N1335 X-0.2491 Y-0.2301
N1340 X-0.2409 Y-0.179
N1345 X-0.2292 Y-0.1286
N1350 X-0.2128 Y-0.0794
N1355 X-0.1908 Y-0.0326
N1360 X-0.1632 Y0.0112
N1365 X-0.1303 Y0.0512
N1370 X-0.0929 Y0.087
N1375 X-0.0516 Y0.1183
N1380 X-0.0072 Y0.145
N1385 X0.0395 Y0.1672
N1390 X0.0881 Y0.1853
N1395 X0.1378 Y0.1997
N1400 X0.1884 Y0.2109
N1405 G2 X0.3941 Y0.2333 I0.2657 J-1.4841
N1410 X0.7565 Y0.2397 I0.3137 J-7.4301
N1415 G1 X0.8083 Y0.2401
N1420 X0.9119 Y0.2403
N1425 X1.119 Y0.2404
N1430 X1.5333
N1435 X2.4654
N1440 X2.5172 Y0.2401
N1445 X2.5689 Y0.237
N1450 X2.62 Y0.2284
N1455 X2.6695 Y0.2134
N1460 X2.7167 Y0.1921
N1465 X2.7606 Y0.1647
N1470 X2.8006 Y0.1318
N1475 X2.8362 Y0.0942
N1480 X2.8671 Y0.0526
N1485 X2.8934 Y0.008
N1490 X2.9152 Y-0.039
N1495 X2.9328 Y-0.0877
N1500 X2.9468 Y-0.1376
N1505 X2.9576 Y-0.1882
N1510 G2 X2.9788 Y-0.3941 I-1.5352 J-0.2624
N1515 G1 X2.981 Y-0.4458
N1520 X2.9825 Y-0.4976
N1525 X2.9835 Y-0.5494
N1530 X2.9841 Y-0.6012
N1535 X2.9846 Y-0.6529
N1540 X2.9843 Y-0.7047
N1545 X2.981 Y-0.7564
N1550 X2.9726 Y-0.8075
N1555 X2.9583 Y-0.8573
N1560 X2.9377 Y-0.9048
N1565 X2.9112 Y-0.9493
N1570 X2.8793 Y-0.9901
N1575 X2.8427 Y-1.0267
N1580 X2.8021 Y-1.0588
N1585 X2.7583 Y-1.0865
N1590 X2.7121 Y-1.1098
N1595 X2.6639 Y-1.1288
N1600 X2.6145 Y-1.1441
N1605 X2.5641 Y-1.1561
N1610 G2 X2.3586 Y-1.181 I-0.2738 J1.4013
N1615 X1.9963 Y-1.1888 I-0.3201 J6.4458
N1620 G1 X1.9445 Y-1.1893
N1625 X1.8927 Y-1.1894
N1630 X1.7891 Y-1.1895
N1635 X1.582 Y-1.1896
N1640 X1.3749
N1645 X0.391
N1650 X0.3392
N1655 X0.2874 Y-1.1886
N1660 X0.2358 Y-1.1844
N1665 X0.1848 Y-1.1752
N1670 X0.1353 Y-1.16
N1675 X0.0881 Y-1.1388
N1680 X0.0439 Y-1.1117
N1685 X0.0034 Y-1.0794
N1690 X-0.0328 Y-1.0425
N1695 X-0.0649 Y-1.0018
N1700 X-0.0938 Y-0.9588
N1705 X-0.104 Y-0.9449
N1710 X-0.1161 Y-0.9325
N1715 X-0.1298 Y-0.9218
N1720 X-0.1391 Y-0.9155
N1725 X-0.1396 Y-0.9153 Z0.7413
N1730 G2 X-0.208 Y-0.8781 Z0.7492 I0.1602 J0.3766
N1735 X-0.3266 Y-0.7553 I0.2286 J0.3394
N1740 X-0.3335 Y-0.7368 I0.0424 J0.0265
N1745 G1 X-0.3779 Y-0.4622
N1750 G2 X-0.3772 Y-0.4425 I0.0494 J0.008
N1755 X-0.3025 Y-0.2875 I0.3978 J-0.0962
N1760 X-0.2501 Y-0.2317 Z0.7414 I0.3231 J-0.2512
N1765 G1 X-0.2495 Y-0.231 Z0.7413
N1770 X-0.2491 Y-0.2301 Z0.7412
N1775 G2 X-0.217 Y-0.1479 I0.2457 J-0.0485
N1780 G1 X-0.2137 Y-0.1429
N1785 X-0.1876 Y-0.0982
N1790 X-0.159 Y-0.055
N1795 X-0.1267 Y-0.0145
N1800 X-0.0906 Y0.0226
N1805 X-0.0509 Y0.0559
N1810 X-0.0082 Y0.0851
N1815 X0.0371 Y0.1103
N1820 X0.0843 Y0.1314
N1825 X0.1331 Y0.1489
N1830 X0.1829 Y0.1629
N1835 G2 X0.3875 Y0.1936 I0.2868 J-1.2154
N1840 X0.698 Y0.2039 I0.3011 J-4.3892
N1845 X1.0087 Y0.2053 I0.2713 J-27.0525
N1850 G1 X1.2158 Y0.2054
N1855 X1.6301
N1860 X2.3551
N1865 X2.4069 Y0.2053
N1870 X2.4587 Y0.2047
N1875 X2.5103 Y0.2013
N1880 X2.5615 Y0.1931
N1885 X2.6113 Y0.1791
N1890 X2.6591 Y0.159
N1895 X2.7039 Y0.1331
N1900 X2.745 Y0.1017
N1905 X2.7821 Y0.0655
N1910 X2.8148 Y0.0254
N1915 X2.8431 Y-0.018
N1920 X2.8669 Y-0.064
N1925 X2.8866 Y-0.1119
N1930 X2.9024 Y-0.1612
N1935 X2.9149 Y-0.2115
N1940 G2 X2.9411 Y-0.4168 I-1.3489 J-0.2767
N1945 X2.9481 Y-0.6237 I-3.5331 J-0.2216
N1950 G1 X2.9466 Y-0.6755
N1955 X2.9412 Y-0.727
N1960 X2.9305 Y-0.7777
N1965 X2.914 Y-0.8268
N1970 X2.8915 Y-0.8734
N1975 X2.8635 Y-0.917
N1980 X2.8305 Y-0.9568
N1985 X2.793 Y-0.9926
N1990 X2.7518 Y-1.024
N1995 X2.7076 Y-1.051
N2000 X2.6611 Y-1.0737
N2005 X2.6129 Y-1.0925
N2010 X2.5634 Y-1.1077
N2015 X2.513 Y-1.1198
N2020 G2 X2.3076 Y-1.1451 I-0.2799 J1.4212
N2025 X1.9452 Y-1.1537 I-0.3265 J6.1691
N2030 G1 X1.8244 Y-1.1543
N2035 X1.7036 Y-1.1546
N2040 X1.5828
N2045 X1.1167
N2050 X0.4435
N2055 X0.3917 Y-1.1544
N2060 X0.34 Y-1.1531
N2065 X0.2884 Y-1.1487
N2070 X0.2374 Y-1.1396
N2075 X0.1877 Y-1.1249
N2080 X0.1401 Y-1.1045
N2085 X0.0953 Y-1.0786
N2090 X0.0537 Y-1.0478
N2095 X0.015 Y-1.0133
N2100 X-0.0221 Y-0.9767
N2105 G3 X-0.0726 Y-0.9465 I-0.0901 J-0.0936
N2110 G1 X-0.0758 Y-0.9455
N2115 G3 X-0.1062 Y-0.9466 I-0.0136 J-0.0481
N2120 G1 X-0.1115 Y-0.9484 Z0.7415
N2125 X-0.1167 Y-0.9503 Z0.7425
N2130 X-0.1217 Y-0.9521 Z0.744
N2135 X-0.1266 Y-0.9539 Z0.7462
N2140 X-0.1312 Y-0.9555 Z0.7489
N2145 X-0.1355 Y-0.9571 Z0.7521
N2150 X-0.1395 Y-0.9585 Z0.7559
N2155 X-0.143 Y-0.9597 Z0.76
N2160 X-0.146 Y-0.9608 Z0.7646
N2165 X-0.1486 Y-0.9617 Z0.7695
N2170 X-0.1506 Y-0.9624 Z0.7747
N2175 X-0.1521 Y-0.963 Z0.7801
N2180 X-0.153 Y-0.9633 Z0.7856
N2185 X-0.1533 Y-0.9634 Z0.7912
N2190 G0 Z1.4081
N2195 G1 X-0.2869 Y-0.1875 F500.
N2200 G0 Z0.8412
N2205 G1 Z0.7912 F69.
N2210 X-0.2866 Y-0.1873 Z0.7856
N2215 X-0.2857 Y-0.1869 Z0.7801
N2220 X-0.2843 Y-0.1863 Z0.7747
N2225 X-0.2824 Y-0.1854 Z0.7695
N2230 X-0.2799 Y-0.1843 Z0.7646
N2235 X-0.2769 Y-0.183 Z0.76
N2240 X-0.2735 Y-0.1815 Z0.7559
N2245 X-0.2697 Y-0.1798 Z0.7521
N2250 X-0.2655 Y-0.1779 Z0.7489
N2255 X-0.261 Y-0.176 Z0.7462
N2260 X-0.2563 Y-0.1738 Z0.744
N2265 X-0.2514 Y-0.1717 Z0.7425
N2270 X-0.2463 Y-0.1694 Z0.7415
N2275 X-0.2412 Y-0.1671 Z0.7412
N2280 G3 X-0.217 Y-0.148 I-0.0253 J0.0569
N2285 G2 X-0.1742 Y-0.0953 I0.2828 J-0.1859
N2290 G1 X-0.1581 Y-0.0816
N2295 X-0.1564 Y-0.0804
N2300 X-0.1516 Y-0.0768
N2305 X-0.1125 Y-0.043
N2310 X-0.0724 Y-0.0101
N2315 X-0.0304 Y0.0201
N2320 X0.0137 Y0.0473
N2325 X0.0596 Y0.0712
N2330 X0.1072 Y0.0917
N2335 X0.156 Y0.109
N2340 X0.2058 Y0.1232
N2345 G2 X0.4101 Y0.156 I0.3056 J-1.2482
N2350 X0.7205 Y0.1684 I0.3122 J-3.9227
N2355 X1.1865 Y0.1703 I0.3703 J-33.9647
N2360 G1 X1.6526 Y0.1704
N2365 X1.7561
N2370 X2.3258
N2375 X2.3776 Y0.17
N2380 X2.4293 Y0.168
N2385 X2.4808 Y0.1625
N2390 X2.5315 Y0.1521
N2395 X2.5807 Y0.1359
N2400 X2.6276 Y0.1139
N2405 X2.6715 Y0.0864
N2410 X2.7118 Y0.0539
N2415 X2.748 Y0.0169
N2420 X2.7799 Y-0.0239
N2425 X2.8075 Y-0.0677
N2430 X2.8309 Y-0.1139
N2435 X2.8502 Y-0.1619
N2440 X2.866 Y-0.2113
N2445 X2.8785 Y-0.2615
N2450 G2 X2.9052 Y-0.4667 I-1.3697 J-0.2828
N2455 G1 X2.9082 Y-0.5184
N2460 X2.9098 Y-0.5702
N2465 X2.9089 Y-0.622
N2470 X2.9041 Y-0.6735
N2475 X2.8942 Y-0.7244
N2480 X2.8787 Y-0.7738
N2485 X2.8575 Y-0.821
N2490 X2.8308 Y-0.8654
N2495 X2.7989 Y-0.9062
N2500 X2.7626 Y-0.9431
N2505 X2.7225 Y-0.9758
N2510 X2.6792 Y-1.0043
N2515 X2.6335 Y-1.0285
N2520 X2.5858 Y-1.0487
N2525 X2.5367 Y-1.0653
N2530 X2.4867 Y-1.0786
N2535 G2 X2.2818 Y-1.1077 I-0.2909 J1.3087
N2540 X1.9713 Y-1.118 I-0.3078 J4.5963
N2545 G1 X1.816 Y-1.1191
N2550 X1.6606 Y-1.1197
N2555 X1.5053 Y-1.1196
N2560 X0.9356
N2565 X0.8321
N2570 X0.5214
N2575 X0.4696 Y-1.1195
N2580 X0.4178 Y-1.1188
N2585 X0.3661 Y-1.116
N2590 X0.3147 Y-1.1095
N2595 X0.2642 Y-1.0982
N2600 X0.2151 Y-1.0817
N2605 X0.168 Y-1.0601
N2610 X0.1232 Y-1.0342
N2615 X0.0803 Y-1.0052
N2620 X0.0495 Y-0.9833
N2625 G3 X-0.0062 Y-0.9583 I-0.0825 J-0.109
N2630 G1 X-0.0232 Y-0.9563
N2635 G2 X-0.0726 Y-0.9466 I0.026 J0.2635
N2640 G3 X-0.103 Y-0.9476 I-0.0136 J-0.048
N2645 G1 X-0.1082 Y-0.9495 Z0.7415
N2650 X-0.1135 Y-0.9513 Z0.7425
N2655 X-0.1185 Y-0.9531 Z0.744
N2660 X-0.1234 Y-0.9549 Z0.7462
N2665 X-0.128 Y-0.9565 Z0.7489
N2670 X-0.1323 Y-0.9581 Z0.7521
N2675 X-0.1363 Y-0.9595 Z0.7559
N2680 X-0.1398 Y-0.9607 Z0.76
N2685 X-0.1428 Y-0.9618 Z0.7646
N2690 X-0.1454 Y-0.9627 Z0.7695
N2695 X-0.1474 Y-0.9635 Z0.7747
N2700 X-0.1489 Y-0.964 Z0.7801
N2705 X-0.1498 Y-0.9643 Z0.7856
N2710 X-0.1501 Y-0.9644 Z0.7912
N2715 G0 Z1.4081
N2720 G1 X-0.2358 Y-0.0927 F500.
N2725 G0 Z0.8412
N2730 G1 Z0.7912 F69.
N2735 X-0.2355 Z0.7856
N2740 X-0.2346 Y-0.0926 Z0.7801
N2745 X-0.233 Y-0.0925 Z0.7747
N2750 X-0.2309 Y-0.0924 Z0.7695
N2755 X-0.2282 Y-0.0923 Z0.7646
N2760 X-0.2249 Y-0.0921 Z0.76
N2765 X-0.2212 Y-0.0919 Z0.7559
N2770 X-0.217 Y-0.0916 Z0.7521
N2775 X-0.2125 Y-0.0914 Z0.7489
N2780 X-0.2076 Y-0.0911 Z0.7462
N2785 X-0.2024 Y-0.0908 Z0.744
N2790 X-0.197 Y-0.0905 Z0.7425
N2795 X-0.1915 Y-0.0901 Z0.7415
N2800 X-0.1859 Y-0.0898 Z0.7412
N2805 G3 X-0.1564 Y-0.0804 I-0.0036 J0.0622
N2810 G1 X-0.1281 Y-0.0613
N2815 G2 X-0.0968 Y-0.0457 I0.1687 J-0.299
N2820 G1 X-0.0912 Y-0.0435
N2825 X-0.0559 Y-0.0268
N2830 X-0.0097 Y-0.0034
N2835 G2 X0.2829 Y0.098 I0.4915 J-0.945
N2840 X0.54 Y0.1268 I0.3318 J-1.8052
N2845 X0.9541 Y0.1346 I0.3607 J-8.1416
N2850 G1 X1.0059 Y0.135
N2855 X1.1095 Y0.1352
N2860 X1.2648 Y0.1353
N2865 X1.7309 Y0.1354
N2870 X1.8863
N2875 X2.2487
N2880 X2.3005 Y0.1352
N2885 X2.3523 Y0.134
N2890 X2.404 Y0.1304
N2895 X2.4552 Y0.1226
N2900 X2.5053 Y0.1098
N2905 X2.5537 Y0.0914
N2910 X2.5997 Y0.0675
N2915 X2.6425 Y0.0384
N2920 X2.6816 Y0.0045
N2925 X2.7167 Y-0.0336
N2930 X2.7477 Y-0.0751
N2935 X2.7744 Y-0.1195
N2940 X2.797 Y-0.1661
N2945 X2.8158 Y-0.2143
N2950 X2.8311 Y-0.2638
N2955 G2 X2.8655 Y-0.4678 I-1.1069 J-0.2913
N2960 G1 X2.8688 Y-0.5195
N2965 X2.8691 Y-0.5712
N2970 X2.8653 Y-0.6229
N2975 X2.8564 Y-0.6739
N2980 X2.8419 Y-0.7236
N2985 X2.8218 Y-0.7714
N2990 X2.7962 Y-0.8163
N2995 X2.7654 Y-0.858
N3000 X2.7301 Y-0.8959
N3005 X2.6908 Y-0.9296
N3010 X2.6483 Y-0.9592
N3015 X2.6032 Y-0.9846
N3020 X2.5561 Y-1.006
N3025 X2.5074 Y-1.0237
N3030 X2.4576 Y-1.038
N3035 G2 X2.2533 Y-1.0705 I-0.2997 J1.2291
N3040 X1.9429 Y-1.0826 I-0.3143 J4.0551
N3045 X1.5804 Y-1.0845 I-0.3191 J26.6164
N3050 G1 X1.3732 Y-1.0846
N3055 X0.5965
N3060 X0.5447
N3065 X0.4929 Y-1.0841
N3070 X0.4412 Y-1.0823
N3075 X0.3896 Y-1.0779
N3080 X0.3385 Y-1.0695
N3085 X0.2883 Y-1.0566
N3090 X0.2395 Y-1.0393
N3095 X0.1922 Y-1.0182
N3100 G3 X0.1004 Y-0.9702 I-2.5199 J-4.7083
N3105 G1 X0.0826 Y-0.9634
N3110 X0.0639 Y-0.9592
N3115 X0.0449 Y-0.9578
N3120 X0.0068
N3125 X-0.0232 Y-0.9563
N3130 G3 X-0.0523 Y-0.9652 I-0.0007 J-0.05
N3135 G1 X-0.0569 Y-0.9684 Z0.7415
N3140 X-0.0615 Y-0.9715 Z0.7425
N3145 X-0.0659 Y-0.9746 Z0.744
N3150 X-0.0702 Y-0.9775 Z0.7462
N3155 X-0.0742 Y-0.9803 Z0.7489
N3160 X-0.078 Y-0.9829 Z0.7521
N3165 X-0.0814 Y-0.9853 Z0.7559
N3170 X-0.0845 Y-0.9874 Z0.76
N3175 X-0.0871 Y-0.9893 Z0.7646
N3180 X-0.0894 Y-0.9908 Z0.7695
N3185 X-0.0911 Y-0.992 Z0.7747
N3190 X-0.0924 Y-0.9929 Z0.7801
N3195 X-0.0932 Y-0.9934 Z0.7856
N3200 X-0.0935 Y-0.9936 Z0.7912
N3205 G0 Z1.4081
N3210 G1 X-0.1766 Y-0.0367 F500.
N3215 G0 Z0.8412
N3220 G1 Z0.7912 F69.
N3225 X-0.1763 Y-0.0368 Z0.7856
N3230 X-0.1754 Y-0.037 Z0.7801
N3235 X-0.1738 Y-0.0373 Z0.7747
N3240 X-0.1717 Y-0.0378 Z0.7695
N3245 X-0.1691 Y-0.0383 Z0.7646
N3250 X-0.1659 Y-0.039 Z0.76
N3255 X-0.1623 Y-0.0398 Z0.7559
N3260 X-0.1582 Y-0.0406 Z0.7521
N3265 X-0.1537 Y-0.0416 Z0.7489
N3270 X-0.1489 Y-0.0426 Z0.7462
N3275 X-0.1438 Y-0.0437 Z0.744
N3280 X-0.1386 Y-0.0448 Z0.7425
N3285 X-0.1331 Y-0.0459 Z0.7415
N3290 X-0.1277 Y-0.0471 Z0.7412
N3295 G3 X-0.0968 Y-0.0457 I0.0129 J0.061
N3300 G2 X-0.045 Y-0.0311 I0.1036 J-0.2667
N3305 G3 X0.0771 Y0.0038 I-0.2429 J1.0834
N3310 G2 X0.4823 Y0.0851 I0.5271 J-1.5754
N3315 X0.8444 Y0.0985 I0.3567 J-4.7522
N3320 X1.3105 Y0.1003 I0.3729 J-35.3776
N3325 G1 X1.673 Y0.1004
N3330 X1.9319
N3335 X2.139
N3340 X2.1908 Y0.1003
N3345 X2.2426 Y0.1001
N3350 X2.2944 Y0.099
N3355 X2.3461 Y0.0958
N3360 X2.3974 Y0.0889
N3365 X2.4479 Y0.0773
N3370 X2.4968 Y0.0604
N3375 X2.5436 Y0.0382
N3380 X2.5875 Y0.0107
N3385 X2.628 Y-0.0215
N3390 X2.6647 Y-0.0581
N3395 X2.6973 Y-0.0983
N3400 X2.7257 Y-0.1416
N3405 X2.7501 Y-0.1873
N3410 X2.7706 Y-0.2348
N3415 X2.7875 Y-0.2838
N3420 G2 X2.8246 Y-0.4871 I-0.8598 J-0.2621
N3425 G1 X2.8256 Y-0.5389
N3430 X2.8217 Y-0.5905
N3435 X2.8125 Y-0.6415
N3440 X2.7975 Y-0.691
N3445 X2.7767 Y-0.7385
N3450 X2.7504 Y-0.7831
N3455 X2.7191 Y-0.8243
N3460 X2.6833 Y-0.8618
N3465 X2.6437 Y-0.8952
N3470 X2.601 Y-0.9244
N3475 X2.5557 Y-0.9495
N3480 X2.5084 Y-0.9706
N3485 X2.4597 Y-0.9882
N3490 X2.4099 Y-1.0025
N3495 X2.3594 Y-1.0139
N3500 G2 X2.1539 Y-1.0389 I-0.2938 J1.5565
N3505 X1.7916 Y-1.0484 I-0.3397 J6.0323
N3510 G1 X1.6535 Y-1.0492
N3515 X1.5154 Y-1.0496
N3520 X1.3773
N3525 X0.9113
N3530 X0.6524
N3535 X0.6006 Y-1.0495
N3540 X0.5488 Y-1.049
N3545 X0.497 Y-1.0475
N3550 X0.4454 Y-1.0436
N3555 X0.3941 Y-1.0364
N3560 X0.3435 Y-1.0254
N3565 X0.2938 Y-1.0108
N3570 X0.2452 Y-0.993
N3575 X0.1974 Y-0.9731
N3580 G3 X0.1343 Y-0.9577 I-0.0666 J-0.1356
N3585 G1 X0.0449 Y-0.9578
N3590 G3 X0.0162 Y-0.968 I0.0017 J-0.05
N3595 G1 X0.0118 Y-0.9714 Z0.7415
N3600 X0.0074 Y-0.9748 Z0.7425
N3605 X0.0031 Y-0.9781 Z0.744
N3610 X-0.001 Y-0.9812 Z0.7462
N3615 X-0.0049 Y-0.9842 Z0.7489
N3620 X-0.0085 Y-0.987 Z0.7521
N3625 X-0.0118 Y-0.9895 Z0.7559
N3630 X-0.0148 Y-0.9918 Z0.76
N3635 X-0.0174 Y-0.9938 Z0.7646
N3640 X-0.0195 Y-0.9954 Z0.7695
N3645 X-0.0212 Y-0.9967 Z0.7747
N3650 X-0.0225 Y-0.9977 Z0.7801
N3655 X-0.0232 Y-0.9982 Z0.7856
N3660 X-0.0235 Y-0.9984 Z0.7912
N3665 G0 Z1.4081
N3670 G1 X-0.1225 Y-0.0102 F500.
N3675 G0 Z0.8412
N3680 G1 Z0.7912 F69.
N3685 X-0.1222 Y-0.0103 Z0.7856
N3690 X-0.1213 Y-0.0107 Z0.7801
N3695 X-0.1199 Y-0.0112 Z0.7747
N3700 X-0.1179 Y-0.012 Z0.7695
N3705 X-0.1153 Y-0.0129 Z0.7646
N3710 X-0.1123 Y-0.014 Z0.76
N3715 X-0.1088 Y-0.0154 Z0.7559
N3720 X-0.1049 Y-0.0168 Z0.7521
N3725 X-0.1006 Y-0.0184 Z0.7489
N3730 X-0.096 Y-0.0202 Z0.7462
N3735 X-0.0911 Y-0.022 Z0.744
N3740 X-0.0861 Y-0.0239 Z0.7425
N3745 X-0.0809 Y-0.0258 Z0.7415
N3750 X-0.0757 Y-0.0278 Z0.7412
N3755 G3 X-0.0449 Y-0.0311 I0.0219 J0.0583
N3760 G1 X-0.0382 Y-0.0299
N3765 X-0.0232 Y-0.0279
N3770 X0.0068 Y-0.0265
N3775 X0.0081
N3780 G3 X0.0839 Y-0.0179 I-0.0215 J0.5272
N3785 G1 X0.1348 Y-0.0085
N3790 G2 X0.3895 Y0.0378 I0.6831 J-3.0333
N3795 X0.7511 Y0.0612 I0.4037 J-3.4374
N3800 X1.2171 Y0.065 I0.3865 J-18.727
N3805 G1 X1.3725 Y0.0653
N3810 X1.735 Y0.0654
N3815 X1.9939
N3820 G2 X2.2528 Y0.0637 I0.0706 J-9.1748
N3825 G1 X2.3044 Y0.0598
N3830 X2.3557 Y0.0526
N3835 X2.4061 Y0.0407
N3840 X2.455 Y0.0237
N3845 X2.5018 Y0.0015
N3850 X2.5458 Y-0.0258
N3855 X2.5865 Y-0.0579
N3860 X2.6234 Y-0.0942
N3865 X2.6564 Y-0.1341
N3870 X2.6853 Y-0.1771
N3875 X2.7101 Y-0.2225
N3880 X2.7311 Y-0.2698
N3885 X2.7483 Y-0.3187
N3890 X2.762 Y-0.3686
N3895 X2.7718 Y-0.4195
N3900 X2.7773 Y-0.471
N3905 X2.7778 Y-0.5227
N3910 X2.7727 Y-0.5743
N3915 X2.7617 Y-0.6249
N3920 X2.7446 Y-0.6737
N3925 X2.7217 Y-0.7202
N3930 X2.6934 Y-0.7636
N3935 X2.6603 Y-0.8034
N3940 X2.6229 Y-0.8392
N3945 X2.582 Y-0.871
N3950 X2.5382 Y-0.8985
N3955 X2.492 Y-0.922
N3960 X2.4441 Y-0.9418
N3965 X2.395 Y-0.958
N3970 G2 X2.1917 Y-0.9962 I-0.3123 J1.1032
N3975 G1 X2.1401 Y-1.0011
N3980 G2 X1.7779 Y-1.013 I-0.3477 J5.0625
N3985 G1 X1.6225 Y-1.0141
N3990 X1.4672 Y-1.0146
N3995 X1.3118
N4000 X0.8458
N4005 X0.6904
N4010 X0.6386 Y-1.0144
N4015 X0.5869 Y-1.0138
N4020 X0.5351 Y-1.0119
N4025 X0.4835 Y-1.0077
N4030 X0.4322 Y-1.0007
N4035 X0.3814 Y-0.9905
N4040 X0.3313 Y-0.9774
N4045 X0.2872 Y-0.9636
N4050 X0.2745 Y-0.9604
N4055 X0.2616 Y-0.9584
N4060 X0.2485 Y-0.9578
N4065 X0.1343
N4070 G3 X0.1057 Y-0.968 I0.0017 J-0.05
N4075 G1 X0.1012 Y-0.9714 Z0.7415
N4080 X0.0968 Y-0.9748 Z0.7425
N4085 X0.0925 Y-0.9781 Z0.744
N4090 X0.0884 Y-0.9812 Z0.7462
N4095 X0.0845 Y-0.9842 Z0.7489
N4100 X0.0809 Y-0.987 Z0.7521
N4105 X0.0776 Y-0.9895 Z0.7559
N4110 X0.0746 Y-0.9918 Z0.76
N4115 X0.072 Y-0.9938 Z0.7646
N4120 X0.0699 Y-0.9954 Z0.7695
N4125 X0.0682 Y-0.9967 Z0.7747
N4130 X0.067 Y-0.9977 Z0.7801
N4135 X0.0662 Y-0.9982 Z0.7856
N4140 X0.066 Y-0.9984 Z0.7912
N4145 G0 Z1.4081
N4150 G1 X-0.0645 Y0.0078 F500.
N4155 G0 Z0.8412
N4160 G1 Z0.7912 F69.
N4165 X-0.0642 Y0.0076 Z0.7856
N4170 X-0.0634 Y0.0071 Z0.7801
N4175 X-0.0621 Y0.0063 Z0.7747
N4180 X-0.0603 Y0.0052 Z0.7695
N4185 X-0.0579 Y0.0039 Z0.7646
N4190 X-0.0551 Y0.0022 Z0.76
N4195 X-0.0519 Y0.0003 Z0.7559
N4200 X-0.0483 Y-0.0019 Z0.7521
N4205 X-0.0444 Y-0.0042 Z0.7489
N4210 X-0.0402 Y-0.0067 Z0.7462
N4215 X-0.0357 Y-0.0093 Z0.744
N4220 X-0.0311 Y-0.0121 Z0.7425
N4225 X-0.0264 Y-0.0149 Z0.7415
N4230 X-0.0215 Y-0.0178 Z0.7412
N4235 G3 X0.0081 Y-0.0265 I0.0318 J0.0536
N4240 G1 X0.1199
N4245 G3 X0.2915 Y-0.0104 I-0.0652 J1.6176
N4250 G2 X0.8077 Y0.0265 I0.5521 J-4.0979
N4255 X1.2737 Y0.03 I0.3857 J-20.1465
N4260 G1 X1.4291 Y0.0303
N4265 X1.7916 Y0.0304
N4270 X2.0505
N4275 X2.1023 Y0.0302
N4280 X2.154 Y0.0298
N4285 X2.2058 Y0.0283
N4290 X2.2575 Y0.0246
N4295 X2.3087 Y0.0175
N4300 X2.3592 Y0.006
N4305 X2.4083 Y-0.0105
N4310 X2.4554 Y-0.0321
N4315 X2.4998 Y-0.0587
N4320 X2.5411 Y-0.09
N4325 X2.5787 Y-0.1256
N4330 X2.6124 Y-0.1649
N4335 X2.6421 Y-0.2073
N4340 X2.6677 Y-0.2524
N4345 X2.689 Y-0.2995
N4350 X2.7059 Y-0.3485
N4355 X2.718 Y-0.3988
N4360 X2.7247 Y-0.4502
N4365 X2.7255 Y-0.502
N4370 X2.7199 Y-0.5534
N4375 X2.7079 Y-0.6038
N4380 X2.6897 Y-0.6523
N4385 X2.6655 Y-0.6981
N4390 X2.6359 Y-0.7406
N4395 X2.6015 Y-0.7793
N4400 X2.563 Y-0.8139
N4405 X2.5212 Y-0.8444
N4410 X2.4765 Y-0.8707
N4415 X2.4298 Y-0.893
N4420 X2.3815 Y-0.9116
N4425 X2.332 Y-0.9269
N4430 G2 X2.1282 Y-0.9624 I-0.31 J1.1748
N4435 X1.8697 Y-0.976 I-0.3012 J3.2802
N4440 X1.3001 Y-0.9795 I-0.4591 J27.6934
N4445 G1 X0.9894 Y-0.9796
N4450 X0.7822
N4455 G2 X0.5751 Y-0.9766 I-0.04 J4.407
N4460 X0.4295 Y-0.9585 I0.0599 J1.0761
N4465 G1 X0.4219 Y-0.958
N4470 X0.4143 Y-0.9578
N4475 X0.2485
N4480 G3 X0.2199 Y-0.968 I0.0017 J-0.05
N4485 G1 X0.2154 Y-0.9714 Z0.7415
N4490 X0.211 Y-0.9748 Z0.7425
N4495 X0.2068 Y-0.9781 Z0.744
N4500 X0.2026 Y-0.9812 Z0.7462
N4505 X0.1987 Y-0.9842 Z0.7489
N4510 X0.1951 Y-0.987 Z0.7521
N4515 X0.1918 Y-0.9895 Z0.7559
N4520 X0.1888 Y-0.9918 Z0.76
N4525 X0.1862 Y-0.9938 Z0.7646
N4530 X0.1841 Y-0.9954 Z0.7695
N4535 X0.1824 Y-0.9967 Z0.7747
N4540 X0.1812 Y-0.9977 Z0.7801
N4545 X0.1804 Y-0.9982 Z0.7856
N4550 X0.1802 Y-0.9984 Z0.7912
N4555 G0 Z1.4081
N4560 G1 X0.0473 Y0.0078 F500.
N4565 G0 Z0.8412
N4570 G1 Z0.7912 F69.
N4575 X0.0475 Y0.0076 Z0.7856
N4580 X0.0483 Y0.0071 Z0.7801
N4585 X0.0497 Y0.0063 Z0.7747
N4590 X0.0515 Y0.0052 Z0.7695
N4595 X0.0538 Y0.0039 Z0.7646
N4600 X0.0566 Y0.0022 Z0.76
N4605 X0.0598 Y0.0003 Z0.7559
N4610 X0.0634 Y-0.0019 Z0.7521
N4615 X0.0674 Y-0.0042 Z0.7489
N4620 X0.0716 Y-0.0067 Z0.7462
N4625 X0.076 Y-0.0093 Z0.744
N4630 X0.0807 Y-0.0121 Z0.7425
N4635 X0.0854 Y-0.0149 Z0.7415
N4640 X0.0902 Y-0.0178 Z0.7412
N4645 G3 X0.1199 Y-0.0265 I0.0318 J0.0536
N4650 G1 X0.3514
N4655 X0.4031 Y-0.0239
N4660 G3 X0.6101 Y-0.0152 I-0.2075 J7.371
N4665 G2 X1.1796 Y-0.0052 I0.5342 J-14.2685
N4670 G1 X1.2832 Y-0.0049
N4675 X1.4385 Y-0.0047
N4680 X1.7492 Y-0.0046
N4685 X1.9564
N4690 G2 X2.1635 Y-0.0069 I0.0428 J-5.5162
N4695 G1 X2.2151 Y-0.011
N4700 X2.2664 Y-0.0182
N4705 X2.3169 Y-0.0297
N4710 X2.366 Y-0.0461
N4715 X2.4132 Y-0.0674
N4720 X2.4578 Y-0.0937
N4725 X2.4993 Y-0.1247
N4730 X2.5371 Y-0.16
N4735 X2.5711 Y-0.1992
N4740 X2.6007 Y-0.2416
N4745 X2.6256 Y-0.287
N4750 X2.6453 Y-0.3349
N4755 X2.6591 Y-0.3848
N4760 X2.6664 Y-0.4361
N4765 X2.6669 Y-0.4879
N4770 X2.6604 Y-0.5393
N4775 X2.6469 Y-0.5893
N4780 X2.6269 Y-0.637
N4785 X2.6009 Y-0.6818
N4790 X2.5695 Y-0.723
N4795 X2.5334 Y-0.7602
N4800 X2.4935 Y-0.7931
N4805 X2.4504 Y-0.8219
N4810 X2.4048 Y-0.8464
N4815 X2.3573 Y-0.867
N4820 X2.3084 Y-0.884
N4825 X2.2585 Y-0.8979
N4830 G2 X2.054 Y-0.9295 I-0.3061 J1.3009
N4835 X1.7623 Y-0.942 I-0.322 J4.0946
N4840 G1 X1.7542 Y-0.9432
N4845 X1.7463 Y-0.9446
N4850 G2 X1.6102 Y-0.9578 I-0.1285 J0.6196
N4855 G1 X0.4143
N4860 G3 X0.3857 Y-0.968 I0.0017 J-0.05
N4865 G1 X0.3812 Y-0.9714 Z0.7415
N4870 X0.3768 Y-0.9748 Z0.7425
N4875 X0.3726 Y-0.9781 Z0.744
N4880 X0.3684 Y-0.9812 Z0.7462
N4885 X0.3645 Y-0.9842 Z0.7489
N4890 X0.3609 Y-0.987 Z0.7521
N4895 X0.3576 Y-0.9895 Z0.7559
N4900 X0.3546 Y-0.9918 Z0.76
N4905 X0.352 Y-0.9938 Z0.7646
N4910 X0.3499 Y-0.9954 Z0.7695
N4915 X0.3482 Y-0.9967 Z0.7747
N4920 X0.347 Y-0.9977 Z0.7801
N4925 X0.3462 Y-0.9982 Z0.7856
N4930 X0.346 Y-0.9984 Z0.7912
N4935 G0 Z1.4081
N4940 G1 X0.2788 Y0.0078 F500.
N4945 G0 Z0.8412
N4950 G1 Z0.7912 F69.
N4955 X0.2791 Y0.0076 Z0.7856
N4960 X0.2799 Y0.0071 Z0.7801
N4965 X0.2812 Y0.0063 Z0.7747
N4970 X0.283 Y0.0052 Z0.7695
N4975 X0.2854 Y0.0039 Z0.7646
N4980 X0.2882 Y0.0022 Z0.76
N4985 X0.2914 Y0.0003 Z0.7559
N4990 X0.295 Y-0.0019 Z0.7521
N4995 X0.2989 Y-0.0042 Z0.7489
N5000 X0.3031 Y-0.0067 Z0.7462
N5005 X0.3076 Y-0.0093 Z0.744
N5010 X0.3122 Y-0.0121 Z0.7425
N5015 X0.3169 Y-0.0149 Z0.7415
N5020 X0.3218 Y-0.0178 Z0.7412
N5025 G3 X0.3514 Y-0.0265 I0.0318 J0.0536
N5030 G1 X1.6102
N5035 X1.6402 Y-0.0267
N5040 X1.6552 Y-0.0273
N5045 X1.6702 Y-0.0288
N5050 G3 X1.8512 Y-0.0376 I0.4444 J7.2543
N5055 G2 X2.1101 Y-0.0415 I-0.1573 J-19.1645
N5060 G1 X2.1617 Y-0.0452
N5065 X2.2131 Y-0.0517
N5070 X2.2638 Y-0.0622
N5075 X2.3133 Y-0.0774
N5080 X2.3611 Y-0.0975
N5085 X2.4064 Y-0.1225
N5090 X2.4487 Y-0.1524
N5095 X2.4873 Y-0.1868
N5100 X2.5216 Y-0.2256
N5105 X2.5509 Y-0.2684
N5110 X2.5741 Y-0.3147
N5115 X2.5906 Y-0.3637
N5120 X2.5998 Y-0.4147
N5125 X2.6012 Y-0.4665
N5130 X2.5949 Y-0.5179
N5135 X2.5813 Y-0.5678
N5140 X2.5607 Y-0.6154
N5145 X2.5339 Y-0.6597
N5150 X2.5016 Y-0.7001
N5155 X2.4647 Y-0.7364
N5160 X2.4239 Y-0.7684
N5165 X2.3801 Y-0.7959
N5170 X2.3338 Y-0.8193
N5175 X2.2858 Y-0.8387
N5180 X2.2365 Y-0.8546
N5185 G2 X2.033 Y-0.8915 I-0.31 J1.1295
N5190 G1 X1.9814 Y-0.8962
N5195 X1.9297 Y-0.8998
N5200 X1.8816 Y-0.9022
N5205 X1.8657 Y-0.904
N5210 X1.8501 Y-0.9076
N5215 X1.835 Y-0.9131
N5220 X1.8218 Y-0.9188
N5225 X1.7968 Y-0.9291
N5230 G3 X1.7742 Y-0.9495 I0.0206 J-0.0455
N5235 G1 X1.7714 Y-0.9543 Z0.7415
N5240 X1.7686 Y-0.9591 Z0.7425
N5245 X1.7659 Y-0.9638 Z0.744
N5250 X1.7633 Y-0.9682 Z0.7462
N5255 X1.7608 Y-0.9725 Z0.7489
N5260 X1.7585 Y-0.9764 Z0.7521
N5265 X1.7564 Y-0.98 Z0.7559
N5270 X1.7546 Y-0.9833 Z0.76
N5275 X1.7529 Y-0.9861 Z0.7646
N5280 X1.7516 Y-0.9884 Z0.7695
N5285 X1.7505 Y-0.9903 Z0.7747
N5290 X1.7497 Y-0.9916 Z0.7801
N5295 X1.7492 Y-0.9924 Z0.7856
N5300 X1.7491 Y-0.9927 Z0.7912
N5305 G0 Z1.4081
N5310 G1 X1.6013 Y0.0126 F500.
N5315 G0 Z0.8412
N5320 G1 Z0.7912 F69.
N5325 X1.6016 Y0.0124 Z0.7856
N5330 X1.6023 Y0.0118 Z0.7801
N5335 X1.6036 Y0.0109 Z0.7747
N5340 X1.6053 Y0.0096 Z0.7695
N5345 X1.6075 Y0.008 Z0.7646
N5350 X1.6101 Y0.0061 Z0.76
N5355 X1.6131 Y0.0039 Z0.7559
N5360 X1.6165 Y0.0014 Z0.7521
N5365 X1.6201 Y-0.0013 Z0.7489
N5370 X1.6241 Y-0.0043 Z0.7462
N5375 X1.6282 Y-0.0073 Z0.744
N5380 X1.6326 Y-0.0105 Z0.7425
N5385 X1.637 Y-0.0138 Z0.7415
N5390 X1.6415 Y-0.0172 Z0.7412
N5395 G3 X1.6702 Y-0.0288 I0.037 J0.0501
N5400 G2 X1.7684 Y-0.0448 I-0.047 J-0.5965
N5405 G3 X1.8671 Y-0.0628 I0.1443 J0.5112
N5410 G1 X1.9021 Y-0.0663
N5415 X1.9538 Y-0.0698
N5420 X2.0572 Y-0.0747
N5425 X2.1089 Y-0.0784
N5430 X2.1603 Y-0.0846
N5435 X2.2111 Y-0.0944
N5440 X2.261 Y-0.1085
N5445 X2.3091 Y-0.1275
N5450 X2.355 Y-0.1516
N5455 X2.3976 Y-0.1811
N5460 X2.436 Y-0.2158
N5465 X2.4688 Y-0.2558
N5470 X2.4949 Y-0.3005
N5475 X2.5134 Y-0.3489
N5480 X2.5238 Y-0.3997
N5485 X2.5256 Y-0.4514
N5490 X2.519 Y-0.5028
N5495 X2.5046 Y-0.5525
N5500 X2.483 Y-0.5996
N5505 X2.4548 Y-0.6431
N5510 X2.4212 Y-0.6824
N5515 X2.3829 Y-0.7173
N5520 X2.3409 Y-0.7476
N5525 X2.2961 Y-0.7735
N5530 X2.249 Y-0.7951
N5535 X2.2004 Y-0.8129
N5540 X2.1506 Y-0.8272
N5545 G2 X1.9558 Y-0.8588 I-0.3035 J1.2565
N5550 G3 X1.895 Y-0.8804 I0.0166 J-0.1432
N5555 G1 X1.8774 Y-0.8917
N5560 X1.865 Y-0.8995
N5565 X1.835 Y-0.9131
N5570 G3 X1.8131 Y-0.9342 I0.0222 J-0.0448
N5575 G1 X1.8105 Y-0.9392 Z0.7415
N5580 X1.8079 Y-0.944 Z0.7425
N5585 X1.8053 Y-0.9488 Z0.744
N5590 X1.8029 Y-0.9534 Z0.7462
N5595 X1.8006 Y-0.9577 Z0.7489
N5600 X1.7984 Y-0.9617 Z0.7521
N5605 X1.7964 Y-0.9654 Z0.7559
N5610 X1.7946 Y-0.9687 Z0.76
N5615 X1.7931 Y-0.9715 Z0.7646
N5620 X1.7918 Y-0.9739 Z0.7695
N5625 X1.7908 Y-0.9758 Z0.7747
N5630 X1.7901 Y-0.9772 Z0.7801
N5635 X1.7896 Y-0.978 Z0.7856
N5640 X1.7895 Y-0.9783 Z0.7912
N5645 G0 Z1.4081
N5650 G1 X1.7093 Y0.0094 F500.
N5655 G0 Z0.8412
N5660 G1 Z0.7912 F69.
N5665 X1.7095 Y0.0091 Z0.7856
N5670 X1.7101 Y0.0084 Z0.7801
N5675 X1.7112 Y0.0073 Z0.7747
N5680 X1.7126 Y0.0057 Z0.7695
N5685 X1.7144 Y0.0037 Z0.7646
N5690 X1.7166 Y0.0012 Z0.76
N5695 X1.7191 Y-0.0015 Z0.7559
N5700 X1.7219 Y-0.0047 Z0.7521
N5705 X1.7249 Y-0.0081 Z0.7489
N5710 X1.7282 Y-0.0117 Z0.7462
N5715 X1.7316 Y-0.0156 Z0.744
N5720 X1.7352 Y-0.0196 Z0.7425
N5725 X1.7389 Y-0.0237 Z0.7415
N5730 X1.7426 Y-0.0279 Z0.7412
N5735 G3 X1.7683 Y-0.0451 I0.0464 J0.0415
N5740 G1 X1.7751 Y-0.0472
N5745 X1.7852 Y-0.0505
N5750 X1.7901 Y-0.0524
N5755 X1.8218 Y-0.0655
N5760 X1.824 Y-0.0664
N5765 G3 X1.9258 Y-0.092 I0.1609 J0.4245
N5770 G1 X1.9599 Y-0.0971
N5775 X2.0113 Y-0.1032
N5780 X2.0628 Y-0.1089
N5785 X2.1141 Y-0.1161
N5790 X2.1648 Y-0.1263
N5795 X2.2146 Y-0.1405
N5800 X2.2627 Y-0.1597
N5805 X2.3079 Y-0.185
N5810 X2.3485 Y-0.2171
N5815 X2.3829 Y-0.2559
N5820 X2.4096 Y-0.3002
N5825 X2.4277 Y-0.3487
N5830 X2.4366 Y-0.3998
N5835 X2.4363 Y-0.4515
N5840 X2.4271 Y-0.5025
N5845 X2.4098 Y-0.5513
N5850 X2.3851 Y-0.5968
N5855 X2.3541 Y-0.6383
N5860 X2.3177 Y-0.6752
N5865 X2.2771 Y-0.7073
N5870 X2.2332 Y-0.7348
N5875 X2.1867 Y-0.7576
N5880 X2.1384 Y-0.7763
N5885 G2 X1.9996 Y-0.8125 I-0.415 J1.3079
N5890 G1 X1.9817 Y-0.8188
N5895 X1.9648 Y-0.8274
N5900 X1.9494 Y-0.8384
N5905 G2 X1.895 Y-0.8805 I-0.6352 J0.7656
N5910 G3 X1.8777 Y-0.9055 I0.0306 J-0.0396
N5915 G1 X1.8761 Y-0.9108 Z0.7415
N5920 X1.8745 Y-0.9161 Z0.7425
N5925 X1.8729 Y-0.9213 Z0.744
N5930 X1.8714 Y-0.9262 Z0.7462
N5935 X1.87 Y-0.9309 Z0.7489
N5940 X1.8686 Y-0.9353 Z0.7521
N5945 X1.8674 Y-0.9393 Z0.7559
N5950 X1.8663 Y-0.9429 Z0.76
N5955 X1.8654 Y-0.946 Z0.7646
N5960 X1.8646 Y-0.9486 Z0.7695
N5965 X1.864 Y-0.9506 Z0.7747
N5970 X1.8635 Y-0.9521 Z0.7801
N5975 X1.8633 Y-0.953 Z0.7856
N5980 X1.8632 Y-0.9533 Z0.7912
N5985 G0 Z1.4081
N5990 G1 X1.7709 Y-0.0062 F500.
N5995 G0 Z0.8412
N6000 G1 Z0.7912 F69.
N6005 X1.7711 Y-0.0064 Z0.7856
N6010 X1.7716 Y-0.0072 Z0.7801
N6015 X1.7725 Y-0.0085 Z0.7747
N6020 X1.7738 Y-0.0102 Z0.7695
N6025 X1.7754 Y-0.0124 Z0.7646
N6030 X1.7773 Y-0.015 Z0.76
N6035 X1.7795 Y-0.018 Z0.7559
N6040 X1.7819 Y-0.0214 Z0.7521
N6045 X1.7846 Y-0.0251 Z0.7489
N6050 X1.7875 Y-0.0291 Z0.7462
N6055 X1.7905 Y-0.0333 Z0.744
N6060 X1.7937 Y-0.0377 Z0.7425
N6065 X1.7969 Y-0.0421 Z0.7415
N6070 X1.8002 Y-0.0467 Z0.7412
N6075 G3 X1.824 Y-0.0664 I0.0504 J0.0366
N6080 G1 X1.835 Y-0.0712
N6085 X1.865 Y-0.0847
N6090 X1.8664 Y-0.0856
N6095 G3 X1.9529 Y-0.1175 I0.1496 J0.2726
N6100 G1 X1.9813 Y-0.1245
N6105 X2.032 Y-0.1352
N6110 X2.0827 Y-0.1457
N6115 X2.1329 Y-0.1584
N6120 X2.1816 Y-0.1759
N6125 X2.2267 Y-0.2015
N6130 X2.2657 Y-0.2356
N6135 X2.2968 Y-0.277
N6140 X2.3186 Y-0.3239
N6145 X2.3306 Y-0.3743
N6150 X2.3327 Y-0.426
N6155 X2.3251 Y-0.4773
N6160 X2.3088 Y-0.5264
N6165 X2.2846 Y-0.5722
N6170 X2.2537 Y-0.6137
N6175 X2.2172 Y-0.6505
N6180 X2.1764 Y-0.6824
N6185 X2.1323 Y-0.7095
N6190 X2.0861 Y-0.7329
N6195 X2.0439 Y-0.7521
N6200 G3 X1.9967 Y-0.7886 I0.0538 J-0.1183
N6205 G1 X1.9883 Y-0.799
N6210 X1.9699 Y-0.8203
N6215 X1.9608 Y-0.829
N6220 X1.9494 Y-0.8384
N6225 G3 X1.9338 Y-0.8646 I0.0332 J-0.0374
N6230 G1 X1.9326 Y-0.87 Z0.7415
N6235 X1.9314 Y-0.8754 Z0.7425
N6240 X1.9301 Y-0.8807 Z0.744
N6245 X1.929 Y-0.8857 Z0.7462
N6250 X1.9279 Y-0.8905 Z0.7489
N6255 X1.9269 Y-0.895 Z0.7521
N6260 X1.9259 Y-0.899 Z0.7559
N6265 X1.9251 Y-0.9027 Z0.76
N6270 X1.9244 Y-0.9058 Z0.7646
N6275 X1.9237 Y-0.9085 Z0.7695
N6280 X1.9233 Y-0.9106 Z0.7747
N6285 X1.9229 Y-0.9121 Z0.7801
N6290 X1.9227 Y-0.913 Z0.7856
N6295 X1.9226 Y-0.9133 Z0.7912
N6300 G0 Z1.4081
N6305 G1 X1.8233 Y-0.0178 F500.
N6310 G0 Z0.8412
N6315 G1 Z0.7912 F69.
N6320 X1.8234 Y-0.0181 Z0.7856
N6325 X1.8239 Y-0.0189 Z0.7801
N6330 X1.8246 Y-0.0203 Z0.7747
N6335 X1.8255 Y-0.0222 Z0.7695
N6340 X1.8268 Y-0.0246 Z0.7646
N6345 X1.8282 Y-0.0275 Z0.76
N6350 X1.8299 Y-0.0308 Z0.7559
N6355 X1.8318 Y-0.0346 Z0.7521
N6360 X1.8339 Y-0.0386 Z0.7489
N6365 X1.8361 Y-0.043 Z0.7462
N6370 X1.8385 Y-0.0476 Z0.744
N6375 X1.8409 Y-0.0524 Z0.7425
N6380 X1.8434 Y-0.0574 Z0.7415
N6385 X1.8459 Y-0.0624 Z0.7412
N6390 G3 X1.8664 Y-0.0856 I0.0555 J0.0282
N6395 G1 X1.8819 Y-0.0954
N6400 X1.895 Y-0.1038
N6405 X1.9023 Y-0.1091
N6410 G3 X1.982 Y-0.1462 I0.1778 J0.2773
N6415 G1 X2.031 Y-0.1631
N6420 X2.0799 Y-0.18
N6425 G2 X2.1711 Y-0.2695 I-0.1067 J-0.2
N6430 G1 X2.1938 Y-0.316
N6435 X2.2055 Y-0.3665
N6440 X2.2068 Y-0.4182
N6445 X2.1984 Y-0.4693
N6450 X2.1813 Y-0.5182
N6455 X2.1568 Y-0.5638
N6460 X2.1265 Y-0.6058
N6465 X2.0921 Y-0.6445
N6470 G3 X2.0598 Y-0.6896 I0.0911 J-0.0995
N6475 G1 X2.0448 Y-0.7214
N6480 G2 X1.9967 Y-0.7886 I-0.4859 J0.2973
N6485 G3 X1.9867 Y-0.8173 I0.04 J-0.0301
N6490 G1 X1.9865 Y-0.8229 Z0.7415
N6495 X1.9864 Y-0.8284 Z0.7425
N6500 X1.9862 Y-0.8338 Z0.744
N6505 X1.9861 Y-0.839 Z0.7462
N6510 X1.986 Y-0.8439 Z0.7489
N6515 X1.9858 Y-0.8485 Z0.7521
N6520 X1.9857 Y-0.8527 Z0.7559
N6525 X1.9856 Y-0.8564 Z0.76
N6530 X1.9855 Y-0.8596 Z0.7646
N6535 X1.9854 Y-0.8623 Z0.7695
N6540 Y-0.8645 Z0.7747
N6545 X1.9853 Y-0.866 Z0.7801
N6550 Y-0.867 Z0.7856
N6555 Y-0.8673 Z0.7912
N6560 G0 Z1.4081
N6565 G1 X1.8632 Y-0.0388 F500.
N6570 G0 Z0.8412
N6575 G1 Z0.7912 F69.
N6580 X1.8634 Y-0.0391 Z0.7856
N6585 X1.8637 Y-0.04 Z0.7801
N6590 X1.8644 Y-0.0414 Z0.7747
N6595 X1.8652 Y-0.0434 Z0.7695
N6600 X1.8663 Y-0.0459 Z0.7646
N6605 X1.8676 Y-0.0488 Z0.76
N6610 X1.8691 Y-0.0523 Z0.7559
N6615 X1.8708 Y-0.0561 Z0.7521
N6620 X1.8726 Y-0.0603 Z0.7489
N6625 X1.8746 Y-0.0648 Z0.7462
N6630 X1.8766 Y-0.0695 Z0.744
N6635 X1.8788 Y-0.0745 Z0.7425
N6640 X1.881 Y-0.0795 Z0.7415
N6645 X1.8832 Y-0.0847 Z0.7412
N6650 G3 X1.9023 Y-0.1091 I0.0571 J0.0249
N6655 G1 X1.9041 Y-0.1104
N6660 X1.9249 Y-0.1263
N6665 X1.9399 Y-0.138
N6670 X1.9455 Y-0.1422
N6675 X1.9505 Y-0.1457
N6680 X1.9566 Y-0.1498
N6685 X2.0004 Y-0.1773
N6690 X2.0386 Y-0.2123
N6695 X2.0686 Y-0.2546
N6700 X2.0895 Y-0.3019
N6705 X2.1011 Y-0.3524
N6710 X2.1039 Y-0.4041
N6715 X2.0988 Y-0.4556
N6720 X2.0953 Y-0.4727
N6725 X2.0935 Y-0.4846
N6730 X2.0929 Y-0.4921
N6735 X2.0935 Y-0.4996
N6740 G2 X2.0873 Y-0.6194 I-0.2653 J-0.0464
N6745 X2.0597 Y-0.6896 I-0.6322 J0.2079
N6750 G3 X2.0579 Y-0.72 I0.0466 J-0.0182
N6755 G1 X2.0592 Y-0.7254 Z0.7415
N6760 X2.0606 Y-0.7308 Z0.7425
N6765 X2.0619 Y-0.736 Z0.744
N6770 X2.0632 Y-0.741 Z0.7462
N6775 X2.0643 Y-0.7458 Z0.7489
N6780 X2.0655 Y-0.7502 Z0.7521
N6785 X2.0665 Y-0.7543 Z0.7559
N6790 X2.0674 Y-0.7579 Z0.76
N6795 X2.0682 Y-0.761 Z0.7646
N6800 X2.0688 Y-0.7637 Z0.7695
N6805 X2.0694 Y-0.7657 Z0.7747
N6810 X2.0697 Y-0.7672 Z0.7801
N6815 X2.07 Y-0.7682 Z0.7856
N6820 Y-0.7685 Z0.7912
N6825 G0 Z1.4081
N6830 G1 X1.9058 Y-0.0653 F500.
N6835 G0 Z0.8412
N6840 G1 Z0.7912 F69.
N6845 X1.9059 Y-0.0656 Z0.7856
N6850 X1.9062 Y-0.0665 Z0.7801
N6855 X1.9067 Y-0.068 Z0.7747
N6860 X1.9075 Y-0.07 Z0.7695
N6865 X1.9084 Y-0.0725 Z0.7646
N6870 X1.9095 Y-0.0756 Z0.76
N6875 X1.9107 Y-0.0791 Z0.7559
N6880 X1.9121 Y-0.083 Z0.7521
N6885 X1.9137 Y-0.0873 Z0.7489
N6890 X1.9153 Y-0.092 Z0.7462
N6895 X1.9171 Y-0.0968 Z0.744
N6900 X1.9189 Y-0.1019 Z0.7425
N6905 X1.9207 Y-0.1071 Z0.7415
N6910 X1.9226 Y-0.1124 Z0.7412
N6915 G3 X1.9399 Y-0.138 I0.0587 J0.021
N6920 G1 X1.9608 Y-0.1553
N6925 X1.9699 Y-0.1639
N6930 G2 X2.045 Y-0.2628 I-0.5482 J-0.4946
N6935 X2.0837 Y-0.3544 I-0.778 J-0.383
N6940 G1 X2.0857 Y-0.3582 Z0.7415
N6945 X2.0877 Y-0.3619 Z0.7424
N6950 X2.0896 Y-0.3654 Z0.7439
N6955 X2.092 Y-0.368 Z0.7458
N6960 X2.0943 Y-0.3705 Z0.7481
N6965 X2.0963 Y-0.3727 Z0.7509
N6970 X2.0981 Y-0.3746 Z0.754
N6975 X2.0997 Y-0.3758 Z0.7573
N6980 X2.1011 Y-0.3768 Z0.7608
N6985 X2.102 Y-0.3775 Z0.7645
N6990 X2.1026 Y-0.3779 Z0.7683
N6995 X2.1028 Y-0.3781 Z0.7721
N7000 G0 Z1.4081
N7005 G1 X-0.1711 Y-1.2507 F500.
N7010 G0 Z1.0381
N7015 G1 Z0.9881 F69.
N7020 X-0.171 Y-1.2504 Z0.9825
N7025 X-0.1708 Y-1.2495 Z0.9769
N7030 X-0.1704 Y-1.248 Z0.9716
N7035 X-0.1699 Y-1.2459 Z0.9664
N7040 X-0.1692 Y-1.2433 Z0.9615
N7045 X-0.1684 Y-1.2401 Z0.9569
N7050 X-0.1675 Y-1.2365 Z0.9527
N7055 X-0.1664 Y-1.2325 Z0.949
N7060 X-0.1653 Y-1.228 Z0.9457
N7065 X-0.1641 Y-1.2233 Z0.943
N7070 X-0.1628 Y-1.2183 Z0.9409
N7075 X-0.1615 Y-1.2131 Z0.9393
N7080 X-0.1601 Y-1.2077 Z0.9384
N7085 X-0.1587 Y-1.2023 Z0.9381
N7090 G3 X-0.1195 Y-0.9301 I-1.2366 J0.3167
N7095 G1 Y-0.9268
N7100 X-0.1466 Y-0.8827
N7105 X-0.1683 Y-0.8357
N7110 X-0.1848 Y-0.7866
N7115 X-0.1967 Y-0.7362
N7120 X-0.205 Y-0.6851
N7125 G2 X-0.2178 Y-0.4784 I1.8737 J0.219
N7130 G1 X-0.2187 Y-0.4267
N7135 X-0.2192 Y-0.3749
N7140 X-0.2124 Y-0.3235
N7145 X-0.1949 Y-0.2748
N7150 X-0.1681 Y-0.2305
N7155 X-0.134 Y-0.1916
N7160 X-0.094 Y-0.1587
N7165 X-0.0497 Y-0.1318
N7170 X-0.0024 Y-0.1108
N7175 X0.0469 Y-0.095
N7180 X0.0974 Y-0.0835
N7185 X0.1486 Y-0.0756
N7190 G2 X0.3553 Y-0.0636 I0.2184 J-1.9729
N7195 X0.7178 Y-0.0615 I0.2967 J-20.3813
N7200 G1 X1.0285
N7205 X1.4946
N7210 X1.5463
N7215 X1.5981 Y-0.063
N7220 X1.6497 Y-0.0675
N7225 X1.7007 Y-0.0766
N7230 X1.7505 Y-0.0908
N7235 X1.7986 Y-0.11
N7240 X1.844 Y-0.1348
N7245 X1.8865 Y-0.1644
N7250 X1.9249 Y-0.1991
N7255 X1.9591 Y-0.238
N7260 X1.9866 Y-0.2819
N7265 X2.0079 Y-0.3291
N7270 X2.0242 Y-0.3783
N7275 X2.0365 Y-0.4286
N7280 X2.0418 Y-0.4801
N7285 X2.0406 Y-0.5319
N7290 X2.0325 Y-0.583
N7295 X2.018 Y-0.6327
N7300 X1.997 Y-0.68
N7305 X1.9702 Y-0.7244
N7310 X1.9378 Y-0.7648
N7315 X1.9007 Y-0.8009
N7320 X1.8591 Y-0.8316
N7325 X1.8139 Y-0.8571
N7330 X1.7662 Y-0.877
N7335 X1.7166 Y-0.8919
N7340 X1.6659 Y-0.9026
N7345 X1.6146 Y-0.9099
N7350 X1.5631 Y-0.9147
N7355 X1.5114 Y-0.9178
N7360 G2 X1.2007 Y-0.9224 I-0.2628 J7.3633
N7365 G1 X1.0972 Y-0.9227
N7370 X0.89
N7375 X0.165 Y-0.9228
N7380 X0.1134 Y-0.9194
N7385 X0.0634 Y-0.9057
N7390 X0.0169 Y-0.8829
N7395 X-0.0249 Y-0.8523
N7400 X-0.0613 Y-0.8155
N7405 X-0.0919 Y-0.7737
N7410 X-0.1169 Y-0.7284
N7415 X-0.1365 Y-0.6805
N7420 X-0.1514 Y-0.6309
N7425 X-0.1623 Y-0.5802
N7430 X-0.17 Y-0.529
N7435 X-0.1748 Y-0.4775
N7440 X-0.1712 Y-0.4258
N7445 X-0.1589 Y-0.3755
N7450 X-0.1383 Y-0.328
N7455 X-0.1103 Y-0.2844
N7460 X-0.076 Y-0.2456
N7465 X-0.0366 Y-0.2121
N7470 X0.0069 Y-0.1839
N7475 X0.0533 Y-0.1609
N7480 X0.1018 Y-0.1428
N7485 X0.1517 Y-0.129
N7490 X0.2025 Y-0.1187
N7495 G2 X0.4087 Y-0.1007 I0.2383 J-1.5369
N7500 X0.8229 Y-0.0966 I0.3405 J-13.4923
N7505 G1 X1.03 Y-0.0965
N7510 X1.4443
N7515 X1.4961 Y-0.0968
N7520 X1.5478 Y-0.0984
N7525 X1.5994 Y-0.103
N7530 X1.6505 Y-0.1114
N7535 X1.7006 Y-0.1247
N7540 X1.7489 Y-0.1433
N7545 X1.7947 Y-0.1675
N7550 X1.8368 Y-0.1977
N7555 X1.8744 Y-0.2333
N7560 X1.9072 Y-0.2734
N7565 X1.9344 Y-0.3174
N7570 X1.9553 Y-0.3648
N7575 X1.9694 Y-0.4146
N7580 X1.9759 Y-0.466
N7585 X1.9749 Y-0.5178
N7590 X1.9661 Y-0.5688
N7595 X1.9497 Y-0.6179
N7600 X1.9262 Y-0.664
N7605 X1.896 Y-0.7062
N7610 X1.8603 Y-0.7436
N7615 X1.8198 Y-0.776
N7620 X1.7757 Y-0.8031
N7625 X1.7289 Y-0.8252
N7630 X1.6801 Y-0.8427
N7635 X1.6301 Y-0.8561
N7640 X1.5793 Y-0.866
N7645 G2 X1.373 Y-0.8836 I-0.2406 J1.6015
N7650 X0.9588 Y-0.8877 I-0.3413 J13.6155
N7655 G1 X0.7517
N7660 X0.6481 Y-0.8878
N7665 X0.2856
N7670 X0.2338 Y-0.8874
N7675 X0.1825 Y-0.8808
N7680 X0.1327 Y-0.8665
N7685 X0.0858 Y-0.8446
N7690 X0.0427 Y-0.8159
N7695 X0.0042 Y-0.7813
N7700 X-0.0293 Y-0.7418
N7705 X-0.0576 Y-0.6984
N7710 X-0.0808 Y-0.6521
N7715 X-0.0984 Y-0.6034
N7720 X-0.1082 Y-0.5526
N7725 X-0.1093 Y-0.5008
N7730 X-0.1015 Y-0.4496
N7735 X-0.0853 Y-0.4004
N7740 X-0.0615 Y-0.3545
N7745 X-0.0309 Y-0.3127
N7750 X0.0053 Y-0.2757
N7755 X0.0461 Y-0.2438
N7760 X0.0905 Y-0.2171
N7765 X0.1375 Y-0.1953
N7770 X0.1863 Y-0.1779
N7775 X0.2363 Y-0.1646
N7780 X0.2871 Y-0.1547
N7785 G2 X0.4933 Y-0.1363 I0.2477 J-1.6178
N7790 X0.7522 Y-0.1321 I0.2489 J-7.3286
N7795 G1 X0.804 Y-0.1318
N7800 X0.8558 Y-0.1317
N7805 X0.9593 Y-0.1316
N7810 X1.1665 Y-0.1315
N7815 X1.3736
N7820 X1.4254 Y-0.1317
N7825 X1.4772 Y-0.1329
N7830 X1.5289 Y-0.136
N7835 X1.5802 Y-0.1423
N7840 X1.6309 Y-0.1531
N7845 X1.68 Y-0.1695
N7850 X1.7268 Y-0.1917
N7855 X1.7701 Y-0.2201
N7860 X1.809 Y-0.2543
N7865 X1.8421 Y-0.2941
N7870 X1.8683 Y-0.3387
N7875 X1.8866 Y-0.3872
N7880 X1.8959 Y-0.4382
N7885 X1.8961 Y-0.4899
N7890 X1.8873 Y-0.541
N7895 X1.8701 Y-0.5898
N7900 X1.8452 Y-0.6352
N7905 X1.8138 Y-0.6764
N7910 X1.7769 Y-0.7127
N7915 X1.7355 Y-0.7439
N7920 X1.6908 Y-0.7699
N7925 X1.6435 Y-0.7911
N7930 X1.5945 Y-0.8079
N7935 X1.5444 Y-0.8208
N7940 X1.4935 Y-0.8304
N7945 X1.4422 Y-0.8374
N7950 X1.3906 Y-0.8423
N7955 G2 X1.0801 Y-0.8517 I-0.286 J4.3333
N7960 X0.8212 Y-0.8527 I-0.2198 J24.3064
N7965 G1 X0.6141
N7970 X0.3552
N7975 X0.3034 Y-0.8516
N7980 X0.252 Y-0.8452
N7985 X0.2019 Y-0.8322
N7990 X0.1541 Y-0.8123
N7995 X0.1095 Y-0.7859
N8000 X0.069 Y-0.7536
N8005 X0.0341 Y-0.7154
N8010 X0.0065 Y-0.6716
N8015 X-0.0123 Y-0.6233
N8020 X-0.0216 Y-0.5724
N8025 X-0.0212 Y-0.5206
N8030 X-0.0115 Y-0.4697
N8035 X0.0067 Y-0.4213
N8040 X0.0326 Y-0.3764
N8045 X0.065 Y-0.3361
N8050 X0.1028 Y-0.3007
N8055 X0.1449 Y-0.2705
N8060 X0.1902 Y-0.2454
N8065 X0.2378 Y-0.2251
N8070 X0.2871 Y-0.2092
N8075 X0.3374 Y-0.1969
N8080 G2 X0.543 Y-0.1734 I0.2556 J-1.3217
N8085 X0.9054 Y-0.1671 I0.3088 J-7.3652
N8090 G1 X0.9572 Y-0.1667
N8095 X1.0608 Y-0.1666
N8100 X1.2679 Y-0.1665
N8105 G2 X1.475 Y-0.1704 I0.0423 J-3.2457
N8110 G1 X1.5264 Y-0.1765
N8115 X1.5771 Y-0.1869
N8120 X1.6263 Y-0.2032
N8125 X1.6726 Y-0.2264
N8130 X1.714 Y-0.2575
N8135 X1.7482 Y-0.2964
N8140 X1.7736 Y-0.3415
N8145 X1.7891 Y-0.3909
N8150 X1.7945 Y-0.4424
N8155 X1.7899 Y-0.494
N8160 X1.7761 Y-0.5439
N8165 X1.7538 Y-0.5907
N8170 X1.7243 Y-0.6332
N8175 X1.6887 Y-0.6709
N8180 X1.6484 Y-0.7033
N8185 X1.6043 Y-0.7305
N8190 X1.5575 Y-0.7526
N8195 X1.5088 Y-0.7701
N8200 X1.4588 Y-0.7837
N8205 X1.408 Y-0.7938
N8210 G2 X1.2018 Y-0.8125 I-0.2502 J1.6057
N8215 X0.8394 Y-0.8173 I-0.3064 J9.5442
N8220 G1 X0.7358 Y-0.8176
N8225 X0.5287 Y-0.8177
N8230 X0.4769
N8235 X0.4251
N8240 X0.3733 Y-0.8164
N8245 X0.3218 Y-0.811
N8250 X0.2713 Y-0.7998
N8255 X0.2229 Y-0.7812
N8260 X0.1794 Y-0.7532
N8265 X0.1433 Y-0.716
N8270 X0.1164 Y-0.6718
N8275 X0.0998 Y-0.6228
N8280 X0.0938 Y-0.5713
N8285 X0.0981 Y-0.5197
N8290 X0.1121 Y-0.4699
N8295 X0.1346 Y-0.4232
N8300 X0.1645 Y-0.3809
N8305 X0.2004 Y-0.3436
N8310 X0.2412 Y-0.3117
N8315 X0.2856 Y-0.2851
N8320 X0.3327 Y-0.2635
N8325 X0.3816 Y-0.2466
N8330 X0.4318 Y-0.2336
N8335 X0.4827 Y-0.224
N8340 G2 X0.6889 Y-0.2064 I0.2481 J-1.6877
N8345 X1.0514 Y-0.2019 I0.307 J-10.2724
N8350 X1.3621 Y-0.2025 I0.1244 J-16.7739
N8355 G1 X1.4138 Y-0.2048
N8360 X1.4653 Y-0.2099
N8365 G2 X1.6513 Y-0.4767 I-0.0366 J-0.2237
N8370 G1 X1.6385 Y-0.5269
N8375 X1.6149 Y-0.573
N8380 X1.5841 Y-0.6146
N8385 X1.5471 Y-0.6509
N8390 X1.5055 Y-0.6817
N8395 X1.4604 Y-0.7071
N8400 X1.4127 Y-0.7273
N8405 X1.3634 Y-0.743
N8410 X1.3129 Y-0.7549
N8415 G2 X1.1068 Y-0.7739 I-0.2548 J1.6308
N8420 X0.7444 Y-0.7791 I-0.3112 J9.156
N8425 G1 X0.6408 Y-0.7795
N8430 X0.5373
N8435 X0.4855 Y-0.7793
N8440 X0.4337 Y-0.7776
N8445 G2 X0.3037 Y-0.4117 I0.0452 J0.2221
N8450 G1 X0.3388 Y-0.3736
N8455 X0.3414 Y-0.3717
N8460 X0.3832 Y-0.3411
N8465 X0.4284 Y-0.3159
N8470 X0.4762 Y-0.2958
N8475 X0.5255 Y-0.2801
N8480 X0.5759 Y-0.2683
N8485 G2 X0.7817 Y-0.246 I0.2512 J-1.3588
N8490 G1 X0.8334 Y-0.2438
N8495 G2 X1.2735 Y-0.2404 I0.3217 J-13.1622
N8500 X1.3778 Y-0.6588 I-0.0157 J-0.2261
N8505 G1 X1.3324 Y-0.6837
N8510 X1.283 Y-0.6994
N8515 X1.2326 Y-0.7113
N8520 G2 X1.027 Y-0.7344 I-0.2579 J1.3702
N8525 X0.6969 Y-0.7407 I-0.2975 J6.8634
N8530 G3 X0.6683 Y-0.7513 I0.0019 J-0.0501
N8535 G1 X0.6639 Y-0.7547 Z0.9384
N8540 X0.6595 Y-0.7581 Z0.9393
N8545 X0.6552 Y-0.7614 Z0.9409
N8550 X0.6511 Y-0.7645 Z0.943
N8555 X0.6472 Y-0.7675 Z0.9457
N8560 X0.6436 Y-0.7703 Z0.949
N8565 X0.6403 Y-0.7729 Z0.9527
N8570 X0.6374 Y-0.7751 Z0.9569
N8575 X0.6348 Y-0.7771 Z0.9615
N8580 X0.6326 Y-0.7788 Z0.9664
N8585 X0.6309 Y-0.7801 Z0.9716
N8590 X0.6297 Y-0.781 Z0.9769
N8595 X0.629 Y-0.7816 Z0.9825
N8600 X0.6287 Y-0.7818 Z0.9881
N8605 G0 Z1.8081

(Face3)
N8610 S8000 M3
N8615 G1 X2.1087 Y-0.2384 F500.
N8620 G0 Z1.8081
N8625 Z1.4081
N8630 G1 Z0.9831 F13.333
N8635 X2.1085 Y-0.2386 Z0.9775 F30.
N8640 X2.1079 Y-0.2393 Z0.9719
N8645 X2.1068 Y-0.2404 Z0.9666
N8650 X2.1052 Y-0.2419 Z0.9614
N8655 X2.1033 Y-0.2438 Z0.9565
N8660 X2.101 Y-0.2461 Z0.9519
N8665 X2.0984 Y-0.2488 Z0.9477
N8670 X2.0954 Y-0.2517 Z0.944
N8675 X2.0922 Y-0.255 Z0.9407
N8680 X2.0887 Y-0.2584 Z0.938
N8685 X2.0851 Y-0.2621 Z0.9359
N8690 X2.0813 Y-0.2659 Z0.9343
N8695 X2.0774 Y-0.2698 Z0.9334
N8700 X2.0734 Y-0.2738 Z0.9331
N8705 X1.2906 Y-1.0566
N8710 X1.075 Y-1.2722
N8715 G2 X0.8594 Y-1.0566 I-0.1078 J0.1078
N8720 G1 X1.8578 Y-0.0582
N8725 G3 X1.6422 Y0.1574 I-0.1078 J0.1078
N8730 G1 X1.5571 Y0.0723
N8735 X0.4281 Y-1.0566
N8740 X0.2139 Y-1.2708
N8745 G2 X-0.0017 Y-1.0552 I-0.1078 J0.1078
N8750 G1 X1.1259 Y0.0723
N8755 G3 X0.9103 Y0.2879 I-0.1078 J0.1078
N8760 G1 X0.6947 Y0.0723
N8765 X-0.2173 Y-0.8396
N8770 X-0.2212 Y-0.8436 Z0.9334
N8775 X-0.2251 Y-0.8475 Z0.9343
N8780 X-0.229 Y-0.8513 Z0.9359
N8785 X-0.2326 Y-0.8549 Z0.938
N8790 X-0.2361 Y-0.8584 Z0.9407
N8795 X-0.2393 Y-0.8616 Z0.944
N8800 X-0.2423 Y-0.8646 Z0.9477
N8805 X-0.2449 Y-0.8672 Z0.9519
N8810 X-0.2472 Y-0.8695 Z0.9565
N8815 X-0.2491 Y-0.8715 Z0.9614
N8820 X-0.2506 Y-0.873 Z0.9666
N8825 X-0.2517 Y-0.8741 Z0.9719
N8830 X-0.2524 Y-0.8747 Z0.9775
N8835 X-0.2526 Y-0.875 Z0.9831
N8840 G0 Z1.8081

(2D Contour1 3)
N8845 G1 X1.5898 Y0.8685 F500.
N8850 G0 Z1.8081
N8855 Z1.4081
N8860 G1 Z0.7862 F13.333
N8865 G19 G2 Y0.8185 Z0.7362 J-0.05 K0. F30.
N8870 G1 Y0.7685
N8875 G17 G3 X1.6398 Y0.7185 I0.05 J0.
N8880 G2 X2.6993 Y0.0936 I0. J-1.2106
N8885 Y-1.0778 I-0.8883 J-0.5857
N8890 X1.6398 Y-1.7028 I-1.0595 J0.5857
N8895 G3 X1.5898 Y-1.7528 I0. J-0.05
N8900 G1 Y-1.8028
N8905 G19 G2 Y-1.8528 Z0.7862 J0. K0.05
N8910 G0 Z1.4081
N8915 Y0.4935
N8920 G1 Z0.7862 F13.333
N8925 G2 Y0.4435 Z0.7362 J-0.05 K0. F30.
N8930 G1 Y0.3935
N8935 G17 G3 X1.6398 Y0.3435 I0.05 J0.
N8940 G2 X2.3782 Y-0.1009 I0. J-0.8356
N8945 Y-0.8833 I-0.5671 J-0.3912
N8950 X1.6398 Y-1.3278 I-0.7384 J0.3912
N8955 G3 X1.5898 Y-1.3778 I0. J-0.05
N8960 G1 Y-1.4278
N8965 G19 G2 Y-1.4778 Z0.7862 J0. K0.05
N8970 G0 Z1.8081

(2D Contour1 4)
N8975 G17
N8980 G1 X-0.05 Y0.1185 F500.
N8985 G0 Z1.8081
N8990 Z1.4081
N8995 G1 Z0.7862 F13.333
N9000 G19 G2 Y0.0685 Z0.7362 J-0.05 K0. F30.
N9005 G1 Y0.0185
N9010 G17 G3 X0. Y-0.0315 I0.05 J0.
N9015 G1 X1.6398
N9020 G2 X2.057 Y-0.2971 I0. J-0.4606
N9025 Y-0.6872 I-0.246 J-0.1951
N9030 X1.6398 Y-0.9528 I-0.4173 J0.1951
N9035 G1 X0.
N9040 G3 X-0.05 Y-1.0028 I0. J-0.05
N9045 G1 Y-1.0528
N9050 G19 G2 Y-1.1028 Z0.7862 J0. K0.05
N9055 G0 Z1.8081

N9060 M5
N9065 M9
N9070 G53 G0 Z0.
N9075 X1.378
N9080 G53 G0 Y0.
N9085 M30

%
